P2
34 34
255
255 255 255 255 255 255 255 255 255 255 255 255 255 255 255 255 255 255 255 255 255 255 255 255 255 255 255 255 255 255 255 255 255 255
255 255 255 255 255 255 255 255 255 255 255 255 255 255 255 255 255 255 255 255 255 255 255 255 255 255 255 255 255 255 255 255 255 255
255 255 255 255 255 255 255 255 255 255 255 255 255 255 255 255 255 255 255 255 255 255 255 255 255 255 255 255 255 255 255 255 255 255
255 255 255 255 255 255 255 255 255 255 255 255 255 255 255 255 255 255 255 255 255 255 255 255 255 255 255 255 255 255 255 255 255 255
255 255 255 255 255 255 255 255 255 255 255 255 255 255 255 255 255 255 255 255 255 255 255 255 255 255 255 255 255 255 255 255 255 255
255 255 255 255 255 255 255 255 255 255 255 255 255 255 255 255 255 255 255 255 255 255 255 255 255 255 255 255 255 255 255 255 255 255
255 255 255 255 255 255 255 255 255 255 255 255 255 255 238 189 163 150 142 140 142 147 157 172 198 235 255 255 255 255 255 255 255 255
255 255 255 255 255 255 255 255 255 255 255 255 181 143 124 117 116 120 129 135 136 134 129 125 129 141 160 198 254 255 255 255 255 255
255 255 255 255 255 255 255 255 255 255 174 134 118 122 139 147 152 155 158 158 159 159 159 156 153 149 135 136 155 202 255 255 255 255
255 255 255 255 255 255 255 255 202 142 120 132 147 155 159 163 163 165 167 167 167 168 168 168 167 165 161 155 139 139 177 253 255 255
255 255 255 255 255 255 255 176 130 124 148 156 162 165 168 170 170 170 172 173 173 174 173 173 172 172 169 166 160 150 134 168 255 255
255 255 255 255 255 255 166 127 141 153 161 167 168 170 172 173 175 175 175 176 177 177 178 178 176 176 174 171 169 163 150 130 179 255
255 255 255 255 255 168 128 146 159 164 169 171 172 174 175 177 176 177 178 178 179 180 179 179 179 179 178 175 174 168 160 137 136 244
255 255 255 255 181 132 148 160 166 172 174 176 175 176 177 179 179 179 179 179 180 181 182 182 180 181 180 179 176 172 164 146 114 193
255 255 255 208 139 146 161 169 172 174 176 178 179 178 179 179 179 180 181 181 182 182 183 182 183 183 181 179 177 174 167 149 101 178
255 255 254 157 138 159 167 173 175 177 179 179 180 181 181 181 181 181 181 182 183 183 183 184 183 183 183 181 178 173 165 135 99 209
255 255 195 136 154 165 172 176 177 179 181 180 181 181 181 182 182 182 183 182 183 184 183 185 184 184 182 180 178 173 164 104 111 255
255 255 159 141 162 170 175 178 180 181 181 181 182 182 183 183 182 182 184 184 183 183 184 184 184 183 182 180 176 171 154 99 140 255
255 227 141 150 166 172 176 179 181 183 182 183 183 183 184 184 184 184 184 183 185 185 185 185 183 182 180 179 175 166 113 108 222 255
255 202 131 154 166 173 178 180 181 182 182 183 184 184 184 184 183 184 184 184 184 184 184 183 184 182 179 176 169 146 101 145 255 255
255 192 125 153 166 173 177 179 181 183 183 184 184 184 185 185 185 184 184 184 183 184 182 182 182 180 178 172 157 101 120 255 255 255
255 203 119 144 164 170 176 179 181 182 183 185 184 184 183 184 184 184 184 184 183 183 182 181 181 178 172 161 105 110 198 255 255 255
255 255 126 101 154 166 173 177 179 182 181 182 183 183 184 184 183 183 183 183 182 183 180 178 176 172 158 105 107 176 255 255 255 255
255 255 174 102 101 157 167 173 176 178 181 181 182 182 182 182 183 183 182 181 180 178 177 173 169 150 102 109 172 255 255 255 255 255
255 255 255 162 105 99 145 164 171 174 177 178 180 181 181 180 179 179 179 178 176 174 170 164 132 100 115 189 255 255 255 255 255 255
255 255 255 255 188 117 101 107 148 165 169 172 174 174 176 177 175 174 173 171 168 163 138 102 104 134 233 255 255 255 255 255 255 255
255 255 255 255 255 255 152 114 102 102 124 145 156 163 166 166 166 164 157 142 115 101 104 123 179 255 255 255 255 255 255 255 255 255
255 255 255 255 255 255 255 254 166 128 110 103 101 100 102 102 101 101 100 105 113 137 190 255 255 255 255 255 255 255 255 255 255 255
255 255 255 255 255 255 255 255 255 255 251 190 160 144 135 134 137 147 166 203 255 255 255 255 255 255 255 255 255 255 255 255 255 255
255 255 255 255 255 255 255 255 255 255 255 255 255 255 255 255 255 255 255 255 255 255 255 255 255 255 255 255 255 255 255 255 255 255
255 255 255 255 255 255 255 255 255 255 255 255 255 255 255 255 255 255 255 255 255 255 255 255 255 255 255 255 255 255 255 255 255 255
255 255 255 255 255 255 255 255 255 255 255 255 255 255 255 255 255 255 255 255 255 255 255 255 255 255 255 255 255 255 255 255 255 255
255 255 255 255 255 255 255 255 255 255 255 255 255 255 255 255 255 255 255 255 255 255 255 255 255 255 255 255 255 255 255 255 255 255
255 255 255 255 255 255 255 255 255 255 255 255 255 255 255 255 255 255 255 255 255 255 255 255 255 255 255 255 255 255 255 255 255 255
