P2
109 109
255
255 255 255 255 255 255 255 255 255 255 255 255 255 255 255 255 255 255 255 255 255 255 255 255 255 255 255 255 255 255 255 255 255 255 255 255 255 255 255 255 255 255 255 255 255 255 255 255 255 255 255 255 255 255 255 255 255 255 255 255 255 255 255 255 255 255 255 255 255 255 255 255 255 255 255 255 255 255 255 255 255 255 255 255 255 255 255 255 255 255 255 255 255 255 255 255 255 255 255 255 255 255 255 255 255 255 255 255 255
255 255 255 255 255 255 255 255 255 255 255 255 255 255 255 255 255 255 255 255 255 255 255 255 255 255 255 255 255 255 255 255 255 255 255 255 255 255 255 255 255 255 255 255 255 255 255 255 255 254 254 253 253 254 253 253 252 253 254 254 255 255 255 255 255 255 255 255 255 255 255 255 255 255 255 255 255 255 255 255 255 255 255 255 255 255 255 255 255 255 255 255 255 255 255 255 255 255 255 255 255 255 255 255 255 255 255 255 255
255 255 255 255 255 255 255 255 255 255 255 255 255 255 255 255 255 255 255 255 255 255 255 255 255 255 255 255 255 255 255 255 255 255 255 255 255 255 255 255 255 255 254 254 254 252 251 249 248 246 246 245 244 242 240 242 242 244 245 244 246 248 249 251 253 254 255 255 255 255 255 255 255 255 255 255 255 255 255 255 255 255 255 255 255 255 255 255 255 255 255 255 255 255 255 255 255 255 255 255 255 255 255 255 255 255 255 255 255
255 255 255 255 255 255 255 255 255 255 255 255 255 255 255 255 255 255 255 255 255 255 255 255 255 255 255 255 255 255 255 255 255 255 255 255 255 255 254 253 250 249 246 245 243 242 238 237 236 234 232 232 229 229 230 230 228 232 232 230 233 236 237 240 241 244 248 249 253 254 255 255 255 255 255 255 255 255 255 255 255 255 255 255 255 255 255 255 255 255 255 255 255 255 255 255 255 255 255 255 255 255 255 255 255 255 255 255 255
255 255 255 255 255 255 255 255 255 255 255 255 255 255 255 255 255 255 255 255 255 255 255 255 255 255 255 255 255 255 255 255 255 255 255 254 252 250 245 241 238 239 235 231 232 229 225 227 223 223 224 217 221 219 218 218 218 219 218 217 217 223 223 225 225 230 235 239 239 244 250 253 254 255 255 255 255 255 255 255 255 255 255 255 255 255 255 255 255 255 255 255 255 255 255 255 255 255 255 255 255 255 255 255 255 255 255 255 255
255 255 255 255 255 255 255 255 255 255 255 255 255 255 255 255 255 255 255 255 255 255 255 255 255 255 255 255 255 255 255 255 255 255 251 248 243 237 233 230 225 221 225 219 217 219 215 212 215 212 216 209 213 214 214 210 213 212 211 213 210 211 212 216 221 220 220 225 233 235 236 242 246 251 253 255 255 255 255 255 255 255 255 255 255 255 255 255 255 255 255 255 255 255 255 255 255 255 255 255 255 255 255 255 255 255 255 255 255
255 255 255 255 255 255 255 255 255 255 255 255 255 255 255 255 255 255 255 255 255 255 255 255 255 255 255 255 255 255 255 254 252 247 241 234 230 227 221 218 214 215 212 209 213 213 213 213 215 215 217 211 216 214 215 216 215 213 216 217 216 214 215 212 215 210 216 215 217 220 225 228 234 237 244 250 253 255 255 255 255 255 255 255 255 255 255 255 255 255 255 255 255 255 255 255 255 255 255 255 255 255 255 255 255 255 255 255 255
255 255 255 255 255 255 255 255 255 255 255 255 255 255 255 255 255 255 255 255 255 255 255 255 255 255 255 255 255 254 251 246 241 235 230 223 220 215 212 214 210 212 211 213 218 217 215 217 215 218 218 217 220 216 220 215 219 216 216 222 215 214 217 216 215 216 213 217 214 215 215 219 224 225 232 236 243 248 253 255 255 255 255 255 255 255 255 255 255 255 255 255 255 255 255 255 255 255 255 255 255 255 255 255 255 255 255 255 255
255 255 255 255 255 255 255 255 255 255 255 255 255 255 255 255 255 255 255 255 255 255 255 255 255 255 255 255 252 246 241 234 229 223 217 214 209 212 210 211 216 215 217 220 216 216 217 218 219 221 220 219 218 219 219 220 220 219 219 221 216 215 219 217 218 214 218 214 214 213 213 212 214 216 221 225 230 237 244 250 254 255 255 255 255 255 255 255 255 255 255 255 255 255 255 255 255 255 255 255 255 255 255 255 255 255 255 255 255
255 255 255 255 255 255 255 255 255 255 255 255 255 255 255 255 255 255 255 255 255 255 255 255 255 255 254 248 242 235 228 223 218 211 212 210 212 214 213 217 212 218 217 219 222 218 218 215 223 222 222 219 219 222 220 221 220 220 222 222 221 220 220 219 219 219 219 217 216 217 215 213 212 210 210 213 218 225 233 236 246 250 254 255 255 255 255 255 255 255 255 255 255 255 255 255 255 255 255 255 255 255 255 255 255 255 255 255 255
255 255 255 255 255 255 255 255 255 255 255 255 255 255 255 255 255 255 255 255 255 255 255 255 255 253 244 238 232 224 215 209 205 210 210 214 212 217 217 216 221 219 220 220 220 217 220 222 222 223 219 221 221 220 221 222 219 221 220 220 224 220 220 223 223 219 221 219 220 217 218 213 217 215 212 211 214 217 219 230 235 242 249 254 255 255 255 255 255 255 255 255 255 255 255 255 255 255 255 255 255 255 255 255 255 255 255 255 255
255 255 255 255 255 255 255 255 255 255 255 255 255 255 255 255 255 255 255 255 255 255 255 255 251 244 235 224 219 212 211 207 212 214 212 218 219 220 217 221 220 221 222 222 217 219 222 222 222 221 221 223 222 221 222 225 222 221 222 225 220 224 223 222 221 218 222 220 220 222 217 219 217 217 218 216 212 210 212 212 222 230 239 246 253 255 255 255 255 255 255 255 255 255 255 255 255 255 255 255 255 255 255 255 255 255 255 255 255
255 255 255 255 255 255 255 255 255 255 255 255 255 255 255 255 255 255 255 255 255 255 254 250 241 231 222 215 213 208 212 213 212 215 216 216 219 218 219 222 220 219 224 220 222 218 225 222 223 223 223 220 221 225 225 221 220 221 221 223 224 223 222 219 221 223 221 219 223 220 220 222 219 216 219 217 214 213 212 211 214 221 224 235 244 250 255 255 255 255 255 255 255 255 255 255 255 255 255 255 255 255 255 255 255 255 255 255 255
255 255 255 255 255 255 255 255 255 255 255 255 255 255 255 255 255 255 255 255 255 254 249 240 228 222 213 215 210 214 213 213 217 218 219 219 218 219 223 219 222 224 222 224 221 224 221 222 224 221 225 225 220 226 225 224 222 222 225 222 222 222 224 222 221 220 219 221 224 218 221 223 219 220 220 217 215 216 218 213 213 216 218 224 231 240 248 253 255 255 255 255 255 255 255 255 255 255 255 255 255 255 255 255 255 255 255 255 255
255 255 255 255 255 255 255 255 255 255 255 255 255 255 255 255 255 255 255 255 254 247 238 227 220 216 209 210 215 214 215 217 218 218 220 219 221 216 221 222 223 224 223 223 223 227 221 223 224 223 224 226 222 226 226 223 224 222 222 222 220 223 220 226 221 224 221 222 224 221 220 220 222 219 220 223 218 218 216 214 211 213 211 213 224 227 236 245 251 255 255 255 255 255 255 255 255 255 255 255 255 255 255 255 255 255 255 255 255
255 255 255 255 255 255 255 255 255 255 255 255 255 255 255 255 255 255 255 254 246 238 228 221 214 210 209 213 216 218 217 219 218 219 219 221 221 221 223 222 224 224 221 223 222 224 224 225 224 225 224 222 225 229 225 225 226 224 223 222 225 223 223 223 222 220 223 223 226 222 220 220 220 221 220 219 221 216 219 215 214 214 213 210 211 222 226 232 243 251 255 255 255 255 255 255 255 255 255 255 255 255 255 255 255 255 255 255 255
255 255 255 255 255 255 255 255 255 255 255 255 255 255 255 255 255 255 254 247 237 227 220 208 210 211 213 217 216 218 220 220 220 222 220 222 222 223 223 224 221 220 227 225 223 222 225 224 222 223 222 223 223 224 224 227 222 225 219 223 224 223 223 221 225 224 224 222 226 223 220 223 223 224 223 220 218 222 218 219 216 219 215 215 210 210 218 221 235 241 251 255 255 255 255 255 255 255 255 255 255 255 255 255 255 255 255 255 255
255 255 255 255 255 255 255 255 255 255 255 255 255 255 255 255 255 254 248 238 228 220 213 208 213 214 215 218 219 219 218 219 220 223 224 223 224 220 221 223 224 224 220 227 224 225 224 222 223 226 223 224 223 225 223 224 226 226 223 226 223 224 219 223 222 223 222 222 223 225 223 224 223 224 222 221 219 223 218 223 219 217 220 217 217 210 212 219 219 231 242 249 255 255 255 255 255 255 255 255 255 255 255 255 255 255 255 255 255
255 255 255 255 255 255 255 255 255 255 255 255 255 255 255 255 254 250 239 229 219 214 207 212 212 214 217 219 217 220 220 220 225 223 225 218 225 223 222 227 223 224 225 226 224 225 224 222 222 224 223 222 224 225 225 225 224 222 223 225 221 224 227 224 222 220 223 224 222 221 225 225 224 222 223 221 224 218 217 222 220 222 221 216 217 217 211 210 216 226 232 240 252 255 255 255 255 255 255 255 255 255 255 255 255 255 255 255 255
255 255 255 255 255 255 255 255 255 255 255 255 255 255 255 255 251 241 232 219 212 206 212 212 216 216 218 219 220 221 219 220 222 222 223 222 225 222 223 224 225 221 224 225 225 226 225 221 221 224 227 223 224 229 225 224 224 224 221 225 224 221 223 226 223 227 224 225 221 225 225 223 222 223 221 223 224 221 224 218 224 222 219 222 217 217 214 211 210 217 223 232 242 250 255 255 255 255 255 255 255 255 255 255 255 255 255 255 255
255 255 255 255 255 255 255 255 255 255 255 255 255 255 255 253 245 232 223 213 213 211 215 218 218 221 220 219 220 222 221 221 219 222 223 224 226 224 222 223 225 222 225 224 223 223 225 226 226 226 221 222 224 223 226 225 224 226 228 224 224 222 224 220 225 222 225 224 228 222 224 223 224 226 224 227 220 224 224 221 218 223 223 218 222 219 213 218 211 208 215 221 233 242 251 255 255 255 255 255 255 255 255 255 255 255 255 255 255
255 255 255 255 255 255 255 255 255 255 255 255 255 255 254 247 236 229 213 210 209 210 213 214 220 218 219 222 222 222 221 224 222 223 226 225 224 222 224 226 225 225 224 225 224 224 224 225 227 224 223 225 219 224 223 226 222 225 226 224 222 225 222 222 222 226 223 225 225 228 225 225 225 225 223 225 223 223 222 224 223 220 222 221 220 217 219 218 216 217 206 218 223 233 245 252 255 255 255 255 255 255 255 255 255 255 255 255 255
255 255 255 255 255 255 255 255 255 255 255 255 255 255 250 238 229 214 210 208 212 217 213 218 218 216 218 224 221 221 223 222 227 226 226 224 222 222 224 225 222 222 222 225 223 226 224 226 224 224 223 225 223 225 224 225 225 223 222 222 227 222 223 224 222 226 223 223 224 223 224 224 227 226 221 225 222 223 226 224 221 223 223 222 221 218 219 215 218 216 211 213 216 225 235 247 253 255 255 255 255 255 255 255 255 255 255 255 255
255 255 255 255 255 255 255 255 255 255 255 255 255 253 243 232 220 211 202 215 219 215 220 219 220 219 221 223 222 223 221 225 224 226 223 224 227 225 225 221 223 224 226 222 224 228 224 226 225 227 222 225 225 223 224 223 224 223 226 226 228 223 225 223 225 224 223 223 224 226 225 225 225 226 223 223 224 221 224 222 226 221 220 220 226 218 220 217 218 218 215 211 210 216 226 236 247 254 255 255 255 255 255 255 255 255 255 255 255
255 255 255 255 255 255 255 255 255 255 255 255 254 247 236 224 210 207 213 208 218 214 219 219 221 223 223 222 224 222 225 224 226 225 225 225 223 225 226 223 224 223 224 225 224 223 224 225 227 225 227 224 225 225 224 224 223 224 226 224 221 225 223 221 224 226 222 223 225 225 227 223 222 224 223 223 223 224 224 222 224 224 222 219 223 222 220 222 219 217 219 215 210 212 222 229 241 251 255 255 255 255 255 255 255 255 255 255 255
255 255 255 255 255 255 255 255 255 255 255 255 250 240 225 215 207 209 211 216 218 215 218 218 222 223 222 224 223 223 224 225 222 226 227 225 224 224 224 222 226 223 224 222 225 226 224 222 224 223 222 222 227 226 225 224 221 223 224 224 226 225 223 223 227 225 223 224 225 226 226 223 225 224 223 225 224 223 224 222 223 219 221 222 220 223 220 223 220 219 217 217 215 211 212 223 231 245 253 255 255 255 255 255 255 255 255 255 255
255 255 255 255 255 255 255 255 255 255 255 253 242 231 221 211 207 210 214 217 219 218 222 221 223 221 221 223 224 222 223 227 225 226 225 225 224 226 223 224 224 223 225 227 226 224 226 222 226 225 224 223 226 226 223 221 225 226 223 222 222 226 223 223 222 221 224 224 223 223 223 224 227 223 226 225 221 224 223 223 224 227 224 226 221 221 224 216 219 220 222 217 218 210 210 217 226 238 248 255 255 255 255 255 255 255 255 255 255
255 255 255 255 255 255 255 255 255 255 254 245 235 220 213 207 209 213 214 217 222 221 224 220 222 221 227 224 222 225 224 223 224 223 227 226 224 225 223 223 226 226 224 225 226 223 224 226 223 223 226 227 226 224 224 225 220 221 225 222 223 224 224 226 221 220 225 223 223 225 223 223 221 223 226 223 221 222 225 225 226 221 224 223 221 222 222 226 222 218 220 220 218 215 214 210 219 226 239 250 255 255 255 255 255 255 255 255 255
255 255 255 255 255 255 255 255 255 255 249 238 224 214 206 208 210 215 217 215 221 223 222 224 221 225 225 226 225 223 226 224 225 224 225 224 226 226 224 222 226 226 223 222 226 226 222 224 222 228 224 223 225 228 223 226 222 225 225 225 224 224 224 221 224 225 222 221 224 222 223 225 227 226 222 225 224 224 223 226 221 222 223 221 222 223 222 222 221 219 225 219 219 213 215 213 211 220 234 244 253 255 255 255 255 255 255 255 255
255 255 255 255 255 255 255 255 255 254 241 226 214 209 204 208 217 215 217 219 217 220 224 222 222 223 224 223 222 224 224 226 225 227 225 227 222 222 225 226 226 223 225 226 221 224 224 225 224 221 224 223 223 224 226 225 223 223 222 228 225 222 224 221 225 223 226 226 221 224 224 226 225 224 225 225 225 223 224 223 225 221 225 227 223 222 224 221 219 218 219 218 219 216 215 213 212 216 222 237 249 255 255 255 255 255 255 255 255
255 255 255 255 255 255 255 255 255 249 233 220 204 197 204 211 215 214 220 218 223 221 225 220 222 222 222 224 224 223 223 224 225 226 225 224 222 227 226 224 226 223 224 224 224 222 225 220 218 224 225 222 225 226 226 221 225 224 222 221 228 224 221 223 225 223 223 223 226 222 227 220 224 225 227 223 224 223 224 221 222 225 221 223 227 223 225 223 222 222 222 223 219 217 218 216 212 210 218 230 243 253 255 255 255 255 255 255 255
255 255 255 255 255 255 255 255 253 242 227 213 203 201 205 210 214 218 219 222 220 218 222 224 225 225 224 222 226 222 222 226 224 225 222 228 221 223 220 225 223 225 225 224 227 225 223 225 226 223 223 224 222 227 222 223 225 223 222 221 224 221 227 226 221 223 225 223 224 224 226 223 225 222 221 221 227 224 224 224 223 222 223 222 223 224 226 221 221 223 222 220 223 219 220 214 214 213 215 225 236 249 255 255 255 255 255 255 255
255 255 255 255 255 255 255 255 251 234 221 206 201 205 211 214 216 216 218 222 219 222 223 223 223 222 223 224 224 224 225 227 226 225 223 225 222 225 224 225 225 222 223 222 223 227 223 227 224 225 223 222 223 224 223 226 224 225 225 223 222 226 218 224 223 222 223 223 223 224 222 226 224 224 221 225 227 225 226 221 225 223 225 219 223 222 223 222 224 223 221 224 220 221 220 215 215 211 210 216 227 241 253 255 255 255 255 255 255
255 255 255 255 255 255 255 255 246 228 212 206 202 208 211 215 218 221 223 221 222 221 222 222 222 223 223 222 221 227 225 226 224 222 223 222 224 225 224 226 226 223 221 223 225 222 224 223 226 223 224 223 224 224 224 225 222 225 226 226 222 223 223 222 223 224 224 222 226 223 225 224 225 223 226 225 224 223 225 226 224 224 222 226 223 225 222 223 223 226 222 225 222 221 219 218 216 214 209 218 226 237 248 255 255 255 255 255 255
255 255 255 255 255 255 255 253 240 223 209 201 204 204 213 217 216 218 224 219 221 223 222 225 223 223 226 222 223 223 226 222 227 226 223 223 225 224 226 224 221 225 226 220 220 224 224 222 227 222 223 222 222 222 223 221 223 225 222 226 222 224 225 223 224 225 222 221 221 222 227 225 223 223 224 222 223 221 225 224 224 225 224 224 225 224 224 226 223 223 220 218 221 219 215 220 216 214 213 212 219 231 243 254 255 255 255 255 255
255 255 255 255 255 255 255 250 232 220 199 199 204 211 214 218 220 219 221 221 223 222 221 223 224 222 225 223 222 223 226 225 223 226 224 224 225 222 224 225 222 221 223 222 225 222 222 222 225 223 222 223 225 223 222 220 222 224 220 222 223 220 223 221 224 222 227 220 226 224 223 224 224 228 224 224 223 222 224 222 223 221 224 223 223 222 222 223 222 224 221 221 221 222 218 222 220 214 214 215 217 227 236 252 255 255 255 255 255
255 255 255 255 255 255 255 244 226 211 199 200 207 213 212 215 219 218 221 219 223 220 223 224 223 224 223 224 221 224 223 223 223 225 224 223 225 226 222 221 223 226 223 225 223 221 225 223 224 225 222 224 227 221 222 223 220 222 220 225 223 225 222 224 222 225 225 222 224 224 223 224 224 225 223 223 225 226 222 226 221 228 224 224 225 221 225 223 222 222 220 224 224 221 222 220 220 220 217 213 212 217 233 244 254 255 255 255 255
255 255 255 255 255 255 254 241 222 205 198 200 207 210 213 217 222 218 219 222 222 224 220 224 226 223 227 222 224 225 225 223 226 226 225 223 225 223 224 224 222 221 224 224 222 219 222 224 225 223 224 223 227 223 223 222 223 225 223 222 223 223 221 223 225 224 224 221 224 224 223 221 226 223 225 223 225 226 222 223 222 221 227 226 223 222 222 225 222 223 221 222 225 220 219 220 219 217 215 216 214 217 226 241 252 255 255 255 255
255 255 255 255 255 255 251 236 216 200 196 204 208 215 217 216 220 221 223 218 222 223 223 225 223 227 223 223 225 223 225 226 222 223 223 226 226 221 224 223 225 224 221 222 223 224 220 221 223 222 224 223 223 224 225 219 219 220 224 223 221 219 222 223 220 224 225 223 223 225 223 224 223 223 223 225 225 223 225 223 225 225 222 227 223 223 226 225 225 224 224 223 225 222 222 220 218 222 219 214 213 215 223 235 249 255 255 255 255
255 255 255 255 255 255 248 229 214 198 195 206 211 214 213 218 218 223 219 223 223 224 223 225 221 225 223 222 227 224 223 224 225 225 225 222 223 223 225 222 221 223 225 221 221 226 222 222 223 221 220 221 224 221 224 223 223 220 222 224 223 222 225 218 223 225 222 222 221 224 227 222 222 224 221 224 226 221 223 223 224 221 225 223 224 226 224 224 223 226 223 226 223 222 224 220 220 219 219 216 215 209 222 233 244 254 255 255 255
255 255 255 255 255 255 243 225 209 198 197 208 212 214 219 219 219 223 222 223 224 222 222 222 222 224 221 224 226 226 223 224 224 225 224 221 221 223 222 223 223 224 222 225 223 223 225 222 224 223 218 221 221 222 222 221 223 222 223 222 223 224 223 218 224 221 221 224 222 223 223 223 223 222 224 223 223 225 224 222 224 223 223 222 223 223 225 224 223 225 223 226 223 221 222 218 219 219 220 216 211 211 215 224 241 252 255 255 255
255 255 255 255 255 254 239 224 206 191 203 209 213 217 217 219 220 217 220 221 219 226 222 224 223 220 226 225 223 225 224 223 222 225 222 224 225 224 221 225 221 223 223 225 226 222 224 222 222 222 222 222 221 222 222 220 221 222 224 222 221 223 223 222 220 224 223 222 225 222 226 223 225 224 225 223 227 221 224 226 221 224 224 226 225 222 223 225 223 224 224 224 222 222 223 223 222 219 218 217 216 210 212 226 235 250 255 255 255
255 255 255 255 255 253 235 218 204 197 203 209 212 213 216 220 219 218 220 221 224 222 225 225 223 221 224 224 226 225 221 225 226 226 225 225 226 223 222 226 221 223 222 224 219 222 222 221 223 222 222 218 221 225 221 222 221 222 219 224 223 223 222 221 219 226 220 224 225 222 224 222 223 224 221 224 222 224 223 226 226 223 224 226 226 228 227 224 222 227 222 226 225 223 223 222 223 221 220 215 215 211 213 220 232 245 255 255 255
255 255 255 255 255 250 233 213 200 190 200 209 212 217 219 222 215 220 221 222 222 221 223 222 221 224 221 224 223 225 222 223 224 221 225 226 223 222 223 221 224 225 222 223 225 221 223 224 222 219 220 221 223 223 219 221 221 221 221 220 223 223 222 224 222 220 223 224 226 222 221 224 222 224 225 222 223 223 224 225 225 224 223 226 222 226 226 222 222 222 221 222 222 222 219 222 218 219 219 217 218 213 210 219 227 244 253 255 255
255 255 255 255 255 249 231 210 202 196 205 210 213 216 219 218 222 223 225 221 222 224 224 225 224 224 224 228 228 224 221 225 224 224 222 225 224 226 219 222 222 226 221 223 220 221 219 226 221 222 222 222 220 228 222 224 223 224 222 218 222 222 221 222 223 222 224 224 222 223 220 224 220 222 222 224 226 222 224 225 226 223 224 224 224 224 227 223 222 223 223 224 224 221 224 218 220 221 221 218 215 215 207 213 226 239 251 255 255
255 255 255 255 255 249 227 207 194 194 205 207 214 217 221 219 220 222 221 225 221 222 223 221 225 227 222 223 223 224 224 226 225 225 224 223 221 225 220 223 222 222 223 221 222 222 221 219 218 223 223 221 219 225 222 220 222 219 221 220 219 222 219 223 225 220 222 222 223 223 222 220 223 221 223 223 223 219 225 225 222 224 223 225 225 227 223 225 223 224 223 223 223 222 224 223 225 217 222 216 218 214 209 212 223 238 250 255 255
255 255 255 255 255 245 224 204 195 194 207 209 216 221 219 220 224 222 221 221 222 224 221 224 224 222 221 224 224 223 222 220 225 223 223 223 222 223 223 221 223 220 225 223 223 223 222 224 221 220 223 222 219 221 222 222 221 222 223 218 220 222 222 225 221 222 220 223 222 221 226 221 226 222 224 223 221 223 226 222 224 226 225 223 225 222 225 222 225 224 221 222 222 223 223 221 222 221 221 220 218 218 211 213 221 232 248 255 255
255 255 255 255 255 245 222 205 193 196 204 211 212 217 218 220 222 221 219 222 223 221 225 222 224 222 223 226 224 224 222 223 223 223 225 220 223 222 222 221 223 222 221 220 224 223 222 222 224 219 223 224 222 221 221 217 221 220 221 218 220 219 218 226 219 224 221 221 221 222 224 221 225 222 222 223 223 222 221 223 226 223 222 226 224 222 224 223 223 224 224 226 225 223 221 225 221 222 219 217 214 216 213 214 218 230 244 254 255
255 255 255 255 255 243 220 205 192 192 203 212 215 217 218 220 218 223 220 223 224 223 224 222 222 226 220 226 223 226 226 218 225 224 223 224 221 222 222 222 224 222 224 219 223 219 223 223 224 221 220 218 219 222 222 224 221 222 221 222 222 219 220 222 221 223 220 221 222 221 223 225 225 224 225 224 222 221 226 220 225 225 223 226 225 225 225 223 226 225 223 223 221 225 222 223 224 221 224 219 219 219 211 213 215 231 244 253 255
255 255 255 255 255 242 221 202 192 195 205 213 218 219 218 222 221 219 221 220 222 221 223 224 225 225 222 228 222 226 224 225 223 223 221 221 222 221 223 224 223 224 221 223 221 221 222 217 220 219 221 222 221 223 221 220 220 223 221 222 221 220 226 224 223 221 223 222 220 222 223 223 221 221 222 221 224 224 226 223 224 223 224 224 226 223 224 227 226 226 224 225 223 223 225 221 221 222 220 219 218 220 216 210 217 226 239 253 255
255 255 255 255 255 241 222 199 189 191 206 209 216 217 217 221 220 221 226 222 221 221 224 222 224 223 224 224 225 222 225 223 224 222 222 225 221 222 222 223 221 223 222 224 223 221 222 221 224 222 221 224 222 223 220 222 221 220 224 219 220 220 222 222 220 221 223 220 224 221 226 221 223 225 221 223 221 223 223 223 224 223 224 224 222 223 223 222 223 222 225 224 223 225 223 222 222 221 222 219 220 217 214 213 215 228 240 252 255
255 255 255 255 255 240 220 202 191 194 205 210 215 216 216 220 220 217 223 222 222 223 223 222 224 223 225 223 225 225 222 223 225 223 221 221 219 223 223 222 223 222 221 223 221 221 221 223 222 220 220 221 220 222 221 222 223 220 219 219 223 221 222 221 223 222 222 222 223 221 222 221 224 226 226 225 226 221 225 222 221 224 221 226 225 224 221 223 225 224 224 223 225 225 223 221 223 220 220 217 219 214 218 214 216 224 236 250 255
255 255 255 255 255 241 221 206 190 193 205 209 214 220 217 216 222 222 223 223 225 219 224 222 223 223 221 220 222 224 221 225 224 222 225 224 222 223 222 221 224 221 224 223 221 218 218 219 222 223 220 219 219 225 222 221 223 224 222 222 220 221 222 224 219 219 222 219 221 221 223 222 224 223 223 225 223 223 221 224 224 221 222 224 225 226 225 223 225 222 226 223 227 224 220 223 224 222 222 222 219 217 215 213 214 224 238 251 255
255 255 255 255 255 243 221 203 191 192 206 212 216 218 217 218 221 221 221 222 224 224 224 224 224 222 224 223 225 222 222 223 221 224 223 223 222 223 224 224 224 225 224 221 223 221 224 217 220 222 222 222 220 220 219 223 222 220 223 220 219 220 223 221 221 221 221 224 223 222 222 224 224 224 225 223 221 223 225 224 224 224 224 221 225 224 224 225 223 223 225 226 222 224 223 225 223 225 219 218 217 218 216 211 210 223 236 248 255
255 255 255 255 255 245 225 203 191 200 206 214 211 218 217 217 221 222 222 221 223 222 225 225 223 222 223 223 223 225 223 224 223 224 224 224 223 224 225 223 222 223 222 223 221 218 224 223 220 224 222 218 221 223 220 221 221 222 225 223 225 219 222 221 220 222 222 220 223 221 224 225 223 224 224 222 222 223 225 224 223 223 224 223 222 224 226 225 226 222 223 223 223 225 223 220 221 221 221 221 219 219 218 213 214 219 233 249 255
255 255 255 255 255 247 226 210 194 187 208 214 213 216 218 220 219 222 224 221 221 224 223 225 224 221 221 224 226 222 225 224 224 221 224 223 221 223 221 221 223 223 223 221 222 223 221 220 221 218 219 224 220 224 221 221 221 222 222 220 221 222 224 222 220 220 224 221 222 223 224 223 223 220 224 224 222 224 221 223 224 222 223 224 223 225 224 224 224 227 223 224 227 222 223 221 224 224 221 225 220 214 214 214 215 223 233 249 255
255 255 255 255 255 251 230 212 200 193 203 209 214 218 218 220 221 218 221 222 223 222 228 224 224 224 224 225 225 222 223 226 223 223 224 224 223 223 225 222 221 222 222 222 220 223 219 224 222 223 222 221 222 222 220 221 222 219 219 224 223 221 223 221 220 224 221 220 223 219 222 224 224 224 224 224 226 222 225 222 224 221 226 226 226 226 224 226 222 226 224 227 222 225 224 223 223 224 222 218 219 218 215 212 215 225 235 249 255
255 255 255 255 255 252 233 214 196 187 204 206 213 215 216 218 220 219 224 223 222 222 224 224 220 223 221 223 226 224 221 225 224 223 223 223 223 224 220 222 222 219 220 222 222 220 221 220 223 225 221 223 222 223 221 218 220 222 219 221 222 220 222 222 223 225 221 224 222 223 222 223 223 225 223 224 221 223 223 224 222 223 226 222 225 222 224 224 224 224 225 223 224 222 223 224 225 219 221 220 219 217 216 211 211 219 237 249 255
255 255 255 255 255 253 236 217 200 190 196 208 211 213 215 219 219 217 220 221 224 223 223 221 225 221 225 223 222 224 221 224 223 223 224 223 224 221 222 221 222 221 225 220 221 221 223 222 219 223 222 220 220 222 220 221 223 222 223 222 222 223 220 224 221 220 221 221 220 222 223 222 225 224 224 220 222 224 226 224 222 224 223 222 224 226 225 225 223 222 226 222 225 225 227 225 222 223 219 221 223 215 216 213 214 223 237 249 255
255 255 255 255 255 254 237 219 202 195 196 207 211 213 218 220 218 221 224 221 222 221 222 223 221 220 224 221 224 224 224 223 224 225 222 223 223 223 220 222 222 223 221 218 219 224 222 221 222 223 221 221 221 222 223 219 221 219 222 223 223 223 220 222 219 222 222 221 221 221 221 224 222 217 223 224 224 223 224 223 223 227 225 227 225 223 225 223 222 227 221 225 222 220 221 225 225 224 221 221 219 217 219 212 211 222 236 250 255
255 255 255 255 255 255 243 222 203 192 196 209 215 216 217 218 221 220 222 223 222 223 224 224 222 224 221 223 222 224 223 220 222 223 226 226 223 221 223 221 221 222 224 224 221 221 217 222 220 222 217 220 219 224 223 222 223 222 222 219 222 222 222 222 223 222 222 222 222 223 223 223 222 221 225 224 223 224 223 225 222 223 223 224 226 225 222 226 228 223 225 226 223 223 221 223 223 221 218 219 221 218 216 212 214 224 239 250 255
255 255 255 255 255 255 245 224 210 197 199 205 211 215 218 218 220 220 218 222 223 222 221 224 225 221 225 222 219 225 226 223 220 223 221 221 224 222 222 222 222 224 222 220 220 220 225 220 224 219 220 219 224 222 219 221 219 222 223 220 221 222 221 221 222 225 223 223 222 222 224 223 221 225 225 224 220 225 224 225 225 225 223 223 223 222 225 224 226 223 226 223 224 221 218 223 221 221 221 219 221 216 213 215 215 225 242 251 255
255 255 255 255 255 255 249 229 212 195 195 201 210 214 215 218 218 218 220 221 219 224 222 223 222 222 224 224 223 224 222 221 222 223 224 223 220 222 223 224 225 225 223 221 223 221 223 221 223 223 222 219 222 222 221 221 221 221 222 222 220 221 221 223 221 222 221 224 221 222 220 224 224 224 223 226 224 224 222 225 227 224 227 226 223 224 225 225 227 221 223 226 224 221 223 224 222 222 221 222 218 222 216 212 219 227 240 252 255
255 255 255 255 255 255 251 231 212 198 192 199 206 214 216 214 222 223 218 220 223 224 221 225 221 222 222 222 222 225 225 222 222 225 222 226 220 224 225 221 220 225 224 222 224 223 220 224 221 222 218 222 221 223 219 221 221 221 221 219 220 219 221 218 223 222 223 226 223 222 224 226 222 220 221 221 224 224 223 225 223 224 226 222 223 223 226 224 225 224 223 222 222 224 225 222 224 221 222 219 216 215 214 211 218 231 241 253 255
255 255 255 255 255 255 254 240 220 201 195 194 206 212 214 219 215 221 219 222 224 225 224 223 226 221 221 222 225 221 222 222 225 224 223 219 222 220 224 222 222 221 225 221 227 222 223 223 220 221 221 222 222 222 222 222 224 220 219 221 222 222 222 222 224 224 222 221 220 223 223 223 221 223 225 224 223 223 222 225 224 223 225 223 224 224 224 225 226 225 225 222 221 222 225 223 221 222 220 220 217 216 215 209 217 230 244 254 255
255 255 255 255 255 255 255 243 226 205 191 194 204 207 212 218 219 218 218 219 224 221 222 223 225 222 223 223 222 223 222 225 223 224 222 219 225 223 222 223 222 222 220 226 219 221 223 221 222 221 224 221 221 220 223 223 221 224 224 223 222 224 220 217 219 224 222 221 221 223 222 226 222 220 226 223 221 226 225 223 222 227 225 221 224 226 227 225 223 222 223 224 225 224 226 223 219 220 220 221 216 217 213 212 221 233 247 255 255
255 255 255 255 255 255 255 249 227 209 200 190 201 210 214 213 216 222 220 219 219 221 221 221 224 221 224 220 221 224 224 220 221 221 224 228 226 225 224 220 224 219 225 224 222 221 224 222 224 221 222 223 222 222 221 223 223 223 223 221 224 226 221 220 222 224 224 226 223 222 222 223 226 223 224 226 224 223 224 223 223 222 225 224 224 224 224 226 223 227 227 222 222 221 224 225 220 222 221 219 215 215 212 211 223 237 249 255 255
255 255 255 255 255 255 255 253 235 216 202 191 196 206 209 215 215 219 220 221 223 219 220 219 221 223 224 223 221 223 223 224 221 221 221 224 221 225 225 221 224 223 224 224 224 221 224 223 225 223 222 222 223 221 219 219 223 220 223 223 223 224 223 223 224 223 224 222 219 223 223 224 223 221 220 225 223 224 223 223 223 222 222 224 226 222 225 226 225 227 222 221 224 224 226 222 222 223 218 218 220 215 210 215 228 236 252 255 255
255 255 255 255 255 255 255 255 240 220 203 194 188 205 211 214 219 216 218 218 220 220 222 223 223 224 222 223 222 222 223 223 226 223 223 222 223 223 223 224 222 224 224 222 225 223 224 221 222 222 223 222 222 221 221 222 223 224 220 223 221 221 221 223 222 226 221 224 226 223 223 222 222 223 223 222 221 224 226 221 227 223 227 223 223 225 223 225 224 225 222 226 222 220 225 223 222 220 222 217 220 212 215 217 232 242 254 255 255
255 255 255 255 255 255 255 255 248 227 209 190 188 200 207 212 214 217 217 221 222 220 221 222 222 222 221 221 220 221 223 222 223 222 222 223 224 222 224 224 221 222 224 225 226 222 221 221 223 224 222 223 221 222 225 223 221 220 221 224 223 221 222 223 222 222 221 221 223 223 224 226 225 222 227 225 222 226 228 222 224 225 223 226 223 225 226 222 225 222 228 223 222 222 222 220 222 221 218 220 218 213 214 223 231 246 254 255 255
255 255 255 255 255 255 255 255 253 235 217 198 189 197 206 208 212 215 219 219 218 224 223 222 222 223 224 220 222 222 220 226 224 225 221 219 222 223 224 223 223 224 222 223 222 223 221 222 222 224 221 221 224 222 223 221 222 222 222 224 223 223 221 222 220 224 223 223 224 223 222 225 225 222 223 224 224 223 228 224 223 226 224 222 223 224 227 223 226 224 224 225 224 220 222 219 222 218 218 217 216 216 214 223 235 248 255 255 255
255 255 255 255 255 255 255 255 255 242 224 205 195 187 198 207 212 217 217 216 220 216 220 220 221 221 220 222 224 223 226 224 224 224 223 223 223 221 223 222 221 221 222 223 220 223 225 223 223 221 221 221 221 224 224 222 221 221 224 221 221 220 226 221 225 223 225 220 220 224 223 223 224 225 223 224 222 225 225 222 227 225 225 224 225 222 226 222 223 229 223 221 222 220 224 223 219 219 217 217 217 218 218 227 241 251 255 255 255
255 255 255 255 255 255 255 255 255 250 230 212 197 189 195 205 209 213 216 219 215 218 221 221 223 222 221 223 223 222 224 226 223 224 223 226 225 226 224 221 224 224 222 222 221 223 226 221 224 226 226 219 226 222 221 222 223 222 220 222 224 223 223 224 222 224 223 222 220 224 219 222 223 225 224 223 224 224 222 225 227 226 224 224 224 223 223 227 224 222 224 223 222 222 224 221 218 221 216 217 216 212 221 230 245 253 255 255 255
255 255 255 255 255 255 255 255 255 254 241 219 206 192 192 201 206 211 218 219 217 219 220 223 221 217 222 224 220 225 224 224 225 222 219 225 223 221 222 220 222 222 221 222 222 222 223 224 224 220 224 225 221 222 221 221 222 222 224 226 223 221 224 222 223 225 221 224 226 223 224 221 224 224 223 224 226 224 225 220 226 224 223 222 226 225 225 223 224 224 222 220 221 222 221 222 220 220 216 215 216 215 225 236 249 255 255 255 255
255 255 255 255 255 255 255 255 255 255 249 228 207 195 186 198 207 212 213 216 212 216 221 219 220 221 224 221 222 221 223 226 220 221 225 226 221 224 224 225 222 219 223 223 227 224 222 224 221 223 222 223 223 223 222 222 225 222 221 226 224 225 226 223 225 225 224 222 221 223 227 224 224 223 224 221 225 227 225 219 222 225 223 225 226 222 225 227 222 221 223 222 222 223 221 222 220 214 217 215 211 217 229 240 252 255 255 255 255
255 255 255 255 255 255 255 255 255 255 253 237 220 199 190 189 199 211 215 215 218 216 218 218 222 219 219 220 219 221 223 224 221 226 223 226 223 223 224 224 222 222 223 223 227 222 225 226 224 223 226 223 226 224 225 221 223 224 224 223 225 225 219 224 222 222 223 224 224 225 225 224 224 227 223 228 224 224 225 227 222 224 227 221 223 227 223 224 221 225 223 223 222 224 220 221 220 218 216 211 212 221 233 245 254 255 255 255 255
255 255 255 255 255 255 255 255 255 255 255 247 230 206 193 186 189 205 212 211 215 216 217 220 219 223 221 223 220 223 224 221 222 223 224 227 224 223 222 222 226 224 225 223 223 222 225 223 223 225 224 224 222 221 221 220 223 223 222 226 223 221 225 226 225 225 223 225 224 223 224 224 225 224 225 224 225 225 226 225 229 225 226 226 225 225 223 223 221 223 225 222 221 222 219 218 221 217 215 212 217 228 238 250 255 255 255 255 255
255 255 255 255 255 255 255 255 255 255 255 254 238 217 204 190 191 197 207 211 214 216 216 220 221 223 219 223 223 222 221 224 222 224 224 222 224 223 223 223 221 224 224 225 225 223 221 221 222 223 222 224 223 226 224 221 224 222 222 225 225 222 222 225 223 225 224 226 224 225 227 225 224 224 221 221 225 225 226 222 228 224 228 223 226 223 224 224 223 223 223 222 219 219 221 218 216 217 215 216 221 233 245 252 255 255 255 255 255
255 255 255 255 255 255 255 255 255 255 255 255 250 228 211 195 190 190 201 210 213 214 216 218 218 222 219 218 221 220 220 223 223 224 219 222 221 221 221 225 222 224 225 222 224 222 226 224 224 222 221 225 223 221 225 224 222 225 224 223 227 225 223 224 223 224 225 224 224 224 227 224 226 223 227 224 223 225 224 221 224 221 222 223 227 226 225 224 225 223 224 221 223 222 218 218 217 215 213 217 226 237 248 255 255 255 255 255 255
255 255 255 255 255 255 255 255 255 255 255 255 254 243 218 205 190 186 195 206 210 210 216 214 216 219 223 221 218 221 222 222 224 222 221 224 224 220 223 221 225 224 223 221 222 223 224 221 224 224 224 223 221 224 222 224 224 222 222 223 225 222 225 226 223 224 224 223 225 223 223 222 224 224 225 223 221 227 226 225 224 227 226 223 225 225 225 222 223 220 220 224 223 223 218 218 215 213 210 219 233 243 253 255 255 255 255 255 255
255 255 255 255 255 255 255 255 255 255 255 255 255 251 235 213 200 185 189 199 207 212 214 216 220 217 220 221 221 223 224 222 223 225 222 224 223 225 221 222 224 221 222 224 226 221 222 222 223 224 220 225 223 224 226 223 221 226 221 222 224 223 226 225 225 224 225 224 222 226 224 224 224 223 222 222 223 225 223 222 225 224 225 224 223 220 223 222 222 220 221 222 219 220 216 217 215 213 215 226 239 250 255 255 255 255 255 255 255
255 255 255 255 255 255 255 255 255 255 255 255 255 255 245 227 210 195 192 190 202 208 212 216 213 216 220 219 223 218 222 221 224 223 224 223 220 223 221 223 224 227 221 223 222 225 223 222 223 222 225 224 222 225 223 225 225 227 223 226 224 222 223 225 225 223 224 226 224 224 225 223 223 224 223 226 225 227 222 223 223 224 224 225 222 224 225 226 226 222 222 222 217 216 217 214 212 215 222 232 245 252 255 255 255 255 255 255 255
255 255 255 255 255 255 255 255 255 255 255 255 255 255 254 243 220 204 191 184 191 205 206 212 215 217 215 216 221 219 217 219 221 220 223 223 222 225 223 224 223 224 221 221 222 221 221 222 221 225 222 225 227 221 223 221 223 222 227 224 223 223 223 224 222 223 224 223 224 223 227 223 222 225 226 224 223 223 223 227 222 223 224 224 225 224 224 222 221 220 221 218 217 216 213 212 212 217 229 240 250 255 255 255 255 255 255 255 255
255 255 255 255 255 255 255 255 255 255 255 255 255 255 255 252 233 220 201 191 185 192 204 208 212 214 217 217 218 220 219 221 220 222 221 222 223 224 224 224 225 225 221 226 223 225 219 224 225 225 224 225 223 223 223 225 230 224 226 224 224 223 226 226 222 222 225 228 225 225 224 225 223 224 225 223 227 227 225 224 223 224 225 220 225 223 222 221 224 222 217 219 218 215 215 211 215 224 235 247 254 255 255 255 255 255 255 255 255
255 255 255 255 255 255 255 255 255 255 255 255 255 255 255 255 248 230 216 196 192 189 196 206 207 213 210 215 217 217 217 216 223 221 221 224 223 224 222 224 223 226 225 225 224 225 222 225 223 226 223 222 223 220 225 222 224 226 223 225 226 223 226 225 223 224 223 221 224 226 223 225 225 224 224 222 225 222 223 224 222 222 223 222 223 226 223 221 220 220 221 220 216 215 213 216 221 231 242 252 255 255 255 255 255 255 255 255 255
255 255 255 255 255 255 255 255 255 255 255 255 255 255 255 255 255 247 228 214 196 193 191 200 203 214 212 217 218 217 219 220 220 222 221 219 221 221 222 224 222 222 223 226 222 223 220 223 221 226 221 221 224 223 229 225 226 225 224 223 222 223 222 224 226 224 222 225 225 226 226 221 225 224 223 223 225 222 221 224 222 223 222 223 227 221 222 220 221 221 218 215 216 214 211 219 227 238 248 255 255 255 255 255 255 255 255 255 255
255 255 255 255 255 255 255 255 255 255 255 255 255 255 255 255 255 254 243 223 213 199 194 186 199 206 208 216 215 217 220 220 218 219 222 220 221 221 221 223 224 223 223 224 222 223 221 223 225 222 228 224 227 222 223 225 225 218 225 224 224 226 225 223 226 226 226 222 225 226 226 225 225 224 221 223 225 222 223 223 226 223 222 222 222 220 218 220 216 216 214 218 210 211 218 226 236 246 254 255 255 255 255 255 255 255 255 255 255
255 255 255 255 255 255 255 255 255 255 255 255 255 255 255 255 255 255 253 239 223 208 196 193 191 200 206 214 212 213 216 216 222 220 222 221 224 219 222 220 222 223 222 222 221 222 222 223 222 224 226 223 224 225 224 225 226 223 221 223 225 223 224 225 225 225 224 228 227 226 225 225 223 223 223 221 225 224 222 221 219 220 220 223 225 222 221 220 221 217 215 211 214 218 222 234 244 253 255 255 255 255 255 255 255 255 255 255 255
255 255 255 255 255 255 255 255 255 255 255 255 255 255 255 255 255 255 255 253 237 222 207 197 189 196 197 205 210 214 212 215 218 218 218 218 217 218 223 225 218 222 224 222 221 222 219 223 222 225 225 223 221 223 223 224 224 225 225 222 226 223 227 226 225 222 225 221 220 222 225 224 223 223 223 225 221 223 220 219 221 224 225 222 220 221 219 218 214 214 212 214 214 223 230 244 252 255 255 255 255 255 255 255 255 255 255 255 255
255 255 255 255 255 255 255 255 255 255 255 255 255 255 255 255 255 255 255 255 252 240 221 211 202 195 187 199 203 211 210 215 217 220 219 221 219 221 220 221 223 217 222 221 220 220 222 221 223 223 223 223 224 223 225 225 222 223 220 223 226 224 226 225 221 222 225 223 222 223 223 222 222 224 224 221 221 224 223 222 222 221 221 217 219 220 215 216 216 213 210 217 221 235 240 250 255 255 255 255 255 255 255 255 255 255 255 255 255
255 255 255 255 255 255 255 255 255 255 255 255 255 255 255 255 255 255 255 255 255 252 238 227 209 199 195 190 199 202 210 210 214 212 218 217 218 218 221 222 220 223 223 224 221 220 223 222 223 220 222 221 224 224 223 224 225 223 222 223 225 223 225 221 222 225 223 219 223 223 223 223 222 221 221 221 223 224 222 226 222 219 220 221 217 222 217 214 213 210 214 220 231 241 250 255 255 255 255 255 255 255 255 255 255 255 255 255 255
255 255 255 255 255 255 255 255 255 255 255 255 255 255 255 255 255 255 255 255 255 255 252 238 225 215 205 195 192 196 200 205 212 212 214 214 216 216 215 216 218 224 222 220 218 221 222 224 223 221 221 221 225 221 224 224 220 223 224 225 224 225 225 225 226 217 224 221 225 226 222 222 224 219 221 221 221 222 218 219 222 220 218 215 218 215 211 211 209 212 221 231 239 248 254 255 255 255 255 255 255 255 255 255 255 255 255 255 255
255 255 255 255 255 255 255 255 255 255 255 255 255 255 255 255 255 255 255 255 255 255 255 253 242 228 218 209 195 195 194 201 205 209 215 214 212 217 219 214 220 218 219 219 219 224 222 223 223 223 224 223 219 223 223 220 221 223 221 223 219 223 222 222 220 224 224 224 222 224 224 219 221 224 223 223 220 222 221 218 218 219 219 216 214 216 210 209 217 224 230 240 249 254 255 255 255 255 255 255 255 255 255 255 255 255 255 255 255
255 255 255 255 255 255 255 255 255 255 255 255 255 255 255 255 255 255 255 255 255 255 255 255 254 245 232 219 204 201 193 194 197 204 209 210 214 213 219 216 216 217 217 216 218 219 224 222 223 221 221 217 220 221 221 220 220 224 222 221 223 224 224 219 227 225 223 223 220 219 224 223 218 220 220 218 225 219 219 215 219 215 217 212 213 207 209 217 224 234 241 250 255 255 255 255 255 255 255 255 255 255 255 255 255 255 255 255 255
255 255 255 255 255 255 255 255 255 255 255 255 255 255 255 255 255 255 255 255 255 255 255 255 255 255 248 237 224 212 203 194 190 192 204 202 213 212 215 215 214 216 218 218 219 217 219 220 218 221 219 219 220 219 222 223 223 222 223 221 218 223 223 221 220 224 223 221 221 222 223 216 222 221 220 220 218 219 220 216 220 217 214 212 210 213 218 226 235 243 250 255 255 255 255 255 255 255 255 255 255 255 255 255 255 255 255 255 255
255 255 255 255 255 255 255 255 255 255 255 255 255 255 255 255 255 255 255 255 255 255 255 255 255 255 255 251 241 226 214 204 200 190 188 195 204 208 209 210 212 215 213 216 215 218 220 217 218 222 218 219 220 222 220 219 219 222 219 221 220 221 220 220 222 223 219 223 220 219 223 219 222 220 220 216 217 216 215 215 208 214 210 212 214 219 228 234 243 251 255 255 255 255 255 255 255 255 255 255 255 255 255 255 255 255 255 255 255
255 255 255 255 255 255 255 255 255 255 255 255 255 255 255 255 255 255 255 255 255 255 255 255 255 255 255 255 253 244 232 221 213 207 201 190 189 196 203 208 210 208 212 215 213 218 216 217 216 217 217 220 216 217 222 219 219 221 221 221 222 218 220 222 216 219 222 217 220 216 220 217 219 217 220 219 216 216 215 207 209 207 210 216 222 230 238 247 253 255 255 255 255 255 255 255 255 255 255 255 255 255 255 255 255 255 255 255 255
255 255 255 255 255 255 255 255 255 255 255 255 255 255 255 255 255 255 255 255 255 255 255 255 255 255 255 255 255 255 248 238 226 214 205 201 196 197 194 197 204 207 207 211 212 215 213 214 216 213 216 215 221 220 217 218 220 218 221 218 221 221 217 216 218 218 220 218 219 215 215 215 216 217 217 215 213 210 210 205 210 214 221 228 233 242 248 254 255 255 255 255 255 255 255 255 255 255 255 255 255 255 255 255 255 255 255 255 255
255 255 255 255 255 255 255 255 255 255 255 255 255 255 255 255 255 255 255 255 255 255 255 255 255 255 255 255 255 255 255 252 245 233 224 211 208 201 202 194 193 196 202 205 209 210 212 207 212 216 215 214 216 215 216 218 213 216 216 217 218 214 215 219 219 216 218 216 219 213 216 214 214 213 210 212 209 208 209 212 221 224 231 237 246 252 255 255 255 255 255 255 255 255 255 255 255 255 255 255 255 255 255 255 255 255 255 255 255
255 255 255 255 255 255 255 255 255 255 255 255 255 255 255 255 255 255 255 255 255 255 255 255 255 255 255 255 255 255 255 255 255 251 243 233 225 218 212 202 201 193 193 197 198 200 205 210 210 210 209 211 212 213 212 213 218 213 215 214 214 218 218 217 213 214 217 213 215 211 212 211 211 210 208 206 210 212 214 222 232 237 242 249 254 255 255 255 255 255 255 255 255 255 255 255 255 255 255 255 255 255 255 255 255 255 255 255 255
255 255 255 255 255 255 255 255 255 255 255 255 255 255 255 255 255 255 255 255 255 255 255 255 255 255 255 255 255 255 255 255 255 255 254 250 245 234 222 218 211 208 202 201 198 200 197 202 203 204 207 203 208 208 211 207 212 212 214 209 211 213 209 214 214 209 208 211 209 207 205 206 207 208 210 214 218 226 230 236 242 249 253 255 255 255 255 255 255 255 255 255 255 255 255 255 255 255 255 255 255 255 255 255 255 255 255 255 255
255 255 255 255 255 255 255 255 255 255 255 255 255 255 255 255 255 255 255 255 255 255 255 255 255 255 255 255 255 255 255 255 255 255 255 255 254 251 245 237 231 223 218 209 208 202 200 198 198 196 199 198 199 202 204 203 201 208 209 207 207 205 208 211 207 205 206 204 206 205 209 209 216 218 222 228 233 239 243 249 253 255 255 255 255 255 255 255 255 255 255 255 255 255 255 255 255 255 255 255 255 255 255 255 255 255 255 255 255
255 255 255 255 255 255 255 255 255 255 255 255 255 255 255 255 255 255 255 255 255 255 255 255 255 255 255 255 255 255 255 255 255 255 255 255 255 255 255 252 246 240 234 229 223 218 213 209 208 209 202 201 201 205 202 201 203 202 201 202 201 203 205 209 210 210 210 213 209 212 219 221 224 233 236 238 245 249 254 255 255 255 255 255 255 255 255 255 255 255 255 255 255 255 255 255 255 255 255 255 255 255 255 255 255 255 255 255 255
255 255 255 255 255 255 255 255 255 255 255 255 255 255 255 255 255 255 255 255 255 255 255 255 255 255 255 255 255 255 255 255 255 255 255 255 255 255 255 255 255 254 251 246 240 236 234 224 227 221 217 218 217 213 212 214 208 214 209 215 210 220 218 219 223 220 224 224 226 228 234 235 239 245 248 251 254 255 255 255 255 255 255 255 255 255 255 255 255 255 255 255 255 255 255 255 255 255 255 255 255 255 255 255 255 255 255 255 255
255 255 255 255 255 255 255 255 255 255 255 255 255 255 255 255 255 255 255 255 255 255 255 255 255 255 255 255 255 255 255 255 255 255 255 255 255 255 255 255 255 255 255 255 254 251 249 245 243 238 233 233 229 230 228 226 229 227 226 226 228 230 230 234 233 235 238 238 239 246 247 249 253 254 255 255 255 255 255 255 255 255 255 255 255 255 255 255 255 255 255 255 255 255 255 255 255 255 255 255 255 255 255 255 255 255 255 255 255
255 255 255 255 255 255 255 255 255 255 255 255 255 255 255 255 255 255 255 255 255 255 255 255 255 255 255 255 255 255 255 255 255 255 255 255 255 255 255 255 255 255 255 255 255 255 255 255 254 253 250 248 245 246 244 244 243 241 242 244 244 245 246 248 248 250 251 251 252 254 255 255 255 255 255 255 255 255 255 255 255 255 255 255 255 255 255 255 255 255 255 255 255 255 255 255 255 255 255 255 255 255 255 255 255 255 255 255 255
255 255 255 255 255 255 255 255 255 255 255 255 255 255 255 255 255 255 255 255 255 255 255 255 255 255 255 255 255 255 255 255 255 255 255 255 255 255 255 255 255 255 255 255 255 255 255 255 255 255 255 255 255 255 255 254 254 254 254 254 254 254 255 255 255 255 255 255 255 255 255 255 255 255 255 255 255 255 255 255 255 255 255 255 255 255 255 255 255 255 255 255 255 255 255 255 255 255 255 255 255 255 255 255 255 255 255 255 255
255 255 255 255 255 255 255 255 255 255 255 255 255 255 255 255 255 255 255 255 255 255 255 255 255 255 255 255 255 255 255 255 255 255 255 255 255 255 255 255 255 255 255 255 255 255 255 255 255 255 255 255 255 255 255 255 255 255 255 255 255 255 255 255 255 255 255 255 255 255 255 255 255 255 255 255 255 255 255 255 255 255 255 255 255 255 255 255 255 255 255 255 255 255 255 255 255 255 255 255 255 255 255 255 255 255 255 255 255
255 255 255 255 255 255 255 255 255 255 255 255 255 255 255 255 255 255 255 255 255 255 255 255 255 255 255 255 255 255 255 255 255 255 255 255 255 255 255 255 255 255 255 255 255 255 255 255 255 255 255 255 255 255 255 255 255 255 255 255 255 255 255 255 255 255 255 255 255 255 255 255 255 255 255 255 255 255 255 255 255 255 255 255 255 255 255 255 255 255 255 255 255 255 255 255 255 255 255 255 255 255 255 255 255 255 255 255 255
