P2
92 92
255
255 255 255 255 255 255 255 255 255 255 255 255 255 255 255 255 255 255 255 255 255 255 255 255 255 255 255 255 255 255 255 255 255 255 255 255 255 255 255 255 255 255 255 255 255 255 255 255 255 255 255 255 255 255 255 255 255 255 255 255 255 255 255 255 255 255 255 255 255 255 255 255 255 255 255 255 255 255 255 255 255 255 255 255 255 255 255 255 255 255 255 255
255 255 255 255 255 255 255 255 255 255 255 255 255 255 255 255 255 255 255 255 255 255 255 255 255 255 255 255 255 255 255 255 255 255 255 255 255 255 255 255 255 255 255 255 255 255 255 255 255 255 255 255 255 255 255 255 255 255 255 255 255 255 255 255 255 255 255 255 255 255 255 255 255 255 255 255 255 255 255 255 255 255 255 255 255 255 255 255 255 255 255 255
255 255 255 255 255 255 255 255 255 255 255 255 255 255 255 255 255 255 255 255 255 255 255 255 255 255 255 255 255 255 255 255 255 255 255 255 255 255 255 255 255 255 255 255 255 255 255 255 255 255 255 255 255 255 255 255 255 255 255 255 255 255 255 255 255 255 255 255 255 255 255 255 255 255 255 255 255 255 255 255 255 255 255 255 255 255 255 255 255 255 255 255
255 255 255 255 255 255 255 255 255 255 255 255 255 255 255 255 255 255 255 255 255 255 255 255 255 255 255 255 255 255 255 255 255 255 254 253 251 250 251 250 251 249 249 252 252 253 254 255 255 255 255 255 255 255 255 255 255 255 255 255 255 255 255 255 255 255 255 255 255 255 255 255 255 255 255 255 255 255 255 255 255 255 255 255 255 255 255 255 255 255 255 255
255 255 255 255 255 255 255 255 255 255 255 255 255 255 255 255 255 255 255 255 255 255 255 255 255 255 255 255 255 254 253 249 248 242 241 240 237 237 237 234 231 235 235 236 237 241 241 243 248 248 252 254 255 255 255 255 255 255 255 255 255 255 255 255 255 255 255 255 255 255 255 255 255 255 255 255 255 255 255 255 255 255 255 255 255 255 255 255 255 255 255 255
255 255 255 255 255 255 255 255 255 255 255 255 255 255 255 255 255 255 255 255 255 255 255 255 255 255 254 251 248 240 238 232 229 225 222 220 217 218 216 218 217 219 216 216 218 222 225 227 229 237 237 241 246 251 254 255 255 255 255 255 255 255 255 255 255 255 255 255 255 255 255 255 255 255 255 255 255 255 255 255 255 255 255 255 255 255 255 255 255 255 255 255
255 255 255 255 255 255 255 255 255 255 255 255 255 255 255 255 255 255 255 255 255 255 255 255 253 249 242 234 230 222 219 215 205 207 201 202 202 201 199 202 195 200 202 199 201 206 206 209 213 215 221 228 232 236 241 247 251 254 255 255 255 255 255 255 255 255 255 255 255 255 255 255 255 255 255 255 255 255 255 255 255 255 255 255 255 255 255 255 255 255 255 255
255 255 255 255 255 255 255 255 255 255 255 255 255 255 255 255 255 255 255 255 255 255 252 245 241 231 225 216 214 205 203 199 191 189 190 188 189 184 182 186 185 185 189 187 186 188 193 187 198 201 204 206 216 217 220 228 239 245 249 253 255 255 255 255 255 255 255 255 255 255 255 255 255 255 255 255 255 255 255 255 255 255 255 255 255 255 255 255 255 255 255 255
255 255 255 255 255 255 255 255 255 255 255 255 255 255 255 255 255 255 255 255 254 247 240 231 219 215 208 204 188 188 188 187 179 181 182 176 179 179 172 174 181 181 177 174 182 179 174 179 182 182 190 194 196 201 210 212 220 225 231 243 248 254 255 255 255 255 255 255 255 255 255 255 255 255 255 255 255 255 255 255 255 255 255 255 255 255 255 255 255 255 255 255
255 255 255 255 255 255 255 255 255 255 255 255 255 255 255 255 255 255 255 251 242 231 221 210 205 195 190 187 173 179 178 176 179 178 174 178 181 179 183 184 184 183 183 185 181 181 180 180 176 178 177 184 183 183 192 197 202 214 219 227 231 242 249 254 255 255 255 255 255 255 255 255 255 255 255 255 255 255 255 255 255 255 255 255 255 255 255 255 255 255 255 255
255 255 255 255 255 255 255 255 255 255 255 255 255 255 255 255 255 254 247 233 223 213 201 195 188 182 170 175 170 175 179 180 187 189 185 185 184 184 186 180 186 187 183 185 182 191 186 179 179 183 178 177 178 187 184 180 187 191 201 208 219 225 234 245 252 255 255 255 255 255 255 255 255 255 255 255 255 255 255 255 255 255 255 255 255 255 255 255 255 255 255 255
255 255 255 255 255 255 255 255 255 255 255 255 255 255 255 255 253 244 234 220 207 197 197 175 179 174 170 173 175 185 183 181 189 191 193 192 188 189 192 191 187 187 189 191 188 187 190 188 189 184 187 188 181 186 175 177 178 180 190 194 199 208 222 230 239 249 253 255 255 255 255 255 255 255 255 255 255 255 255 255 255 255 255 255 255 255 255 255 255 255 255 255
255 255 255 255 255 255 255 255 255 255 255 255 255 255 255 252 242 224 213 202 187 176 174 169 170 172 181 187 182 187 184 183 188 193 190 192 196 187 193 189 189 192 193 196 195 188 195 188 191 188 191 190 188 188 182 181 176 172 183 184 183 195 203 215 223 236 243 251 255 255 255 255 255 255 255 255 255 255 255 255 255 255 255 255 255 255 255 255 255 255 255 255
255 255 255 255 255 255 255 255 255 255 255 255 255 255 252 239 220 211 193 177 173 170 167 170 172 179 185 182 190 187 193 186 189 191 196 194 191 192 189 194 193 195 195 186 190 196 192 192 188 190 187 191 183 191 187 185 183 179 180 177 176 182 189 200 206 218 227 238 249 255 255 255 255 255 255 255 255 255 255 255 255 255 255 255 255 255 255 255 255 255 255 255
255 255 255 255 255 255 255 255 255 255 255 255 255 254 242 222 204 196 181 170 172 165 167 172 182 187 188 189 189 193 189 191 192 191 191 194 196 193 197 197 196 196 198 194 193 194 190 191 197 189 195 190 191 188 191 192 184 189 185 184 181 180 181 184 191 204 214 224 237 248 254 255 255 255 255 255 255 255 255 255 255 255 255 255 255 255 255 255 255 255 255 255
255 255 255 255 255 255 255 255 255 255 255 255 255 242 225 205 192 177 169 163 162 167 180 181 182 189 191 189 193 199 195 195 194 191 193 195 195 194 196 198 195 196 193 201 201 194 193 192 196 192 193 194 188 189 193 187 185 187 189 186 179 181 178 179 180 186 199 206 221 232 246 253 255 255 255 255 255 255 255 255 255 255 255 255 255 255 255 255 255 255 255 255
255 255 255 255 255 255 255 255 255 255 255 255 247 229 209 193 178 164 156 163 173 179 186 185 188 190 197 191 197 192 193 194 194 198 198 198 197 195 196 199 197 195 200 195 196 196 196 197 196 191 198 192 194 192 192 193 192 191 184 189 186 182 182 175 173 179 187 192 206 222 233 243 254 255 255 255 255 255 255 255 255 255 255 255 255 255 255 255 255 255 255 255
255 255 255 255 255 255 255 255 255 255 255 252 233 212 196 178 170 155 157 167 177 180 184 187 191 194 193 191 198 189 197 199 196 195 196 197 200 198 198 197 198 200 198 196 197 192 195 194 194 198 194 196 192 196 191 196 194 189 187 190 192 183 182 188 176 175 177 184 191 204 218 233 244 253 255 255 255 255 255 255 255 255 255 255 255 255 255 255 255 255 255 255
255 255 255 255 255 255 255 255 255 255 255 242 217 198 184 169 156 160 166 175 177 186 194 189 197 192 193 197 194 194 194 194 196 198 196 197 198 199 198 199 199 197 200 201 196 193 200 193 197 195 193 195 192 193 192 195 193 194 190 190 189 189 186 184 183 182 181 175 184 191 203 217 229 243 253 255 255 255 255 255 255 255 255 255 255 255 255 255 255 255 255 255
255 255 255 255 255 255 255 255 255 255 248 224 204 184 173 158 149 159 177 178 187 189 189 191 194 194 196 196 195 198 196 204 198 196 195 197 197 195 199 198 197 199 196 200 200 195 196 193 199 199 196 196 198 198 194 196 193 197 187 192 183 194 188 190 179 182 183 180 177 182 190 203 216 227 243 253 255 255 255 255 255 255 255 255 255 255 255 255 255 255 255 255
255 255 255 255 255 255 255 255 255 254 236 212 194 173 159 156 156 170 184 187 190 188 195 192 191 201 198 197 198 193 196 197 203 194 200 196 198 199 200 201 197 194 199 199 196 196 196 196 199 195 199 197 197 199 193 197 197 192 193 193 196 191 196 187 186 182 187 179 177 177 180 190 203 215 234 244 254 255 255 255 255 255 255 255 255 255 255 255 255 255 255 255
255 255 255 255 255 255 255 255 255 245 220 199 180 163 152 151 167 178 181 187 189 193 194 194 192 196 197 193 199 198 200 197 199 197 197 200 198 199 199 202 194 204 203 195 195 199 199 198 198 194 200 196 195 195 192 198 195 197 198 192 193 190 191 189 188 187 189 184 180 175 172 185 191 205 215 233 248 255 255 255 255 255 255 255 255 255 255 255 255 255 255 255
255 255 255 255 255 255 255 255 254 230 208 192 172 156 148 158 178 180 181 190 189 194 192 196 199 196 192 193 202 195 197 199 200 196 207 200 195 203 198 202 202 198 201 202 198 198 202 200 196 194 194 201 198 196 197 195 195 193 194 194 194 193 191 187 189 191 187 188 181 180 178 178 178 193 209 221 236 250 255 255 255 255 255 255 255 255 255 255 255 255 255 255
255 255 255 255 255 255 255 255 246 221 194 176 160 148 142 162 176 184 189 192 196 200 194 195 197 197 196 198 197 202 196 204 198 200 200 198 194 198 199 197 194 201 198 200 199 195 199 197 197 193 196 193 197 198 194 197 197 199 190 198 195 191 192 195 193 193 188 186 187 188 183 174 176 186 199 209 226 240 252 255 255 255 255 255 255 255 255 255 255 255 255 255
255 255 255 255 255 255 255 255 231 209 183 170 153 141 147 175 179 184 188 189 189 193 193 194 199 196 197 199 198 199 199 202 199 200 199 201 201 196 198 201 199 199 196 199 199 197 195 198 202 198 192 195 196 193 200 195 193 197 195 196 201 193 194 196 193 194 186 191 183 187 186 180 176 176 189 200 211 227 240 254 255 255 255 255 255 255 255 255 255 255 255 255
255 255 255 255 255 255 255 250 222 193 177 157 142 149 167 172 182 191 189 193 193 197 199 198 197 202 203 199 195 196 197 200 198 198 200 197 201 195 205 201 191 199 201 199 195 195 201 194 195 197 196 194 198 196 197 196 194 194 192 195 192 191 199 194 196 185 191 190 190 190 184 182 176 180 181 189 200 216 234 247 254 255 255 255 255 255 255 255 255 255 255 255
255 255 255 255 255 255 255 240 211 187 168 145 145 152 168 180 190 188 194 195 193 194 199 200 196 197 197 195 193 195 198 197 199 200 200 195 197 198 200 198 199 201 199 202 197 200 197 193 200 195 200 196 197 196 199 199 199 193 197 199 193 198 197 199 197 193 190 189 190 188 187 183 184 181 176 183 192 202 223 237 250 255 255 255 255 255 255 255 255 255 255 255
255 255 255 255 255 255 255 230 203 182 158 142 139 157 179 178 191 189 192 189 194 197 197 203 198 201 197 196 202 198 198 193 202 201 198 198 200 197 195 196 199 196 196 198 194 196 198 200 198 199 195 198 194 198 199 198 194 198 196 195 195 192 197 199 189 197 198 194 196 191 183 189 183 178 175 179 181 197 214 227 243 253 255 255 255 255 255 255 255 255 255 255
255 255 255 255 255 255 251 219 189 166 149 141 139 162 181 180 191 189 192 195 196 198 193 202 195 196 200 195 197 202 199 198 198 200 202 196 200 197 195 200 196 198 194 201 196 196 198 200 197 199 191 195 198 198 193 196 199 198 198 196 196 196 196 194 198 195 188 193 193 194 189 188 183 180 182 177 177 188 202 218 237 249 255 255 255 255 255 255 255 255 255 255
255 255 255 255 255 255 244 214 185 166 139 135 143 173 178 187 194 192 194 192 192 195 194 197 197 201 199 202 197 198 198 198 201 203 196 199 196 197 203 197 199 197 200 199 201 199 197 197 199 196 199 197 198 198 196 195 200 196 194 198 198 195 196 197 194 199 192 191 190 189 194 193 187 188 186 176 177 178 194 210 228 240 254 255 255 255 255 255 255 255 255 255
255 255 255 255 255 255 239 200 173 153 139 133 153 173 180 180 190 193 196 196 198 197 198 199 199 197 200 202 197 198 204 196 197 203 194 196 198 199 201 196 194 202 196 195 197 197 198 201 196 192 200 200 197 194 197 193 199 201 198 194 193 199 194 196 194 197 194 194 191 198 194 190 190 189 180 179 175 174 184 203 211 230 247 255 255 255 255 255 255 255 255 255
255 255 255 255 255 255 229 194 170 148 129 136 158 179 184 186 186 195 194 192 197 201 199 198 193 195 199 201 194 201 202 197 195 198 197 196 200 196 193 196 200 198 198 198 199 200 199 194 198 199 197 198 198 193 196 197 197 193 197 195 198 197 198 198 195 197 195 198 194 191 194 189 186 189 187 182 178 179 178 189 207 225 241 253 255 255 255 255 255 255 255 255
255 255 255 255 255 252 219 186 155 140 132 131 163 175 187 186 191 192 199 194 201 199 203 198 203 197 194 198 201 195 200 198 195 199 199 198 200 197 196 199 198 193 195 196 199 196 197 199 194 198 197 197 197 193 196 198 193 197 193 194 193 192 195 193 193 191 197 197 195 194 192 189 192 189 183 192 186 181 172 183 197 214 232 247 255 255 255 255 255 255 255 255
255 255 255 255 255 250 216 180 161 147 132 139 172 175 188 188 194 193 189 193 200 193 198 199 200 200 201 197 197 197 199 198 196 201 197 196 199 197 198 200 196 196 197 198 200 196 196 195 199 192 196 195 194 199 193 194 196 195 196 198 190 194 195 196 191 199 193 195 194 189 199 196 191 192 189 182 185 178 179 181 193 206 224 242 255 255 255 255 255 255 255 255
255 255 255 255 255 247 204 170 150 136 126 137 171 178 184 189 193 193 195 192 198 197 198 196 201 200 199 197 201 198 198 195 194 198 202 200 193 197 197 196 195 200 200 193 194 199 197 196 198 196 194 194 193 197 196 199 199 195 194 194 194 198 195 195 197 192 196 189 198 197 195 189 191 190 189 188 182 180 181 175 189 198 219 234 251 255 255 255 255 255 255 255
255 255 255 255 255 243 202 173 149 130 130 141 173 181 188 189 197 195 195 196 200 199 199 201 200 198 197 197 194 193 199 196 197 197 198 197 198 193 199 198 198 194 192 196 194 198 194 197 200 198 195 192 191 198 195 192 198 198 197 201 194 194 197 194 198 191 193 193 196 192 192 193 194 195 196 191 186 181 180 175 181 194 210 228 243 255 255 255 255 255 255 255
255 255 255 255 255 239 197 163 142 127 128 151 171 180 190 189 193 194 194 197 199 201 200 199 199 201 197 201 197 197 201 193 201 199 195 197 195 194 196 193 200 194 196 195 195 198 201 194 194 198 198 201 193 193 196 196 198 196 196 198 199 197 202 191 196 195 199 199 193 194 194 192 191 196 189 192 189 191 187 180 176 190 204 219 239 252 255 255 255 255 255 255
255 255 255 255 255 236 196 168 145 130 121 151 175 183 186 190 194 191 194 193 196 196 191 197 199 198 200 201 201 198 198 192 200 199 198 197 196 199 199 195 197 195 194 197 198 193 199 196 195 195 196 197 197 196 199 199 195 197 195 195 195 197 197 194 195 197 200 196 198 198 194 194 190 193 186 189 188 183 188 179 177 185 195 217 235 249 255 255 255 255 255 255
255 255 255 255 255 236 190 165 142 130 123 149 174 183 185 195 193 189 194 194 199 201 201 199 193 199 196 201 197 201 197 195 200 199 199 198 197 196 197 197 197 199 195 195 197 192 196 196 192 192 191 197 198 194 193 203 194 194 201 197 199 198 194 198 195 196 193 193 194 195 192 192 191 195 192 191 187 188 187 185 175 176 192 208 230 242 255 255 255 255 255 255
255 255 255 255 255 230 190 155 136 123 121 145 172 185 188 192 196 195 192 192 197 196 197 201 197 191 196 197 198 193 200 200 198 198 201 197 198 197 194 194 195 194 195 196 197 198 195 196 199 193 194 194 197 196 197 194 197 198 196 195 193 196 196 193 194 196 192 202 201 194 196 195 194 192 192 190 190 191 189 186 173 177 187 201 221 241 253 255 255 255 255 255
255 255 255 255 255 232 196 160 137 126 124 148 177 183 191 195 194 191 196 194 198 196 197 199 199 197 195 198 194 201 194 197 201 193 198 197 198 196 193 195 192 196 197 194 189 200 190 192 192 193 193 198 193 195 193 194 195 200 198 196 196 198 196 198 193 197 194 194 194 195 194 196 196 195 195 188 190 186 186 182 182 174 183 196 222 233 249 255 255 255 255 255
255 255 255 255 255 232 190 161 140 127 122 148 176 188 190 189 196 192 197 198 195 200 197 199 198 199 199 194 201 197 196 195 197 195 197 193 195 194 196 198 192 195 195 195 191 195 196 195 199 189 195 193 195 195 193 199 194 196 191 200 196 195 194 191 197 193 195 195 194 197 192 193 193 194 194 190 192 189 194 185 184 170 183 195 210 224 248 255 255 255 255 255
255 255 255 255 255 234 191 160 136 123 121 150 180 179 186 189 195 194 193 196 197 194 198 199 196 197 193 197 196 197 200 198 198 200 196 197 201 192 197 194 198 199 196 199 190 198 189 194 198 192 193 195 196 194 199 195 200 197 202 198 196 196 196 195 195 196 198 192 200 196 196 199 196 197 192 197 193 189 193 185 181 178 176 191 207 225 241 254 255 255 255 255
255 255 255 255 255 237 195 165 138 120 129 150 171 182 182 191 193 193 194 198 196 197 191 201 199 195 199 198 202 199 202 198 194 195 200 193 196 194 193 194 197 192 197 194 190 198 194 195 194 197 197 195 193 199 192 194 196 193 191 199 196 194 197 197 199 193 199 198 193 198 197 193 196 198 198 198 193 192 190 188 187 178 176 186 202 221 238 253 255 255 255 255
255 255 255 255 255 241 194 163 144 129 119 147 174 177 188 190 189 193 195 195 194 195 194 200 197 196 201 196 198 196 195 198 198 199 194 200 196 194 197 195 194 191 195 196 197 197 196 197 196 197 195 193 197 194 195 197 196 194 195 195 200 200 198 195 196 196 198 198 196 197 197 196 196 195 191 188 193 193 190 185 183 180 181 183 197 215 233 251 255 255 255 255
255 255 255 255 255 243 194 167 137 136 120 131 177 179 189 183 188 195 191 198 200 193 194 196 196 199 195 202 196 198 194 198 195 197 196 198 196 193 195 194 195 197 196 188 197 193 196 195 192 196 196 193 193 187 197 198 194 193 197 196 198 196 196 201 196 196 197 196 195 198 196 197 195 197 190 197 196 194 190 188 186 186 177 179 199 211 234 249 255 255 255 255
255 255 255 255 255 248 205 174 145 124 120 132 169 181 182 191 193 191 193 194 191 198 197 199 201 195 202 202 196 193 195 197 194 194 194 199 197 198 196 197 192 198 194 193 195 196 191 197 196 196 192 197 196 197 193 200 192 199 196 197 197 201 196 198 194 194 195 195 194 198 193 194 196 192 199 194 188 192 193 190 190 178 177 179 188 211 229 247 255 255 255 255
255 255 255 255 255 252 212 177 145 128 123 124 160 179 191 186 190 197 190 194 198 195 198 200 198 200 200 197 200 202 196 199 195 194 193 194 196 199 200 189 196 198 194 194 194 193 193 196 193 193 198 197 193 197 194 199 197 196 200 197 197 198 197 200 201 199 196 198 198 194 195 199 198 194 195 198 195 192 190 192 186 183 182 181 188 208 226 246 255 255 255 255
255 255 255 255 255 254 219 177 155 133 123 122 155 177 180 189 192 189 194 194 196 197 196 196 195 199 196 198 193 196 197 198 195 196 196 198 193 198 195 196 196 196 198 194 195 191 195 195 193 198 198 193 194 195 194 193 193 199 200 195 192 193 198 198 198 201 199 198 198 196 196 193 196 195 193 193 192 194 189 192 187 188 177 180 193 208 221 243 254 255 255 255
255 255 255 255 255 255 226 186 156 134 123 119 140 178 181 183 190 195 194 193 194 199 195 198 196 193 198 203 199 196 196 194 197 197 197 196 197 198 196 199 194 200 199 192 193 194 196 191 192 193 196 194 191 194 196 194 200 196 196 198 196 197 202 197 195 198 197 196 197 195 198 199 201 196 197 199 195 189 191 188 188 184 178 184 189 204 226 243 255 255 255 255
255 255 255 255 255 255 237 194 160 137 115 118 139 165 180 186 191 188 192 191 196 192 196 201 195 196 195 195 200 193 197 193 198 193 197 199 197 191 196 193 194 194 195 194 196 190 195 192 197 195 193 193 193 191 195 194 195 193 203 199 197 197 198 196 197 197 196 195 196 197 195 198 198 193 197 195 196 195 191 192 187 183 174 176 194 204 224 242 253 255 255 255
255 255 255 255 255 255 245 199 172 144 127 117 130 168 177 180 192 187 188 193 199 195 197 198 200 197 198 195 197 194 199 196 201 198 196 193 199 201 192 192 196 193 196 193 195 193 196 193 197 196 199 195 195 197 192 194 196 195 200 197 193 197 197 197 194 200 196 201 196 201 195 190 195 197 198 194 193 197 196 188 194 186 179 181 187 207 223 241 253 255 255 255
255 255 255 255 255 255 251 210 177 146 130 121 114 152 174 176 183 187 194 191 196 196 197 195 193 201 196 194 197 201 201 192 199 199 197 197 200 195 198 195 196 199 196 195 200 195 196 194 197 192 195 199 195 191 193 192 193 194 194 198 198 193 196 195 198 199 196 195 199 194 198 194 201 194 196 197 192 193 197 189 189 180 183 177 189 206 223 239 253 255 255 255
255 255 255 255 255 255 255 224 184 153 134 115 118 141 175 178 186 191 192 192 192 195 196 196 197 197 201 198 193 198 196 198 198 195 201 199 195 194 198 196 197 197 194 192 196 197 196 197 197 195 193 190 198 199 197 196 194 201 194 203 197 196 198 198 193 197 198 196 200 197 200 197 203 196 200 192 195 194 195 191 187 186 177 181 194 207 222 239 253 255 255 255
255 255 255 255 255 255 255 236 195 164 138 117 109 129 167 178 187 192 189 191 195 191 196 195 196 203 194 197 200 198 194 196 200 197 193 195 196 196 197 191 198 193 199 197 198 195 192 192 199 193 197 191 196 196 199 193 197 197 197 197 197 199 197 198 197 194 200 197 196 195 201 199 205 198 196 195 195 194 196 190 187 187 186 182 187 204 224 242 253 255 255 255
255 255 255 255 255 255 255 248 207 170 151 120 118 119 156 180 187 184 188 191 191 192 192 196 193 202 198 197 195 199 199 194 201 198 198 200 196 198 197 193 197 194 193 193 199 199 193 192 197 197 196 197 196 199 195 199 192 196 195 193 195 198 198 196 196 193 201 199 198 197 197 196 196 199 197 195 195 198 194 190 188 183 180 181 192 203 222 241 254 255 255 255
255 255 255 255 255 255 255 254 223 186 155 131 122 115 137 168 178 184 184 192 193 193 194 196 198 193 195 193 195 197 201 195 197 195 196 195 194 195 199 199 198 195 189 197 195 198 199 196 197 195 196 200 197 201 198 200 196 199 199 194 198 200 193 201 198 198 198 202 201 201 197 197 195 197 194 198 199 198 187 192 189 183 182 183 191 208 228 243 255 255 255 255
255 255 255 255 255 255 255 255 239 196 161 128 120 117 116 158 180 184 186 188 189 194 190 199 196 199 199 199 197 192 199 200 195 196 195 198 194 193 196 196 198 194 199 196 197 198 196 198 191 194 197 196 196 194 198 197 195 195 196 196 194 195 197 199 196 197 204 196 197 197 195 199 197 199 193 195 192 193 196 191 187 183 179 179 191 207 225 244 255 255 255 255
255 255 255 255 255 255 255 255 249 212 176 154 129 118 118 142 173 181 185 189 190 194 196 195 192 194 196 194 200 197 198 200 193 197 198 195 198 198 193 194 192 196 199 197 197 193 200 198 195 199 198 202 200 196 197 196 198 191 196 196 197 195 196 198 197 202 198 199 198 198 199 199 195 197 196 196 196 197 191 195 189 183 176 182 192 216 227 245 255 255 255 255
255 255 255 255 255 255 255 255 255 229 187 157 134 122 115 129 161 178 186 183 184 193 193 193 191 195 195 197 197 196 198 199 199 198 195 197 200 198 197 196 201 199 195 193 198 187 197 192 200 195 201 199 192 191 197 197 198 196 199 198 198 200 193 196 201 200 199 196 202 201 196 200 194 196 193 196 194 197 188 189 189 184 179 184 201 215 234 247 255 255 255 255
255 255 255 255 255 255 255 255 255 246 205 173 148 125 108 113 145 175 175 181 184 193 189 193 194 196 194 198 195 195 193 194 198 198 201 199 198 196 201 198 196 194 197 199 195 193 202 193 194 200 197 201 196 197 195 194 199 199 195 194 199 197 198 204 197 199 198 200 202 198 199 197 199 201 194 201 198 196 195 190 187 180 182 186 201 221 234 250 255 255 255 255
255 255 255 255 255 255 255 255 255 254 224 186 160 132 125 114 124 165 172 184 186 193 191 193 191 192 194 196 193 197 193 197 193 195 194 200 199 195 202 200 194 194 197 199 196 199 199 198 204 202 193 197 200 200 198 197 197 200 201 197 199 199 194 196 201 201 201 201 197 199 194 194 199 197 193 196 193 192 196 190 184 182 176 194 203 221 240 252 255 255 255 255
255 255 255 255 255 255 255 255 255 255 244 205 177 145 127 113 116 140 174 180 185 186 189 191 190 193 190 194 198 197 198 193 200 194 199 198 200 197 198 198 196 198 199 196 198 194 196 200 200 197 195 200 194 201 202 197 199 194 201 202 196 197 200 201 198 202 201 198 198 201 200 193 198 195 196 195 196 187 192 191 187 180 179 197 209 223 242 253 255 255 255 255
255 255 255 255 255 255 255 255 255 255 254 225 186 160 143 120 118 125 149 175 184 182 188 190 187 197 192 194 194 193 194 195 196 198 199 195 193 192 201 194 196 197 196 199 197 197 199 198 200 198 198 200 195 199 199 197 200 197 196 198 199 199 199 201 204 199 198 197 200 200 197 198 196 193 199 195 195 192 189 187 185 179 184 192 213 230 245 255 255 255 255 255
255 255 255 255 255 255 255 255 255 255 255 247 205 174 145 126 120 113 128 166 179 185 186 191 188 188 195 197 195 195 191 195 201 197 195 198 198 199 198 200 199 196 198 196 197 197 197 195 198 198 201 199 200 200 200 197 196 201 195 202 199 194 195 203 198 202 198 197 200 200 197 201 194 196 199 195 192 196 189 189 185 178 183 198 214 232 249 255 255 255 255 255
255 255 255 255 255 255 255 255 255 255 255 255 231 187 160 146 124 124 120 140 169 179 187 184 195 192 191 191 194 195 193 199 195 193 199 195 196 199 197 203 197 194 199 197 194 196 199 200 199 197 195 194 198 200 199 197 198 196 194 198 197 200 200 200 201 201 201 202 200 200 199 194 196 199 191 196 191 195 189 187 178 180 187 206 222 239 253 255 255 255 255 255
255 255 255 255 255 255 255 255 255 255 255 255 250 218 177 147 131 114 111 117 150 172 182 184 187 188 192 194 193 195 193 196 194 195 194 198 193 195 197 197 200 201 197 198 199 196 195 196 197 194 200 203 199 200 195 198 201 201 204 201 196 197 199 198 196 199 195 198 197 197 198 199 195 194 194 193 186 187 187 181 179 182 194 211 227 245 254 255 255 255 255 255
255 255 255 255 255 255 255 255 255 255 255 255 255 240 195 166 147 130 120 114 130 159 178 182 188 189 190 192 190 192 193 189 199 194 197 196 196 199 198 196 201 198 193 197 200 199 198 200 197 202 197 198 199 196 201 196 199 198 199 200 201 196 198 200 196 200 197 200 202 200 197 193 198 198 193 194 192 191 187 178 177 188 199 216 232 249 255 255 255 255 255 255
255 255 255 255 255 255 255 255 255 255 255 255 255 254 227 189 164 139 118 112 113 126 163 173 179 182 184 189 190 195 191 191 198 196 195 193 197 199 194 196 198 197 196 197 201 197 196 198 196 199 193 203 194 200 199 201 199 200 203 201 200 198 199 200 200 198 199 199 196 201 193 196 192 192 194 192 191 185 185 176 176 189 208 223 237 253 255 255 255 255 255 255
255 255 255 255 255 255 255 255 255 255 255 255 255 255 251 214 183 152 134 121 120 112 135 166 179 186 186 186 187 194 191 190 195 195 193 199 192 199 194 200 195 197 203 196 200 195 200 197 203 194 198 199 197 199 205 196 202 196 195 197 200 200 202 201 200 195 193 193 196 196 192 196 190 197 192 188 189 187 176 177 183 199 219 229 245 255 255 255 255 255 255 255
255 255 255 255 255 255 255 255 255 255 255 255 255 255 255 243 206 174 147 135 115 116 118 137 160 173 185 187 187 191 191 197 190 194 192 196 192 193 197 197 196 198 202 193 201 199 199 198 197 197 197 197 195 199 199 200 202 202 201 200 196 203 200 201 199 196 192 199 197 198 194 197 192 195 192 192 182 185 176 184 192 204 222 237 251 255 255 255 255 255 255 255
255 255 255 255 255 255 255 255 255 255 255 255 255 255 255 255 237 201 170 146 126 121 122 117 142 162 174 181 182 185 190 190 193 190 193 193 191 193 195 196 197 198 198 195 204 202 196 195 196 198 199 204 196 201 201 198 194 198 198 199 200 196 199 195 200 200 197 198 195 191 196 190 194 193 189 186 180 179 175 180 198 216 231 243 255 255 255 255 255 255 255 255
255 255 255 255 255 255 255 255 255 255 255 255 255 255 255 255 254 231 196 167 149 125 124 119 120 138 167 177 183 186 189 183 192 188 195 189 189 193 196 192 192 199 195 194 196 196 198 202 193 197 197 202 202 195 195 196 200 194 199 196 196 198 198 200 199 196 201 198 194 197 195 192 188 192 187 184 180 170 176 186 203 219 238 251 255 255 255 255 255 255 255 255
255 255 255 255 255 255 255 255 255 255 255 255 255 255 255 255 255 254 227 194 161 146 130 120 114 116 138 165 179 183 184 187 190 190 194 190 187 189 193 194 195 193 195 189 198 195 196 198 199 195 191 195 198 197 198 195 198 199 200 197 200 197 199 200 201 196 191 197 195 192 192 190 185 186 189 182 179 176 184 199 215 232 246 255 255 255 255 255 255 255 255 255
255 255 255 255 255 255 255 255 255 255 255 255 255 255 255 255 255 255 252 222 193 166 149 128 124 111 118 137 160 178 178 184 184 188 191 191 189 192 193 197 196 194 193 197 193 195 194 200 199 195 198 196 195 198 199 193 194 195 198 196 197 193 191 193 196 194 195 192 196 188 196 189 186 188 185 174 178 184 193 212 220 242 251 255 255 255 255 255 255 255 255 255
255 255 255 255 255 255 255 255 255 255 255 255 255 255 255 255 255 255 255 251 224 191 168 147 135 124 112 113 124 146 168 175 177 182 186 190 191 192 195 192 190 195 194 195 201 195 195 199 199 199 195 198 191 196 196 201 197 193 199 193 195 196 199 197 199 193 192 193 194 188 190 191 188 180 175 167 179 187 203 214 234 247 255 255 255 255 255 255 255 255 255 255
255 255 255 255 255 255 255 255 255 255 255 255 255 255 255 255 255 255 255 255 250 224 193 164 148 132 123 113 114 127 139 163 174 179 180 188 182 188 189 193 190 191 190 192 195 196 196 195 196 195 192 191 192 195 199 196 200 194 199 198 193 194 198 192 193 198 189 191 191 193 184 186 182 172 170 172 184 201 216 230 245 254 255 255 255 255 255 255 255 255 255 255
255 255 255 255 255 255 255 255 255 255 255 255 255 255 255 255 255 255 255 255 255 252 226 195 170 157 134 127 118 119 125 124 153 168 177 180 184 185 189 189 193 187 194 191 191 196 192 193 193 193 192 197 191 197 193 189 197 195 198 191 196 194 189 191 192 187 185 188 188 187 185 181 175 169 173 187 195 212 228 240 253 255 255 255 255 255 255 255 255 255 255 255
255 255 255 255 255 255 255 255 255 255 255 255 255 255 255 255 255 255 255 255 255 255 253 233 204 178 158 148 133 123 123 115 125 133 159 172 175 176 183 186 185 186 188 187 190 191 193 190 195 195 193 193 192 197 196 192 194 190 199 194 187 192 193 189 188 190 189 182 187 178 178 170 165 172 184 193 212 221 238 251 255 255 255 255 255 255 255 255 255 255 255 255
255 255 255 255 255 255 255 255 255 255 255 255 255 255 255 255 255 255 255 255 255 255 255 254 238 209 187 162 145 133 129 125 120 115 127 137 161 170 171 181 181 183 184 187 190 185 187 195 197 191 188 188 187 191 186 186 191 189 189 186 186 188 184 189 189 188 186 179 181 171 165 167 172 181 193 206 219 235 250 255 255 255 255 255 255 255 255 255 255 255 255 255
255 255 255 255 255 255 255 255 255 255 255 255 255 255 255 255 255 255 255 255 255 255 255 255 255 244 221 190 177 160 143 136 129 118 124 119 128 143 157 171 176 181 179 179 186 180 189 182 189 188 188 190 191 183 187 187 189 187 189 188 186 183 177 182 185 183 177 168 169 162 164 168 182 192 205 221 233 249 255 255 255 255 255 255 255 255 255 255 255 255 255 255
255 255 255 255 255 255 255 255 255 255 255 255 255 255 255 255 255 255 255 255 255 255 255 255 255 255 251 231 207 185 161 153 134 129 125 126 119 118 127 143 146 164 177 177 178 180 186 183 182 185 182 188 193 192 185 186 179 183 187 180 180 178 178 181 175 171 165 153 161 163 174 185 193 208 222 237 247 255 255 255 255 255 255 255 255 255 255 255 255 255 255 255
255 255 255 255 255 255 255 255 255 255 255 255 255 255 255 255 255 255 255 255 255 255 255 255 255 255 255 254 244 219 193 176 163 149 138 137 132 125 122 117 122 127 138 150 157 167 177 175 178 177 180 178 179 180 178 180 179 176 181 174 172 173 171 167 159 160 157 165 167 173 183 191 207 229 239 250 255 255 255 255 255 255 255 255 255 255 255 255 255 255 255 255
255 255 255 255 255 255 255 255 255 255 255 255 255 255 255 255 255 255 255 255 255 255 255 255 255 255 255 255 255 252 237 215 193 174 163 149 144 136 135 125 126 120 124 126 129 138 141 147 156 160 158 172 168 167 170 170 171 162 164 158 153 155 149 146 149 163 164 170 180 185 200 214 227 238 250 255 255 255 255 255 255 255 255 255 255 255 255 255 255 255 255 255
255 255 255 255 255 255 255 255 255 255 255 255 255 255 255 255 255 255 255 255 255 255 255 255 255 255 255 255 255 255 255 250 231 214 192 176 166 154 146 141 135 129 120 130 126 122 118 127 128 129 134 141 139 139 147 141 148 144 147 150 153 151 151 155 161 169 171 184 201 204 220 234 245 253 255 255 255 255 255 255 255 255 255 255 255 255 255 255 255 255 255 255
255 255 255 255 255 255 255 255 255 255 255 255 255 255 255 255 255 255 255 255 255 255 255 255 255 255 255 255 255 255 255 255 255 248 229 212 194 188 168 163 155 150 140 142 138 128 127 137 130 128 129 132 137 138 140 142 143 147 153 155 153 165 159 174 180 184 198 205 212 224 240 247 254 255 255 255 255 255 255 255 255 255 255 255 255 255 255 255 255 255 255 255
255 255 255 255 255 255 255 255 255 255 255 255 255 255 255 255 255 255 255 255 255 255 255 255 255 255 255 255 255 255 255 255 255 255 255 250 238 221 205 197 180 171 165 158 155 150 148 146 142 144 149 147 148 149 151 150 156 159 165 165 173 177 181 188 199 207 216 226 234 247 254 255 255 255 255 255 255 255 255 255 255 255 255 255 255 255 255 255 255 255 255 255
255 255 255 255 255 255 255 255 255 255 255 255 255 255 255 255 255 255 255 255 255 255 255 255 255 255 255 255 255 255 255 255 255 255 255 255 255 254 246 229 217 204 197 185 181 175 174 163 164 163 159 160 168 171 166 170 176 178 179 191 189 201 203 214 223 227 238 248 253 255 255 255 255 255 255 255 255 255 255 255 255 255 255 255 255 255 255 255 255 255 255 255
255 255 255 255 255 255 255 255 255 255 255 255 255 255 255 255 255 255 255 255 255 255 255 255 255 255 255 255 255 255 255 255 255 255 255 255 255 255 255 255 253 246 238 225 208 204 206 199 197 187 191 188 191 193 199 198 200 206 210 210 218 226 231 238 246 252 254 255 255 255 255 255 255 255 255 255 255 255 255 255 255 255 255 255 255 255 255 255 255 255 255 255
255 255 255 255 255 255 255 255 255 255 255 255 255 255 255 255 255 255 255 255 255 255 255 255 255 255 255 255 255 255 255 255 255 255 255 255 255 255 255 255 255 255 255 255 253 248 241 233 232 229 220 218 223 227 221 226 226 230 236 241 245 249 254 254 255 255 255 255 255 255 255 255 255 255 255 255 255 255 255 255 255 255 255 255 255 255 255 255 255 255 255 255
255 255 255 255 255 255 255 255 255 255 255 255 255 255 255 255 255 255 255 255 255 255 255 255 255 255 255 255 255 255 255 255 255 255 255 255 255 255 255 255 255 255 255 255 255 255 255 255 255 255 254 253 252 253 252 253 253 254 255 255 255 255 255 255 255 255 255 255 255 255 255 255 255 255 255 255 255 255 255 255 255 255 255 255 255 255 255 255 255 255 255 255
255 255 255 255 255 255 255 255 255 255 255 255 255 255 255 255 255 255 255 255 255 255 255 255 255 255 255 255 255 255 255 255 255 255 255 255 255 255 255 255 255 255 255 255 255 255 255 255 255 255 255 255 255 255 255 255 255 255 255 255 255 255 255 255 255 255 255 255 255 255 255 255 255 255 255 255 255 255 255 255 255 255 255 255 255 255 255 255 255 255 255 255
