P2
109 109
255
255 255 255 255 255 255 255 255 255 255 255 255 255 255 255 255 255 255 255 255 255 255 255 255 255 255 255 255 255 255 255 255 255 255 255 255 255 255 255 255 255 255 255 255 255 255 255 255 255 255 255 255 255 255 255 255 255 255 255 255 255 255 255 255 255 255 255 255 255 255 255 255 255 255 255 255 255 255 255 255 255 255 255 255 255 255 255 255 255 255 255 255 255 255 255 255 255 255 255 255 255 255 255 255 255 255 255 255 255
255 255 255 255 255 255 255 255 255 255 255 255 255 255 255 255 255 255 255 255 255 255 255 255 255 255 255 255 255 255 255 255 255 255 255 255 255 255 255 255 255 255 255 255 255 255 255 255 255 255 255 255 255 255 255 255 255 255 255 255 255 255 255 255 255 255 255 255 255 255 255 255 255 255 255 255 255 255 255 255 255 255 255 255 255 255 255 255 255 255 255 255 255 255 255 255 255 255 255 255 255 255 255 255 255 255 255 255 255
255 255 255 255 255 255 255 255 255 255 255 255 255 255 255 255 255 255 255 255 255 255 255 255 255 255 255 255 255 255 255 255 255 255 255 255 255 255 255 255 255 255 255 255 255 255 255 255 254 254 253 254 253 254 254 254 255 255 255 255 255 255 255 255 255 255 255 255 255 255 255 255 255 255 255 255 255 255 255 255 255 255 255 255 255 255 255 255 255 255 255 255 255 255 255 255 255 255 255 255 255 255 255 255 255 255 255 255 255
255 255 255 255 255 255 255 255 255 255 255 255 255 255 255 255 255 255 255 255 255 255 255 255 255 255 255 255 255 255 255 255 255 255 255 255 255 255 255 255 255 253 253 251 250 249 248 246 244 241 241 239 241 241 240 242 244 247 250 252 253 254 255 255 255 255 255 255 255 255 255 255 255 255 255 255 255 255 255 255 255 255 255 255 255 255 255 255 255 255 255 255 255 255 255 255 255 255 255 255 255 255 255 255 255 255 255 255 255
255 255 255 255 255 255 255 255 255 255 255 255 255 255 255 255 255 255 255 255 255 255 255 255 255 255 255 255 255 255 255 255 255 255 255 255 255 254 253 249 247 242 240 236 236 233 231 230 229 226 226 223 222 224 224 226 230 228 231 236 239 242 246 252 254 255 255 255 255 255 255 255 255 255 255 255 255 255 255 255 255 255 255 255 255 255 255 255 255 255 255 255 255 255 255 255 255 255 255 255 255 255 255 255 255 255 255 255 255
255 255 255 255 255 255 255 255 255 255 255 255 255 255 255 255 255 255 255 255 255 255 255 255 255 255 255 255 255 255 255 255 255 255 255 254 251 246 239 236 231 228 223 223 218 216 217 213 211 213 209 209 208 211 209 211 206 209 214 218 217 223 228 235 240 246 253 254 255 255 255 255 255 255 255 255 255 255 255 255 255 255 255 255 255 255 255 255 255 255 255 255 255 255 255 255 255 255 255 255 255 255 255 255 255 255 255 255 255
255 255 255 255 255 255 255 255 255 255 255 255 255 255 255 255 255 255 255 255 255 255 255 255 255 255 255 255 255 255 255 255 255 253 250 244 237 230 228 218 214 211 208 204 210 208 206 206 203 202 202 201 201 199 196 201 201 201 196 202 204 207 210 215 223 230 238 244 251 254 255 255 255 255 255 255 255 255 255 255 255 255 255 255 255 255 255 255 255 255 255 255 255 255 255 255 255 255 255 255 255 255 255 255 255 255 255 255 255
255 255 255 255 255 255 255 255 255 255 255 255 255 255 255 255 255 255 255 255 255 255 255 255 255 255 255 255 255 255 255 253 248 241 234 228 221 215 211 208 208 204 203 202 203 205 204 205 210 202 207 206 204 202 207 205 205 199 199 195 198 199 197 203 205 212 216 227 236 245 250 254 255 255 255 255 255 255 255 255 255 255 255 255 255 255 255 255 255 255 255 255 255 255 255 255 255 255 255 255 255 255 255 255 255 255 255 255 255
255 255 255 255 255 255 255 255 255 255 255 255 255 255 255 255 255 255 255 255 255 255 255 255 255 255 255 255 255 254 250 243 235 224 222 212 209 205 198 205 204 209 207 210 208 210 210 208 211 212 214 213 212 208 205 208 202 205 207 208 206 204 198 197 192 202 203 208 215 220 233 241 251 254 255 255 255 255 255 255 255 255 255 255 255 255 255 255 255 255 255 255 255 255 255 255 255 255 255 255 255 255 255 255 255 255 255 255 255
255 255 255 255 255 255 255 255 255 255 255 255 255 255 255 255 255 255 255 255 255 255 255 255 255 255 255 255 254 247 238 230 222 212 207 204 202 199 203 209 205 209 211 209 213 214 216 212 214 218 212 213 213 213 213 214 214 211 211 210 209 208 205 197 201 196 198 192 201 208 216 221 233 243 251 255 255 255 255 255 255 255 255 255 255 255 255 255 255 255 255 255 255 255 255 255 255 255 255 255 255 255 255 255 255 255 255 255 255
255 255 255 255 255 255 255 255 255 255 255 255 255 255 255 255 255 255 255 255 255 255 255 255 255 255 255 252 244 234 224 217 209 204 201 204 208 212 209 211 211 213 211 214 212 212 216 214 215 215 215 214 215 215 213 217 214 213 213 213 211 213 209 207 206 202 204 198 197 195 197 206 214 225 236 245 253 255 255 255 255 255 255 255 255 255 255 255 255 255 255 255 255 255 255 255 255 255 255 255 255 255 255 255 255 255 255 255 255
255 255 255 255 255 255 255 255 255 255 255 255 255 255 255 255 255 255 255 255 255 255 255 255 255 255 250 242 228 217 212 203 200 199 205 207 206 212 212 213 216 212 214 213 215 214 215 216 219 213 214 215 216 217 215 216 215 215 211 218 214 213 213 209 208 208 209 204 201 199 196 191 200 206 218 228 240 251 255 255 255 255 255 255 255 255 255 255 255 255 255 255 255 255 255 255 255 255 255 255 255 255 255 255 255 255 255 255 255
255 255 255 255 255 255 255 255 255 255 255 255 255 255 255 255 255 255 255 255 255 255 255 255 255 250 240 228 218 204 203 201 202 208 208 207 213 213 217 216 211 218 219 219 218 217 221 218 216 218 218 218 217 215 217 218 217 216 216 214 214 213 212 216 210 213 208 207 205 205 202 195 196 193 204 209 221 233 246 254 255 255 255 255 255 255 255 255 255 255 255 255 255 255 255 255 255 255 255 255 255 255 255 255 255 255 255 255 255
255 255 255 255 255 255 255 255 255 255 255 255 255 255 255 255 255 255 255 255 255 255 255 255 249 242 228 214 206 198 197 202 208 209 209 214 214 212 218 214 218 218 217 219 218 216 216 218 214 218 220 220 220 220 221 218 218 216 214 220 217 215 214 219 212 215 213 210 212 209 204 201 201 194 195 198 207 217 230 242 253 255 255 255 255 255 255 255 255 255 255 255 255 255 255 255 255 255 255 255 255 255 255 255 255 255 255 255 255
255 255 255 255 255 255 255 255 255 255 255 255 255 255 255 255 255 255 255 255 255 255 255 252 237 224 212 201 197 193 205 210 210 211 212 214 215 219 220 216 216 220 218 219 219 221 220 216 219 219 217 218 219 220 220 220 219 219 220 215 215 217 218 217 216 215 212 213 212 212 211 209 205 201 194 195 193 201 209 223 238 251 255 255 255 255 255 255 255 255 255 255 255 255 255 255 255 255 255 255 255 255 255 255 255 255 255 255 255
255 255 255 255 255 255 255 255 255 255 255 255 255 255 255 255 255 255 255 255 255 255 251 240 230 216 204 194 196 206 207 210 212 213 215 217 215 218 219 218 213 219 218 221 220 220 217 220 217 221 224 221 217 219 218 219 219 222 220 219 215 217 217 218 217 214 215 212 213 214 213 214 209 209 203 202 193 192 200 207 219 235 247 255 255 255 255 255 255 255 255 255 255 255 255 255 255 255 255 255 255 255 255 255 255 255 255 255 255
255 255 255 255 255 255 255 255 255 255 255 255 255 255 255 255 255 255 255 255 255 254 243 229 217 207 199 200 204 209 207 212 218 216 217 215 219 220 219 219 218 216 220 220 220 222 220 218 221 218 223 221 221 218 221 221 218 220 220 220 217 220 219 216 218 215 218 216 216 213 214 211 209 208 210 206 203 195 189 197 207 218 231 246 254 255 255 255 255 255 255 255 255 255 255 255 255 255 255 255 255 255 255 255 255 255 255 255 255
255 255 255 255 255 255 255 255 255 255 255 255 255 255 255 255 255 255 255 255 255 245 230 217 202 198 197 200 202 210 213 216 219 217 218 217 216 218 220 221 220 220 216 220 222 218 221 219 223 220 222 222 218 222 220 219 219 219 219 220 218 218 218 220 217 217 217 218 219 216 213 213 214 210 209 210 204 205 198 193 194 201 217 229 244 254 255 255 255 255 255 255 255 255 255 255 255 255 255 255 255 255 255 255 255 255 255 255 255
255 255 255 255 255 255 255 255 255 255 255 255 255 255 255 255 255 255 255 255 250 236 220 209 198 195 201 209 209 210 213 215 215 219 216 216 220 220 219 222 219 221 224 221 219 218 224 222 220 220 219 221 222 222 220 222 217 218 220 215 217 220 218 214 216 217 215 216 218 216 215 218 214 214 214 209 206 205 201 203 196 195 200 213 229 243 253 255 255 255 255 255 255 255 255 255 255 255 255 255 255 255 255 255 255 255 255 255 255
255 255 255 255 255 255 255 255 255 255 255 255 255 255 255 255 255 255 255 253 237 223 207 201 196 197 210 213 211 214 215 216 220 218 217 216 217 222 222 221 224 221 223 220 222 220 222 225 221 219 219 221 222 220 219 223 224 223 222 220 221 219 219 221 221 219 221 215 215 217 215 214 214 213 214 213 213 207 207 203 201 200 193 204 214 227 242 254 255 255 255 255 255 255 255 255 255 255 255 255 255 255 255 255 255 255 255 255 255
255 255 255 255 255 255 255 255 255 255 255 255 255 255 255 255 255 255 255 246 228 213 199 192 197 205 208 210 213 217 215 220 219 219 217 220 219 220 219 220 221 222 222 223 221 225 221 223 222 222 220 221 221 221 220 221 222 223 220 222 221 219 219 220 220 219 219 217 218 218 217 220 214 215 212 210 216 210 207 207 206 200 193 198 201 214 230 243 254 255 255 255 255 255 255 255 255 255 255 255 255 255 255 255 255 255 255 255 255
255 255 255 255 255 255 255 255 255 255 255 255 255 255 255 255 255 255 251 235 217 205 190 197 204 210 208 213 216 215 217 218 219 218 219 220 221 221 220 221 220 221 221 222 225 224 220 221 222 224 220 221 219 220 222 220 221 222 223 223 223 216 221 221 218 219 216 219 219 219 220 217 217 214 216 212 212 212 213 211 206 205 199 193 193 199 211 227 246 255 255 255 255 255 255 255 255 255 255 255 255 255 255 255 255 255 255 255 255
255 255 255 255 255 255 255 255 255 255 255 255 255 255 255 255 255 255 243 223 208 198 189 199 204 211 212 212 214 213 220 222 220 221 219 221 223 220 221 221 223 221 220 223 219 225 219 221 222 223 221 218 222 221 221 223 221 223 219 222 224 222 218 222 220 221 221 216 219 219 216 218 220 218 216 215 213 214 215 211 212 209 205 203 200 188 203 214 233 247 255 255 255 255 255 255 255 255 255 255 255 255 255 255 255 255 255 255 255
255 255 255 255 255 255 255 255 255 255 255 255 255 255 255 255 255 252 232 217 197 188 196 201 209 212 216 216 216 216 216 220 220 217 222 222 221 222 221 222 220 222 221 223 219 223 223 221 223 223 224 221 224 225 222 222 220 225 223 221 221 222 221 217 222 219 219 221 223 220 221 216 220 218 216 218 215 216 213 213 208 210 208 204 200 194 191 200 214 234 248 255 255 255 255 255 255 255 255 255 255 255 255 255 255 255 255 255 255
255 255 255 255 255 255 255 255 255 255 255 255 255 255 255 255 255 243 222 208 192 193 201 206 212 210 216 213 217 215 219 219 221 220 220 216 222 222 221 221 223 220 223 223 221 224 224 222 223 222 219 223 221 220 220 219 224 221 219 219 222 221 217 220 223 217 216 217 221 219 216 218 219 217 217 217 214 216 216 213 213 208 208 209 203 197 193 194 201 221 237 251 255 255 255 255 255 255 255 255 255 255 255 255 255 255 255 255 255
255 255 255 255 255 255 255 255 255 255 255 255 255 255 255 255 252 232 216 194 191 188 200 208 210 212 215 213 218 220 220 219 222 222 223 224 223 223 221 222 221 224 221 220 223 222 220 220 222 224 222 223 224 219 221 223 225 217 218 224 218 219 223 220 219 218 220 220 219 220 220 219 219 218 217 217 216 215 217 218 215 215 211 211 207 207 197 193 195 206 224 242 253 255 255 255 255 255 255 255 255 255 255 255 255 255 255 255 255
255 255 255 255 255 255 255 255 255 255 255 255 255 255 255 255 245 221 203 187 183 196 204 210 210 213 215 218 219 218 221 220 223 222 222 222 221 223 223 222 225 222 222 223 221 221 222 221 221 221 221 219 222 220 224 222 222 221 221 220 223 223 223 219 221 218 217 220 219 221 216 219 219 220 217 217 218 220 216 215 216 212 214 211 211 204 201 198 188 196 209 229 244 255 255 255 255 255 255 255 255 255 255 255 255 255 255 255 255
255 255 255 255 255 255 255 255 255 255 255 255 255 255 255 253 232 205 190 183 187 204 205 211 214 215 216 220 218 216 218 220 224 218 222 223 225 225 224 221 219 227 223 222 223 222 222 224 221 221 221 223 223 226 221 220 220 221 221 222 221 222 220 221 222 221 222 222 220 220 221 217 221 218 219 220 220 216 217 215 217 215 216 214 214 207 208 201 196 190 196 211 230 250 255 255 255 255 255 255 255 255 255 255 255 255 255 255 255
255 255 255 255 255 255 255 255 255 255 255 255 255 255 255 247 215 198 182 176 189 200 209 212 214 219 219 219 217 220 218 221 222 222 223 222 224 220 223 222 221 223 223 221 220 220 220 224 223 224 222 221 224 224 222 221 222 223 220 221 221 219 222 221 220 221 216 222 223 219 219 217 218 216 223 219 216 215 217 215 217 219 213 213 213 209 207 204 203 194 196 200 219 236 253 255 255 255 255 255 255 255 255 255 255 255 255 255 255
255 255 255 255 255 255 255 255 255 255 255 255 255 255 255 237 205 185 173 175 194 204 212 213 217 219 220 219 222 221 220 220 220 221 221 220 224 222 224 220 223 224 223 223 221 222 224 222 221 221 220 221 223 222 223 226 219 223 221 224 223 220 220 221 222 219 219 220 223 221 220 220 222 220 221 220 216 216 219 217 212 218 212 214 212 210 210 207 208 203 194 193 205 222 244 254 255 255 255 255 255 255 255 255 255 255 255 255 255
255 255 255 255 255 255 255 255 255 255 255 255 255 255 253 227 197 177 168 184 205 210 213 212 216 217 218 223 219 218 220 223 220 221 222 226 223 221 218 221 221 220 224 219 224 223 221 221 222 223 225 221 219 221 222 221 222 220 222 220 222 222 222 219 221 219 222 221 219 220 220 221 222 220 223 217 220 218 218 220 217 217 212 217 216 211 211 208 206 208 198 192 196 213 231 250 255 255 255 255 255 255 255 255 255 255 255 255 255
255 255 255 255 255 255 255 255 255 255 255 255 255 255 249 216 192 175 171 186 205 208 210 217 218 218 219 220 219 218 223 222 222 219 222 222 223 223 221 223 222 222 224 224 225 222 221 223 221 221 223 223 223 222 218 219 220 221 221 222 218 220 220 221 219 221 220 223 223 222 222 221 220 219 217 220 219 217 217 220 216 217 216 210 218 213 211 211 208 205 201 194 192 206 223 239 253 255 255 255 255 255 255 255 255 255 255 255 255
255 255 255 255 255 255 255 255 255 255 255 255 255 255 243 207 181 166 166 194 205 211 214 217 216 218 220 221 220 220 217 221 223 221 219 221 223 221 223 224 220 225 223 223 220 222 224 224 223 224 221 225 223 221 221 221 223 223 220 221 221 222 219 218 218 221 219 220 219 221 220 219 221 222 221 221 219 221 217 217 221 222 218 218 218 215 215 215 209 208 204 199 191 193 209 228 247 255 255 255 255 255 255 255 255 255 255 255 255
255 255 255 255 255 255 255 255 255 255 255 255 255 255 233 202 174 162 166 197 207 211 214 218 217 215 219 221 221 219 220 220 220 225 225 222 221 221 222 222 223 221 220 222 223 223 222 224 220 223 221 221 222 220 223 221 222 221 222 220 225 222 223 218 221 217 219 222 221 221 221 219 220 220 222 219 218 219 214 220 217 220 220 217 215 217 211 213 213 207 204 202 198 195 197 216 237 253 255 255 255 255 255 255 255 255 255 255 255
255 255 255 255 255 255 255 255 255 255 255 255 255 255 227 190 171 159 177 205 208 210 214 218 217 219 220 222 218 220 220 220 221 219 222 220 223 224 219 223 221 222 223 223 225 222 222 221 224 222 217 221 223 219 219 221 220 222 220 221 217 222 222 221 224 218 221 217 220 218 218 222 222 221 219 220 219 219 220 218 217 219 216 218 217 215 212 214 209 212 208 205 201 195 190 207 228 245 255 255 255 255 255 255 255 255 255 255 255
255 255 255 255 255 255 255 255 255 255 255 255 255 252 217 184 162 156 180 202 209 212 215 214 217 219 216 219 220 220 222 221 223 222 222 219 220 225 222 223 221 225 220 224 222 219 218 221 224 221 223 216 218 217 222 218 223 220 220 217 220 218 223 218 218 219 221 220 221 221 220 222 218 218 220 218 219 222 217 221 219 219 219 219 214 215 215 216 213 213 207 211 201 197 189 199 216 232 253 255 255 255 255 255 255 255 255 255 255
255 255 255 255 255 255 255 255 255 255 255 255 255 250 210 178 162 157 183 204 212 212 215 218 219 217 220 220 219 221 220 221 221 223 222 221 221 223 222 223 220 221 220 221 224 223 222 222 218 223 219 219 221 221 220 222 222 224 220 219 220 223 219 221 219 219 224 219 220 222 218 221 220 223 223 219 220 218 219 220 217 218 218 218 220 218 217 213 215 214 212 210 204 200 195 191 207 227 244 255 255 255 255 255 255 255 255 255 255
255 255 255 255 255 255 255 255 255 255 255 255 255 247 204 174 162 156 187 205 207 217 212 215 218 219 221 221 221 223 221 223 222 222 219 221 224 224 224 225 218 222 225 221 222 221 219 224 223 222 222 219 222 221 221 225 222 219 221 220 219 221 217 218 219 224 219 219 218 220 222 220 220 222 219 220 221 220 220 216 220 219 213 220 221 217 218 214 218 214 211 213 206 203 200 189 203 215 235 253 255 255 255 255 255 255 255 255 255
255 255 255 255 255 255 255 255 255 255 255 255 255 242 202 166 152 156 190 207 212 217 212 216 216 217 221 220 219 221 222 219 223 222 224 224 222 221 225 221 223 222 221 221 221 222 224 223 222 222 223 226 222 222 223 218 222 222 219 222 221 220 219 223 221 222 220 223 218 218 219 222 221 220 218 220 221 220 217 219 219 216 218 215 216 217 217 215 217 212 212 209 211 206 202 194 193 207 225 246 255 255 255 255 255 255 255 255 255
255 255 255 255 255 255 255 255 255 255 255 255 255 240 194 166 153 156 196 208 207 214 211 217 217 219 217 224 220 220 221 221 220 222 221 222 223 222 224 224 220 223 219 221 224 225 220 223 227 221 221 220 219 223 219 221 222 220 224 220 221 219 221 221 220 220 218 221 223 220 218 220 220 221 221 220 223 220 219 219 220 215 217 218 218 217 215 212 216 215 214 217 210 207 200 198 191 201 218 237 254 255 255 255 255 255 255 255 255
255 255 255 255 255 255 255 255 255 255 255 255 255 236 195 170 154 157 196 205 209 215 215 220 214 218 220 222 219 221 221 218 222 222 219 222 221 224 222 224 222 223 219 220 222 221 222 224 220 222 218 221 219 221 223 222 221 222 224 219 224 220 222 219 220 220 219 221 222 221 219 218 220 219 220 223 218 220 217 223 220 220 220 216 217 218 219 219 217 217 213 214 211 210 209 201 193 196 212 231 249 255 255 255 255 255 255 255 255
255 255 255 255 255 255 255 255 255 255 255 255 255 232 190 163 152 162 194 207 212 214 215 217 217 221 223 217 220 221 223 220 224 222 220 222 221 220 225 223 218 221 222 222 221 221 221 223 221 219 219 224 222 223 222 222 222 219 221 219 219 220 216 220 223 223 221 224 219 216 220 222 221 222 221 222 219 220 218 221 219 222 221 223 219 219 216 216 216 219 213 214 211 209 207 206 196 195 209 220 241 255 255 255 255 255 255 255 255
255 255 255 255 255 255 255 255 255 255 255 255 255 233 190 164 151 162 197 206 213 216 212 216 219 219 219 219 223 219 221 222 222 221 221 221 222 221 224 221 221 222 223 223 225 222 222 221 220 218 222 218 223 221 218 220 219 219 221 218 218 221 220 220 220 217 220 222 222 221 219 221 220 223 217 222 219 224 217 220 220 220 220 220 217 219 219 219 214 219 217 213 210 210 210 204 200 192 196 214 235 253 255 255 255 255 255 255 255
255 255 255 255 255 255 255 255 255 255 255 255 255 233 187 161 150 162 197 207 215 217 216 215 220 219 219 222 223 221 217 221 223 219 222 220 219 221 217 220 221 224 222 222 223 219 219 222 221 222 221 223 218 221 221 219 221 225 217 219 219 220 220 218 219 220 218 220 219 218 220 220 221 223 218 219 219 220 217 222 223 219 218 221 221 224 219 218 215 215 217 217 213 215 210 204 201 193 192 207 230 249 255 255 255 255 255 255 255
255 255 255 255 255 255 255 255 255 255 255 255 255 232 189 158 154 165 199 207 210 210 216 219 217 220 218 221 220 220 221 223 221 219 221 221 221 224 219 221 223 222 223 218 223 223 222 220 220 220 224 221 220 221 221 220 221 218 220 217 222 221 220 218 220 220 218 220 220 219 222 218 221 218 222 221 224 221 220 221 220 219 219 219 219 220 218 218 215 219 215 213 214 211 211 211 207 192 192 205 221 241 255 255 255 255 255 255 255
255 255 255 255 255 255 255 255 255 255 255 255 255 234 189 165 143 163 197 209 210 213 214 217 215 221 221 221 220 218 222 219 222 218 218 222 221 217 222 223 222 223 222 222 222 221 220 223 222 218 220 220 216 217 222 219 219 221 220 221 218 221 223 222 222 218 221 221 222 221 222 217 220 221 220 220 220 220 219 219 222 220 222 220 223 218 220 220 221 216 215 215 214 213 211 212 210 202 192 198 217 237 253 255 255 255 255 255 255
255 255 255 255 255 255 255 255 255 255 255 255 255 233 189 167 146 168 196 207 210 216 216 219 220 217 221 219 222 218 220 223 221 221 221 222 223 222 222 219 222 217 223 224 221 222 225 221 222 221 220 217 220 221 221 221 218 219 218 218 220 220 217 223 219 215 217 219 223 221 220 221 219 224 219 220 218 221 222 219 221 220 221 219 219 219 218 216 219 219 217 217 213 216 209 210 207 203 187 197 211 232 248 255 255 255 255 255 255
255 255 255 255 255 255 255 255 255 255 255 255 255 235 190 166 145 156 195 204 209 215 215 217 220 218 217 220 221 221 222 218 221 225 221 224 222 222 222 221 222 219 221 222 223 220 220 224 218 220 221 218 220 216 218 222 220 220 221 220 221 219 221 220 220 220 218 219 220 219 222 220 218 222 221 220 218 219 219 223 217 221 218 219 221 218 221 219 219 219 216 217 220 213 215 213 207 205 194 194 207 225 246 255 255 255 255 255 255
255 255 255 255 255 255 255 255 255 255 255 255 255 235 192 165 147 154 193 208 211 212 215 219 217 215 220 220 221 220 222 221 222 222 223 223 221 224 222 221 221 218 223 221 220 219 221 220 222 222 219 220 217 223 218 220 219 218 222 219 221 220 217 219 220 219 219 217 221 220 220 221 221 219 220 222 222 222 217 220 222 221 223 222 220 218 218 217 217 217 218 217 212 216 208 208 211 207 197 194 203 218 242 254 255 255 255 255 255
255 255 255 255 255 255 255 255 255 255 255 255 255 240 194 164 151 153 188 207 205 211 216 215 220 219 216 217 220 220 221 222 222 224 222 222 221 222 223 220 221 221 223 217 217 219 222 219 221 222 219 219 222 219 218 220 222 219 217 223 221 218 220 221 222 219 224 218 218 219 223 223 220 223 221 220 221 220 220 221 220 219 221 222 221 222 220 221 219 217 220 217 217 216 219 212 209 205 202 191 196 215 237 253 255 255 255 255 255
255 255 255 255 255 255 255 255 255 255 255 255 255 245 200 167 146 148 186 205 208 215 216 220 219 221 218 218 220 221 218 221 222 220 222 220 222 222 222 223 226 221 221 218 220 220 220 220 218 221 222 222 223 222 220 220 219 222 221 220 224 220 218 223 222 222 221 218 222 219 221 220 222 222 222 219 219 221 218 219 218 218 220 220 219 221 220 220 220 218 220 221 219 218 214 210 208 207 201 198 197 210 231 251 255 255 255 255 255
255 255 255 255 255 255 255 255 255 255 255 255 255 249 204 171 149 153 183 202 210 211 215 217 217 216 222 217 221 220 220 221 222 222 222 222 221 221 221 219 223 217 217 223 219 222 218 220 215 216 222 220 219 219 219 219 224 219 219 219 220 217 221 219 220 218 224 223 219 220 221 220 223 223 220 221 222 221 221 217 219 220 219 216 217 220 219 224 217 215 219 216 217 216 214 213 210 209 208 198 196 207 227 246 255 255 255 255 255
255 255 255 255 255 255 255 255 255 255 255 255 255 251 212 173 144 145 177 202 208 210 214 212 221 217 217 218 219 219 220 221 222 221 220 220 220 220 220 220 219 221 219 221 219 222 222 222 219 222 219 220 219 217 220 222 220 221 220 217 220 216 222 221 220 221 218 221 217 219 220 222 219 219 224 222 222 223 222 220 221 223 222 221 223 222 221 223 221 221 218 217 219 217 215 212 212 210 204 199 194 207 221 246 255 255 255 255 255
255 255 255 255 255 255 255 255 255 255 255 255 255 253 217 178 155 140 173 199 204 211 213 217 216 215 216 216 220 220 221 219 221 219 222 222 223 220 220 222 222 222 221 222 222 221 223 221 219 224 223 218 220 222 220 222 224 221 221 221 220 220 221 219 223 219 221 221 222 220 221 219 219 221 220 219 218 221 218 219 218 221 221 218 220 221 221 217 219 220 219 217 219 213 211 214 213 211 205 196 193 204 220 243 254 255 255 255 255
255 255 255 255 255 255 255 255 255 255 255 255 255 255 226 179 158 149 161 194 205 209 214 217 219 218 219 219 218 218 217 221 222 220 221 223 221 219 219 222 219 222 222 222 221 220 222 218 221 222 217 221 222 221 224 218 220 222 221 219 220 219 220 220 221 221 221 221 222 222 222 223 220 220 221 224 220 222 225 220 221 220 221 221 220 221 222 218 220 221 219 222 216 218 211 213 210 212 208 203 195 204 219 237 254 255 255 255 255
255 255 255 255 255 255 255 255 255 255 255 255 255 255 237 191 163 139 148 191 207 213 216 213 218 220 220 221 219 221 219 220 223 219 223 221 224 220 217 223 222 221 222 225 221 221 220 216 220 220 220 223 221 220 218 218 218 223 221 220 217 222 221 220 218 222 223 221 224 224 220 221 219 221 222 217 221 220 222 219 220 219 219 222 220 222 223 216 220 221 220 219 219 218 219 215 211 211 209 202 194 199 213 235 253 255 255 255 255
255 255 255 255 255 255 255 255 255 255 255 255 255 255 244 201 166 154 155 180 200 213 215 215 216 220 217 214 218 222 221 219 221 223 220 217 223 221 222 220 223 219 221 223 222 219 220 219 220 219 219 222 222 220 220 218 222 217 220 220 216 219 217 221 223 222 224 222 221 220 225 222 219 221 221 217 224 219 221 225 221 220 223 220 220 223 218 220 220 221 218 217 216 217 214 211 213 214 210 204 195 199 211 236 252 255 255 255 255
255 255 255 255 255 255 255 255 255 255 255 255 255 255 250 209 174 151 140 173 201 211 214 212 218 214 218 217 222 218 222 220 220 220 221 220 222 217 219 221 219 223 218 221 220 221 221 220 221 221 218 223 219 222 219 219 221 220 221 219 220 220 216 222 222 217 221 221 226 222 216 219 220 222 223 217 220 222 221 220 217 223 220 222 221 222 222 221 221 219 220 219 216 219 214 217 214 210 207 203 195 202 211 232 252 255 255 255 255
255 255 255 255 255 255 255 255 255 255 255 255 255 255 254 218 176 152 139 160 197 207 209 213 217 216 215 220 216 220 221 222 223 221 223 220 220 221 220 221 219 222 218 222 221 220 220 224 220 224 223 219 222 219 220 219 221 219 221 220 221 222 221 222 218 222 221 221 220 222 221 221 222 222 223 221 222 221 225 223 225 221 222 221 220 220 218 219 220 219 218 220 216 217 217 217 212 214 209 206 196 197 213 230 251 255 255 255 255
255 255 255 255 255 255 255 255 255 255 255 255 255 255 255 234 185 154 144 145 190 205 209 209 213 214 218 217 222 219 223 219 221 222 220 220 221 221 219 219 224 221 218 221 220 222 222 221 220 219 221 222 220 219 224 221 223 217 220 221 220 221 220 223 223 221 221 221 219 218 220 223 220 219 221 223 224 222 223 218 221 222 221 223 220 221 222 219 222 222 223 217 217 219 217 215 215 208 210 208 197 199 212 229 250 255 255 255 255
255 255 255 255 255 255 255 255 255 255 255 255 255 255 255 245 201 164 150 143 174 204 205 208 213 215 217 220 217 221 221 221 220 222 218 221 220 218 222 221 224 224 221 221 221 222 220 223 222 224 219 222 222 219 220 219 222 220 221 220 219 221 219 221 219 220 222 222 222 224 220 220 222 219 219 223 221 222 220 220 219 218 221 218 218 222 218 222 220 221 218 220 218 217 221 215 213 213 210 207 197 197 210 232 249 255 255 255 255
255 255 255 255 255 255 255 255 255 255 255 255 255 255 255 252 214 177 156 142 168 198 208 211 210 215 214 215 221 218 219 219 221 222 218 223 221 219 223 222 219 221 219 219 222 223 222 220 220 225 222 221 220 219 221 224 218 219 221 221 220 221 220 221 223 219 219 221 222 217 223 220 217 218 221 223 220 220 225 220 220 222 223 223 223 221 220 223 219 222 219 221 219 218 216 217 215 213 210 204 201 194 207 229 248 255 255 255 255
255 255 255 255 255 255 255 255 255 255 255 255 255 255 255 255 229 188 160 143 148 187 206 210 212 218 218 218 216 219 217 219 219 217 222 221 221 219 222 221 218 220 222 223 222 222 219 223 220 221 220 220 223 219 220 222 219 219 222 222 219 223 222 222 220 221 220 224 220 220 224 221 223 218 222 221 222 223 220 219 224 221 226 219 218 222 219 220 218 222 220 220 217 216 216 216 215 211 211 206 199 197 210 229 248 255 255 255 255
255 255 255 255 255 255 255 255 255 255 255 255 255 255 255 255 244 199 165 148 144 171 199 207 207 213 215 215 216 218 221 219 219 220 219 222 221 221 220 221 222 219 223 218 219 221 220 223 220 221 223 221 222 222 218 221 220 221 223 221 223 223 221 222 220 220 222 222 220 221 221 220 221 221 221 221 220 223 220 221 220 220 223 221 221 222 220 220 219 222 218 220 219 217 217 212 216 216 209 203 198 197 207 227 249 255 255 255 255
255 255 255 255 255 255 255 255 255 255 255 255 255 255 255 255 252 216 179 148 139 160 190 201 212 210 213 218 220 216 218 220 219 219 219 219 221 224 221 224 222 221 219 220 220 220 221 223 221 222 222 219 221 221 219 220 222 220 219 223 216 220 223 223 222 221 222 222 222 222 224 223 226 219 221 221 222 222 225 220 220 222 218 224 224 224 223 222 220 219 218 220 219 217 219 217 217 213 210 206 199 197 215 231 250 255 255 255 255
255 255 255 255 255 255 255 255 255 255 255 255 255 255 255 255 255 235 189 154 142 152 180 202 205 209 212 216 220 216 218 220 220 224 218 217 221 220 224 220 221 219 224 221 218 221 219 217 222 219 222 221 220 220 222 219 220 221 220 220 221 219 226 222 221 221 220 219 222 221 221 219 223 221 223 222 223 222 220 221 223 222 222 223 222 224 220 221 221 219 219 217 219 215 220 216 212 213 210 203 201 197 216 232 250 255 255 255 255
255 255 255 255 255 255 255 255 255 255 255 255 255 255 255 255 255 249 203 169 149 145 163 193 205 209 214 212 218 216 221 216 219 219 218 220 221 220 223 221 222 222 221 221 220 218 221 219 224 223 224 222 221 222 223 222 222 222 219 220 220 223 223 223 221 220 219 221 219 219 222 221 220 223 220 223 220 224 223 221 222 221 225 221 221 223 222 223 223 221 219 222 221 218 217 214 216 211 204 204 192 196 213 233 252 255 255 255 255
255 255 255 255 255 255 255 255 255 255 255 255 255 255 255 255 255 255 230 181 155 138 152 179 203 207 210 216 216 217 220 220 219 219 220 218 221 218 222 220 220 224 220 222 218 221 224 221 223 222 220 223 220 222 222 223 223 222 225 225 220 223 221 224 222 222 223 219 223 222 221 224 220 222 219 223 221 220 225 222 221 222 219 219 221 219 222 222 222 221 223 224 220 219 218 217 217 213 208 203 203 198 217 235 252 255 255 255 255
255 255 255 255 255 255 255 255 255 255 255 255 255 255 255 255 255 255 245 208 168 147 138 165 196 206 208 209 208 212 218 220 217 217 218 221 217 219 224 222 220 221 222 221 222 222 222 221 220 219 221 220 222 222 222 221 220 223 222 222 223 221 219 222 224 222 220 223 219 224 220 222 223 223 224 221 225 225 224 224 224 220 223 220 220 222 220 218 220 216 220 221 216 212 219 217 215 212 208 202 196 202 218 239 254 255 255 255 255
255 255 255 255 255 255 255 255 255 255 255 255 255 255 255 255 255 255 254 226 182 151 148 144 185 200 208 211 212 213 216 218 218 219 220 218 219 220 217 220 221 219 222 218 222 223 225 221 222 221 222 222 222 220 221 222 220 219 224 223 222 220 222 222 224 221 221 218 223 222 222 225 222 221 221 224 221 221 221 222 220 226 219 224 223 220 221 218 220 216 220 216 216 219 216 214 214 213 209 199 196 207 225 243 255 255 255 255 255
255 255 255 255 255 255 255 255 255 255 255 255 255 255 255 255 255 255 255 245 204 169 142 146 160 190 200 211 213 215 218 217 219 219 220 219 222 221 222 222 220 222 219 223 220 222 219 220 221 220 224 221 220 218 222 220 224 219 221 224 222 223 221 220 224 222 224 221 221 222 218 222 222 221 221 223 223 223 225 224 224 224 222 222 220 224 222 219 224 221 220 218 219 214 217 217 215 211 208 197 197 213 227 247 255 255 255 255 255
255 255 255 255 255 255 255 255 255 255 255 255 255 255 255 255 255 255 255 254 226 187 162 146 147 176 200 205 212 213 212 216 219 219 216 219 220 221 222 221 221 221 220 220 223 224 219 222 222 221 221 221 221 224 220 218 223 220 223 221 224 223 221 222 221 222 219 224 221 219 222 224 223 224 219 220 222 224 222 224 221 223 225 220 222 223 223 222 220 220 222 220 218 214 215 216 212 211 203 199 201 214 234 249 255 255 255 255 255
255 255 255 255 255 255 255 255 255 255 255 255 255 255 255 255 255 255 255 255 247 204 173 145 134 154 186 200 209 211 211 211 214 220 219 217 221 219 219 220 221 220 219 219 222 218 219 217 219 220 219 223 223 221 220 222 222 222 221 220 224 221 220 221 223 221 221 222 223 221 223 221 219 223 221 222 218 222 220 222 223 219 221 223 220 220 221 219 220 221 220 216 221 217 215 215 213 212 197 200 204 218 236 253 255 255 255 255 255
255 255 255 255 255 255 255 255 255 255 255 255 255 255 255 255 255 255 255 255 255 235 187 162 146 143 168 195 207 208 209 211 214 216 219 219 217 215 219 219 220 218 220 223 222 221 218 219 221 221 221 220 221 220 224 222 221 221 224 220 220 222 220 221 219 223 223 224 225 219 223 221 221 222 222 220 224 221 224 223 222 221 220 220 222 221 223 218 220 221 223 216 219 219 217 216 212 212 204 199 209 226 243 254 255 255 255 255 255
255 255 255 255 255 255 255 255 255 255 255 255 255 255 255 255 255 255 255 255 255 251 217 177 154 144 145 170 198 207 210 211 212 216 217 216 216 218 219 220 219 220 218 222 223 221 220 220 224 224 223 220 219 224 220 220 222 222 222 221 220 224 222 222 222 227 224 222 222 221 224 219 220 223 222 224 220 222 224 222 218 220 223 220 222 222 225 219 217 221 220 219 217 216 216 215 210 208 200 201 213 229 248 255 255 255 255 255 255
255 255 255 255 255 255 255 255 255 255 255 255 255 255 255 255 255 255 255 255 255 255 241 202 171 152 146 155 185 202 207 208 213 215 214 219 216 218 219 215 214 218 219 220 220 218 222 222 223 219 220 225 220 222 223 221 221 222 223 220 220 221 221 223 223 223 221 222 223 220 221 224 220 222 222 225 222 225 222 223 225 224 223 223 219 221 220 221 219 222 218 218 216 217 212 211 207 203 202 205 220 237 251 255 255 255 255 255 255
255 255 255 255 255 255 255 255 255 255 255 255 255 255 255 255 255 255 255 255 255 255 254 229 187 163 140 139 158 190 204 209 212 210 214 217 215 215 213 222 220 220 224 217 221 221 219 220 218 222 223 223 223 221 221 221 222 220 224 218 222 223 220 225 220 223 219 220 220 222 219 223 220 221 221 224 222 223 222 223 219 222 221 223 222 221 220 220 222 224 217 218 218 212 215 212 207 202 200 210 226 244 254 255 255 255 255 255 255
255 255 255 255 255 255 255 255 255 255 255 255 255 255 255 255 255 255 255 255 255 255 255 251 218 179 147 144 133 162 196 208 208 212 214 216 214 213 220 218 216 219 221 219 223 224 221 221 219 220 219 220 221 221 221 224 222 221 220 221 222 221 221 223 219 225 221 220 219 222 223 222 223 224 224 221 224 223 221 222 223 220 218 219 219 221 221 218 218 215 213 217 214 215 214 207 206 204 205 217 232 248 255 255 255 255 255 255 255
255 255 255 255 255 255 255 255 255 255 255 255 255 255 255 255 255 255 255 255 255 255 255 255 246 208 172 151 144 150 173 198 206 211 211 212 211 213 220 216 218 221 220 218 220 219 218 218 222 218 219 219 221 218 222 222 222 222 222 223 224 223 224 225 221 222 224 220 220 226 221 222 223 221 222 222 223 224 222 223 218 220 221 220 221 220 220 220 218 218 218 214 211 214 213 209 208 203 210 221 241 253 255 255 255 255 255 255 255
255 255 255 255 255 255 255 255 255 255 255 255 255 255 255 255 255 255 255 255 255 255 255 255 255 237 200 168 150 142 147 177 202 204 211 211 212 215 212 215 217 220 215 217 221 217 218 220 217 220 224 222 222 221 220 221 221 219 220 219 220 223 220 219 220 223 222 221 223 219 221 224 221 222 221 221 220 221 221 222 222 221 221 224 220 223 221 220 218 216 218 214 217 211 208 208 204 207 216 230 244 255 255 255 255 255 255 255 255
255 255 255 255 255 255 255 255 255 255 255 255 255 255 255 255 255 255 255 255 255 255 255 255 255 254 227 192 165 147 142 154 178 197 205 209 210 216 214 216 217 214 219 216 221 217 221 221 219 219 223 223 218 216 220 220 222 217 224 225 218 222 222 221 220 222 221 225 226 225 223 222 219 222 222 227 223 222 220 224 218 222 220 220 222 218 218 219 221 218 214 213 213 213 212 202 203 210 222 240 251 255 255 255 255 255 255 255 255
255 255 255 255 255 255 255 255 255 255 255 255 255 255 255 255 255 255 255 255 255 255 255 255 255 255 252 221 187 163 147 135 152 179 199 207 207 211 211 215 217 213 218 219 218 217 219 220 219 220 222 221 219 218 220 220 219 223 222 225 222 221 223 219 222 222 224 221 222 223 221 221 224 223 221 221 221 220 223 222 221 218 219 224 221 220 218 221 217 216 214 211 210 213 207 202 208 219 230 247 254 255 255 255 255 255 255 255 255
255 255 255 255 255 255 255 255 255 255 255 255 255 255 255 255 255 255 255 255 255 255 255 255 255 255 255 249 217 182 155 146 144 154 179 201 204 208 212 218 215 212 216 215 217 220 218 219 216 220 222 221 220 221 220 223 221 224 221 221 221 223 221 222 222 222 225 222 221 223 221 223 222 224 223 224 219 221 223 223 225 220 222 221 217 221 219 218 216 216 216 212 212 209 203 203 212 227 238 252 255 255 255 255 255 255 255 255 255
255 255 255 255 255 255 255 255 255 255 255 255 255 255 255 255 255 255 255 255 255 255 255 255 255 255 255 255 249 213 185 162 146 137 153 178 201 211 205 212 212 215 216 215 214 219 220 219 218 220 219 217 220 219 218 223 218 220 222 222 219 218 221 221 220 221 223 220 224 220 223 219 219 222 222 223 223 221 222 222 221 220 218 220 219 217 217 220 217 214 211 212 209 203 199 207 219 231 247 255 255 255 255 255 255 255 255 255 255
255 255 255 255 255 255 255 255 255 255 255 255 255 255 255 255 255 255 255 255 255 255 255 255 255 255 255 255 255 248 214 187 161 148 144 150 176 197 204 210 211 211 213 219 214 216 218 215 219 219 217 220 220 221 224 221 218 223 219 222 220 222 220 223 221 220 222 220 221 222 221 221 222 222 221 218 220 218 219 221 218 219 218 220 219 217 218 215 217 215 213 207 206 204 208 221 231 243 253 255 255 255 255 255 255 255 255 255 255
255 255 255 255 255 255 255 255 255 255 255 255 255 255 255 255 255 255 255 255 255 255 255 255 255 255 255 255 255 255 247 216 182 165 151 146 144 171 193 203 205 212 210 213 211 213 217 217 216 218 218 219 218 221 223 221 218 219 220 221 220 219 220 222 220 220 221 223 219 222 220 220 221 223 222 219 221 220 219 221 219 218 220 217 219 215 214 212 213 210 209 204 202 204 214 227 237 252 255 255 255 255 255 255 255 255 255 255 255
255 255 255 255 255 255 255 255 255 255 255 255 255 255 255 255 255 255 255 255 255 255 255 255 255 255 255 255 255 255 255 249 219 187 167 151 143 144 159 182 199 207 210 208 213 213 214 218 216 216 216 216 216 218 219 220 218 222 216 220 216 221 218 221 223 218 218 221 222 219 222 219 222 222 219 220 218 221 221 219 217 218 219 217 216 218 216 216 213 212 211 205 204 212 223 234 248 255 255 255 255 255 255 255 255 255 255 255 255
255 255 255 255 255 255 255 255 255 255 255 255 255 255 255 255 255 255 255 255 255 255 255 255 255 255 255 255 255 255 255 255 249 227 192 169 152 140 145 150 181 199 206 208 207 213 211 215 215 218 217 220 218 217 217 220 218 222 222 221 217 219 219 219 221 220 221 221 218 219 223 219 220 218 220 220 221 217 219 220 218 217 221 222 213 213 213 214 212 208 201 201 208 222 231 247 254 255 255 255 255 255 255 255 255 255 255 255 255
255 255 255 255 255 255 255 255 255 255 255 255 255 255 255 255 255 255 255 255 255 255 255 255 255 255 255 255 255 255 255 255 255 252 232 196 170 160 153 140 152 165 186 203 203 207 207 211 213 216 210 216 219 217 216 218 218 216 218 220 219 221 217 219 216 221 219 217 218 217 219 219 218 218 220 219 217 220 219 217 221 218 212 215 217 214 208 212 210 203 200 208 215 229 244 253 255 255 255 255 255 255 255 255 255 255 255 255 255
255 255 255 255 255 255 255 255 255 255 255 255 255 255 255 255 255 255 255 255 255 255 255 255 255 255 255 255 255 255 255 255 255 255 254 237 207 177 160 159 148 142 156 181 198 203 207 206 210 208 212 211 213 213 214 216 215 215 219 217 218 216 220 218 222 217 217 218 218 216 219 218 218 216 219 217 218 218 220 219 217 214 214 211 210 212 213 205 201 203 208 217 231 240 252 255 255 255 255 255 255 255 255 255 255 255 255 255 255
255 255 255 255 255 255 255 255 255 255 255 255 255 255 255 255 255 255 255 255 255 255 255 255 255 255 255 255 255 255 255 255 255 255 255 255 245 218 192 174 159 152 147 149 163 184 200 202 206 211 210 214 212 215 214 215 217 217 215 213 220 219 219 217 220 218 216 220 218 216 218 218 218 217 218 217 215 217 214 217 214 211 211 212 209 209 205 200 198 207 216 230 241 251 255 255 255 255 255 255 255 255 255 255 255 255 255 255 255
255 255 255 255 255 255 255 255 255 255 255 255 255 255 255 255 255 255 255 255 255 255 255 255 255 255 255 255 255 255 255 255 255 255 255 255 255 251 230 203 180 165 158 142 149 151 160 183 200 204 209 208 210 207 213 219 212 214 213 216 217 216 217 219 216 216 215 217 218 217 215 218 219 214 218 214 218 218 215 214 207 210 211 206 208 206 201 204 210 220 231 243 251 255 255 255 255 255 255 255 255 255 255 255 255 255 255 255 255
255 255 255 255 255 255 255 255 255 255 255 255 255 255 255 255 255 255 255 255 255 255 255 255 255 255 255 255 255 255 255 255 255 255 255 255 255 255 254 243 216 191 177 165 149 150 144 155 165 178 199 203 206 207 210 211 210 212 209 213 215 213 214 212 216 216 215 213 218 213 212 215 215 214 213 214 211 215 213 211 204 209 206 203 199 200 204 210 219 235 243 252 255 255 255 255 255 255 255 255 255 255 255 255 255 255 255 255 255
255 255 255 255 255 255 255 255 255 255 255 255 255 255 255 255 255 255 255 255 255 255 255 255 255 255 255 255 255 255 255 255 255 255 255 255 255 255 255 255 252 236 209 188 174 161 156 147 153 149 164 177 187 200 203 205 206 207 209 211 209 212 210 217 215 212 213 213 215 215 212 214 210 211 215 211 211 209 208 208 200 201 201 198 200 210 216 227 236 243 253 255 255 255 255 255 255 255 255 255 255 255 255 255 255 255 255 255 255
255 255 255 255 255 255 255 255 255 255 255 255 255 255 255 255 255 255 255 255 255 255 255 255 255 255 255 255 255 255 255 255 255 255 255 255 255 255 255 255 255 255 249 228 204 186 173 163 156 156 148 153 161 170 183 194 198 202 201 208 204 209 209 208 210 206 209 209 213 210 209 210 207 206 204 206 209 207 200 201 196 195 201 205 210 215 227 238 247 254 255 255 255 255 255 255 255 255 255 255 255 255 255 255 255 255 255 255 255
255 255 255 255 255 255 255 255 255 255 255 255 255 255 255 255 255 255 255 255 255 255 255 255 255 255 255 255 255 255 255 255 255 255 255 255 255 255 255 255 255 255 255 255 246 226 203 191 171 165 162 154 154 154 151 167 171 186 192 195 197 199 201 207 203 204 203 208 207 204 203 205 204 198 204 201 200 199 188 192 198 201 213 217 224 235 244 251 254 255 255 255 255 255 255 255 255 255 255 255 255 255 255 255 255 255 255 255 255
255 255 255 255 255 255 255 255 255 255 255 255 255 255 255 255 255 255 255 255 255 255 255 255 255 255 255 255 255 255 255 255 255 255 255 255 255 255 255 255 255 255 255 255 255 254 248 230 212 194 186 177 167 166 158 160 164 165 165 168 176 177 184 188 191 190 197 195 196 194 194 197 194 192 194 190 194 195 196 204 209 216 219 232 241 247 253 255 255 255 255 255 255 255 255 255 255 255 255 255 255 255 255 255 255 255 255 255 255
255 255 255 255 255 255 255 255 255 255 255 255 255 255 255 255 255 255 255 255 255 255 255 255 255 255 255 255 255 255 255 255 255 255 255 255 255 255 255 255 255 255 255 255 255 255 255 255 250 239 220 203 196 187 181 172 171 172 168 166 175 177 175 174 178 177 181 185 181 183 187 184 184 191 189 194 200 202 211 217 223 231 241 246 253 255 255 255 255 255 255 255 255 255 255 255 255 255 255 255 255 255 255 255 255 255 255 255 255
255 255 255 255 255 255 255 255 255 255 255 255 255 255 255 255 255 255 255 255 255 255 255 255 255 255 255 255 255 255 255 255 255 255 255 255 255 255 255 255 255 255 255 255 255 255 255 255 255 255 252 247 233 218 207 199 195 194 188 187 188 191 180 184 184 187 188 191 190 190 192 197 199 204 203 210 218 223 228 234 240 246 252 254 255 255 255 255 255 255 255 255 255 255 255 255 255 255 255 255 255 255 255 255 255 255 255 255 255
255 255 255 255 255 255 255 255 255 255 255 255 255 255 255 255 255 255 255 255 255 255 255 255 255 255 255 255 255 255 255 255 255 255 255 255 255 255 255 255 255 255 255 255 255 255 255 255 255 255 255 255 255 253 248 240 228 219 213 212 205 204 205 205 205 205 208 206 207 207 213 214 217 220 223 231 235 241 246 251 254 255 255 255 255 255 255 255 255 255 255 255 255 255 255 255 255 255 255 255 255 255 255 255 255 255 255 255 255
255 255 255 255 255 255 255 255 255 255 255 255 255 255 255 255 255 255 255 255 255 255 255 255 255 255 255 255 255 255 255 255 255 255 255 255 255 255 255 255 255 255 255 255 255 255 255 255 255 255 255 255 255 255 255 255 254 253 247 241 239 234 233 231 231 229 229 233 230 230 230 235 238 241 246 250 253 254 255 255 255 255 255 255 255 255 255 255 255 255 255 255 255 255 255 255 255 255 255 255 255 255 255 255 255 255 255 255 255
255 255 255 255 255 255 255 255 255 255 255 255 255 255 255 255 255 255 255 255 255 255 255 255 255 255 255 255 255 255 255 255 255 255 255 255 255 255 255 255 255 255 255 255 255 255 255 255 255 255 255 255 255 255 255 255 255 255 255 255 255 255 254 254 252 250 251 252 252 251 253 252 254 255 255 255 255 255 255 255 255 255 255 255 255 255 255 255 255 255 255 255 255 255 255 255 255 255 255 255 255 255 255 255 255 255 255 255 255
255 255 255 255 255 255 255 255 255 255 255 255 255 255 255 255 255 255 255 255 255 255 255 255 255 255 255 255 255 255 255 255 255 255 255 255 255 255 255 255 255 255 255 255 255 255 255 255 255 255 255 255 255 255 255 255 255 255 255 255 255 255 255 255 255 255 255 255 255 255 255 255 255 255 255 255 255 255 255 255 255 255 255 255 255 255 255 255 255 255 255 255 255 255 255 255 255 255 255 255 255 255 255 255 255 255 255 255 255
255 255 255 255 255 255 255 255 255 255 255 255 255 255 255 255 255 255 255 255 255 255 255 255 255 255 255 255 255 255 255 255 255 255 255 255 255 255 255 255 255 255 255 255 255 255 255 255 255 255 255 255 255 255 255 255 255 255 255 255 255 255 255 255 255 255 255 255 255 255 255 255 255 255 255 255 255 255 255 255 255 255 255 255 255 255 255 255 255 255 255 255 255 255 255 255 255 255 255 255 255 255 255 255 255 255 255 255 255
255 255 255 255 255 255 255 255 255 255 255 255 255 255 255 255 255 255 255 255 255 255 255 255 255 255 255 255 255 255 255 255 255 255 255 255 255 255 255 255 255 255 255 255 255 255 255 255 255 255 255 255 255 255 255 255 255 255 255 255 255 255 255 255 255 255 255 255 255 255 255 255 255 255 255 255 255 255 255 255 255 255 255 255 255 255 255 255 255 255 255 255 255 255 255 255 255 255 255 255 255 255 255 255 255 255 255 255 255
255 255 255 255 255 255 255 255 255 255 255 255 255 255 255 255 255 255 255 255 255 255 255 255 255 255 255 255 255 255 255 255 255 255 255 255 255 255 255 255 255 255 255 255 255 255 255 255 255 255 255 255 255 255 255 255 255 255 255 255 255 255 255 255 255 255 255 255 255 255 255 255 255 255 255 255 255 255 255 255 255 255 255 255 255 255 255 255 255 255 255 255 255 255 255 255 255 255 255 255 255 255 255 255 255 255 255 255 255
255 255 255 255 255 255 255 255 255 255 255 255 255 255 255 255 255 255 255 255 255 255 255 255 255 255 255 255 255 255 255 255 255 255 255 255 255 255 255 255 255 255 255 255 255 255 255 255 255 255 255 255 255 255 255 255 255 255 255 255 255 255 255 255 255 255 255 255 255 255 255 255 255 255 255 255 255 255 255 255 255 255 255 255 255 255 255 255 255 255 255 255 255 255 255 255 255 255 255 255 255 255 255 255 255 255 255 255 255
255 255 255 255 255 255 255 255 255 255 255 255 255 255 255 255 255 255 255 255 255 255 255 255 255 255 255 255 255 255 255 255 255 255 255 255 255 255 255 255 255 255 255 255 255 255 255 255 255 255 255 255 255 255 255 255 255 255 255 255 255 255 255 255 255 255 255 255 255 255 255 255 255 255 255 255 255 255 255 255 255 255 255 255 255 255 255 255 255 255 255 255 255 255 255 255 255 255 255 255 255 255 255 255 255 255 255 255 255
255 255 255 255 255 255 255 255 255 255 255 255 255 255 255 255 255 255 255 255 255 255 255 255 255 255 255 255 255 255 255 255 255 255 255 255 255 255 255 255 255 255 255 255 255 255 255 255 255 255 255 255 255 255 255 255 255 255 255 255 255 255 255 255 255 255 255 255 255 255 255 255 255 255 255 255 255 255 255 255 255 255 255 255 255 255 255 255 255 255 255 255 255 255 255 255 255 255 255 255 255 255 255 255 255 255 255 255 255
