P2
109 109
255
255 255 255 255 255 255 255 255 255 255 255 255 255 255 255 255 255 255 255 255 255 255 255 255 255 255 255 255 255 255 255 255 255 255 255 255 255 255 255 255 255 255 255 255 255 255 255 255 255 255 255 255 255 255 255 255 255 255 255 255 255 255 255 255 255 255 255 255 255 255 255 255 255 255 255 255 255 255 255 255 255 255 255 255 255 255 255 255 255 255 255 255 255 255 255 255 255 255 255 255 255 255 255 255 255 255 255 255 255
255 255 255 255 255 255 255 255 255 255 255 255 255 255 255 255 255 255 255 255 255 255 255 255 255 255 255 255 255 255 255 255 255 255 255 255 255 255 255 255 255 255 255 255 255 255 255 255 255 255 255 255 255 255 255 255 255 255 255 255 255 255 255 255 255 255 255 255 255 255 255 255 255 255 255 255 255 255 255 255 255 255 255 255 255 255 255 255 255 255 255 255 255 255 255 255 255 255 255 255 255 255 255 255 255 255 255 255 255
255 255 255 255 255 255 255 255 255 255 255 255 255 255 255 255 255 255 255 255 255 255 255 255 255 255 255 255 255 255 255 255 255 255 255 255 255 255 255 255 255 255 255 255 255 255 255 254 254 253 253 253 253 252 253 253 254 254 255 255 255 255 255 255 255 255 255 255 255 255 255 255 255 255 255 255 255 255 255 255 255 255 255 255 255 255 255 255 255 255 255 255 255 255 255 255 255 255 255 255 255 255 255 255 255 255 255 255 255
255 255 255 255 255 255 255 255 255 255 255 255 255 255 255 255 255 255 255 255 255 255 255 255 255 255 255 255 255 255 255 255 255 255 255 255 255 255 255 255 254 253 252 252 250 250 246 243 244 240 241 243 238 242 241 241 240 243 247 248 250 253 253 254 255 255 255 255 255 255 255 255 255 255 255 255 255 255 255 255 255 255 255 255 255 255 255 255 255 255 255 255 255 255 255 255 255 255 255 255 255 255 255 255 255 255 255 255 255
255 255 255 255 255 255 255 255 255 255 255 255 255 255 255 255 255 255 255 255 255 255 255 255 255 255 255 255 255 255 255 255 255 255 255 255 255 253 251 248 244 243 239 239 233 236 231 230 228 230 227 226 224 225 224 227 223 229 229 233 234 238 240 246 247 252 254 255 255 255 255 255 255 255 255 255 255 255 255 255 255 255 255 255 255 255 255 255 255 255 255 255 255 255 255 255 255 255 255 255 255 255 255 255 255 255 255 255 255
255 255 255 255 255 255 255 255 255 255 255 255 255 255 255 255 255 255 255 255 255 255 255 255 255 255 255 255 255 255 255 255 255 255 254 251 247 243 237 236 229 226 227 226 226 222 216 221 219 216 213 216 210 214 213 212 215 218 214 220 220 222 225 230 235 238 242 247 251 254 255 255 255 255 255 255 255 255 255 255 255 255 255 255 255 255 255 255 255 255 255 255 255 255 255 255 255 255 255 255 255 255 255 255 255 255 255 255 255
255 255 255 255 255 255 255 255 255 255 255 255 255 255 255 255 255 255 255 255 255 255 255 255 255 255 255 255 255 255 255 255 254 249 245 243 234 230 221 222 217 214 210 213 210 211 210 210 209 206 212 210 209 206 208 205 211 209 208 208 208 209 214 215 219 223 227 233 238 241 249 252 255 255 255 255 255 255 255 255 255 255 255 255 255 255 255 255 255 255 255 255 255 255 255 255 255 255 255 255 255 255 255 255 255 255 255 255 255
255 255 255 255 255 255 255 255 255 255 255 255 255 255 255 255 255 255 255 255 255 255 255 255 255 255 255 255 255 255 253 249 242 234 230 227 218 215 214 210 209 207 208 210 210 212 211 212 210 216 211 213 213 210 209 214 211 208 206 210 208 205 208 207 203 209 213 216 223 230 233 241 246 253 255 255 255 255 255 255 255 255 255 255 255 255 255 255 255 255 255 255 255 255 255 255 255 255 255 255 255 255 255 255 255 255 255 255 255
255 255 255 255 255 255 255 255 255 255 255 255 255 255 255 255 255 255 255 255 255 255 255 255 255 255 255 255 254 249 242 236 230 224 217 213 213 208 209 207 212 211 213 209 215 215 213 213 214 214 215 217 215 212 216 216 213 210 212 214 216 212 210 213 208 206 203 205 213 212 217 226 233 239 245 252 255 255 255 255 255 255 255 255 255 255 255 255 255 255 255 255 255 255 255 255 255 255 255 255 255 255 255 255 255 255 255 255 255
255 255 255 255 255 255 255 255 255 255 255 255 255 255 255 255 255 255 255 255 255 255 255 255 255 255 254 251 247 238 231 221 217 211 209 206 209 210 206 213 211 214 212 215 214 217 216 217 218 219 217 217 218 217 217 218 216 214 216 212 215 213 214 210 213 208 210 204 206 206 209 212 215 226 230 238 249 253 255 255 255 255 255 255 255 255 255 255 255 255 255 255 255 255 255 255 255 255 255 255 255 255 255 255 255 255 255 255 255
255 255 255 255 255 255 255 255 255 255 255 255 255 255 255 255 255 255 255 255 255 255 255 255 255 254 249 241 233 227 217 215 207 208 208 213 213 214 213 218 214 214 219 216 216 215 216 217 218 217 222 219 216 216 218 218 218 218 218 217 216 216 217 215 212 214 209 211 209 208 203 203 207 209 219 225 231 241 250 254 255 255 255 255 255 255 255 255 255 255 255 255 255 255 255 255 255 255 255 255 255 255 255 255 255 255 255 255 255
255 255 255 255 255 255 255 255 255 255 255 255 255 255 255 255 255 255 255 255 255 255 255 255 253 247 238 228 218 212 213 206 207 211 212 214 214 216 219 215 216 220 219 218 222 219 220 219 218 218 218 221 221 218 219 219 221 220 219 217 219 219 216 216 219 212 212 214 211 212 208 207 206 202 209 209 219 226 236 245 252 255 255 255 255 255 255 255 255 255 255 255 255 255 255 255 255 255 255 255 255 255 255 255 255 255 255 255 255
255 255 255 255 255 255 255 255 255 255 255 255 255 255 255 255 255 255 255 255 255 255 255 252 243 234 226 215 211 205 207 210 210 213 213 215 216 219 218 217 219 217 218 222 221 221 221 222 223 221 219 222 218 220 219 220 220 220 220 218 218 218 220 219 216 219 219 216 215 212 213 207 212 204 204 202 206 213 221 229 240 251 254 255 255 255 255 255 255 255 255 255 255 255 255 255 255 255 255 255 255 255 255 255 255 255 255 255 255
255 255 255 255 255 255 255 255 255 255 255 255 255 255 255 255 255 255 255 255 255 255 251 243 231 222 214 207 205 206 210 213 215 216 217 218 217 219 219 223 219 217 220 221 221 220 222 223 219 222 222 218 223 221 221 219 220 220 220 224 219 220 217 220 221 217 217 217 216 219 213 213 212 211 210 205 199 204 208 218 226 238 248 254 255 255 255 255 255 255 255 255 255 255 255 255 255 255 255 255 255 255 255 255 255 255 255 255 255
255 255 255 255 255 255 255 255 255 255 255 255 255 255 255 255 255 255 255 255 255 252 241 232 220 214 206 208 206 209 210 217 211 220 215 220 219 220 219 218 215 220 222 223 221 221 224 220 221 222 218 222 221 219 220 219 222 220 222 216 222 220 218 217 222 220 218 220 218 217 213 218 216 214 211 208 208 207 202 208 212 226 234 245 253 255 255 255 255 255 255 255 255 255 255 255 255 255 255 255 255 255 255 255 255 255 255 255 255
255 255 255 255 255 255 255 255 255 255 255 255 255 255 255 255 255 255 255 255 252 243 231 220 211 206 207 206 211 213 212 217 218 218 219 220 223 220 220 217 221 224 219 220 222 224 222 227 220 225 219 221 222 223 221 222 222 222 221 221 218 221 220 219 218 220 222 222 219 219 218 214 217 214 213 212 211 212 201 203 207 209 220 229 241 250 255 255 255 255 255 255 255 255 255 255 255 255 255 255 255 255 255 255 255 255 255 255 255
255 255 255 255 255 255 255 255 255 255 255 255 255 255 255 255 255 255 255 252 242 232 218 213 202 206 207 211 219 216 217 218 219 221 218 220 219 222 221 218 222 223 221 219 222 223 220 224 222 223 222 223 220 221 221 221 225 224 218 223 221 221 220 221 218 221 220 216 221 218 218 217 219 217 215 215 211 212 210 208 200 204 209 214 229 240 250 255 255 255 255 255 255 255 255 255 255 255 255 255 255 255 255 255 255 255 255 255 255
255 255 255 255 255 255 255 255 255 255 255 255 255 255 255 255 255 255 252 245 233 220 207 204 204 206 214 211 216 217 214 218 216 219 219 221 221 219 222 221 222 222 220 222 222 223 225 224 222 222 221 224 222 224 220 224 222 223 222 221 220 222 218 221 221 221 220 217 221 223 216 219 223 218 219 221 215 215 212 212 208 204 205 208 213 225 236 248 255 255 255 255 255 255 255 255 255 255 255 255 255 255 255 255 255 255 255 255 255
255 255 255 255 255 255 255 255 255 255 255 255 255 255 255 255 255 254 247 234 223 213 202 201 208 215 212 217 217 219 216 219 222 220 223 221 223 222 219 225 222 224 225 224 227 223 223 222 223 224 223 222 223 221 224 220 222 225 221 222 222 223 220 221 220 220 221 219 218 223 220 219 218 217 215 216 217 212 219 214 206 209 208 204 205 211 221 237 248 255 255 255 255 255 255 255 255 255 255 255 255 255 255 255 255 255 255 255 255
255 255 255 255 255 255 255 255 255 255 255 255 255 255 255 255 255 248 236 222 214 207 203 204 213 215 216 220 219 220 222 220 221 223 221 223 221 221 221 226 221 220 222 222 222 224 222 219 224 224 222 221 226 223 222 223 222 223 222 224 222 219 219 221 221 224 222 220 223 220 221 222 218 221 218 218 218 218 214 215 214 211 208 208 204 208 210 222 237 249 255 255 255 255 255 255 255 255 255 255 255 255 255 255 255 255 255 255 255
255 255 255 255 255 255 255 255 255 255 255 255 255 255 255 255 251 237 224 216 203 204 207 215 216 213 216 218 218 219 220 223 222 222 222 221 224 226 221 224 222 221 223 224 224 222 225 223 222 224 219 222 222 224 222 222 221 223 224 221 220 222 222 224 221 219 220 223 222 222 218 222 218 219 219 218 214 220 216 217 215 214 209 208 209 200 205 212 222 238 250 255 255 255 255 255 255 255 255 255 255 255 255 255 255 255 255 255 255
255 255 255 255 255 255 255 255 255 255 255 255 255 255 255 253 242 231 215 205 203 203 212 213 213 216 220 221 221 224 219 221 221 221 220 223 223 223 225 223 222 222 224 220 224 222 224 222 222 224 224 223 222 225 225 221 225 224 223 222 223 222 221 222 221 222 222 221 221 220 221 219 223 221 217 220 219 219 217 218 214 212 213 208 209 207 205 204 213 230 237 251 255 255 255 255 255 255 255 255 255 255 255 255 255 255 255 255 255
255 255 255 255 255 255 255 255 255 255 255 255 255 255 255 247 233 223 210 203 200 209 215 216 216 217 216 221 219 224 222 223 223 222 221 227 223 223 226 221 223 223 223 224 222 221 225 224 223 223 219 224 223 224 224 225 220 222 223 225 224 223 225 223 221 222 223 223 221 221 220 223 221 223 220 217 218 216 220 218 215 216 215 215 213 210 206 202 203 211 227 242 251 255 255 255 255 255 255 255 255 255 255 255 255 255 255 255 255
255 255 255 255 255 255 255 255 255 255 255 255 255 255 253 238 225 212 204 198 203 209 213 214 215 219 218 222 220 219 224 220 220 222 223 223 221 224 220 219 223 222 226 223 223 226 224 222 222 223 225 222 224 223 224 223 223 223 221 226 220 220 224 222 223 223 222 219 224 220 221 221 220 222 220 223 218 220 217 221 220 216 215 215 215 209 211 208 200 202 214 229 243 254 255 255 255 255 255 255 255 255 255 255 255 255 255 255 255
255 255 255 255 255 255 255 255 255 255 255 255 255 255 245 231 217 206 202 204 209 211 216 219 217 222 217 220 220 221 226 222 222 223 223 221 221 223 225 222 223 221 224 223 224 222 225 224 223 222 222 224 224 223 224 225 224 222 222 224 224 224 224 221 222 221 224 222 222 224 222 223 224 225 222 221 220 219 221 219 219 218 219 216 214 215 211 208 203 197 206 217 233 248 254 255 255 255 255 255 255 255 255 255 255 255 255 255 255
255 255 255 255 255 255 255 255 255 255 255 255 255 251 237 223 211 202 200 211 209 210 217 217 218 218 221 223 221 219 223 221 224 222 222 225 224 220 224 220 224 223 219 225 223 223 222 223 222 225 225 224 224 225 225 226 221 222 225 224 222 222 222 222 225 222 224 224 226 223 221 226 223 219 222 221 220 220 222 221 219 217 219 217 214 214 213 211 205 209 200 208 220 233 250 255 255 255 255 255 255 255 255 255 255 255 255 255 255
255 255 255 255 255 255 255 255 255 255 255 255 254 242 229 215 204 201 206 211 212 214 216 217 220 219 224 219 221 223 221 221 226 221 223 225 224 224 222 225 225 226 223 226 223 227 225 222 222 227 227 226 224 222 224 223 223 224 226 222 224 222 223 225 224 223 223 223 222 220 222 224 222 223 222 223 224 219 217 218 222 218 216 216 220 216 217 213 208 208 205 201 209 221 240 252 255 255 255 255 255 255 255 255 255 255 255 255 255
255 255 255 255 255 255 255 255 255 255 255 255 248 234 216 206 201 201 207 214 216 219 218 219 222 216 224 220 223 224 223 221 222 222 222 224 224 222 223 223 224 224 224 223 224 225 223 223 223 222 223 222 226 224 222 225 220 222 220 223 224 221 224 220 222 224 223 221 221 222 221 221 221 223 221 221 222 221 220 222 223 222 220 217 218 218 217 216 212 208 204 199 204 214 228 245 254 255 255 255 255 255 255 255 255 255 255 255 255
255 255 255 255 255 255 255 255 255 255 255 252 239 221 203 199 198 209 212 212 215 215 216 219 223 221 220 222 219 225 223 223 223 222 220 225 222 221 224 223 221 222 221 222 224 222 222 226 229 222 225 223 224 219 222 224 223 222 224 222 222 223 223 220 223 222 223 221 222 223 224 223 220 222 220 222 219 224 224 219 222 222 218 217 221 215 216 212 214 212 211 205 199 204 219 232 250 255 255 255 255 255 255 255 255 255 255 255 255
255 255 255 255 255 255 255 255 255 255 255 244 231 213 198 196 200 211 207 214 215 217 220 218 222 218 222 221 221 224 224 221 223 223 224 226 223 225 222 224 221 223 222 223 225 219 225 223 227 221 224 225 221 223 224 222 222 225 224 223 224 223 223 224 219 223 224 219 225 220 220 224 225 226 222 225 222 219 224 223 221 220 224 220 220 218 216 215 217 208 210 209 201 202 209 222 240 253 255 255 255 255 255 255 255 255 255 255 255
255 255 255 255 255 255 255 255 255 255 254 237 218 205 189 193 201 210 213 214 217 217 220 222 223 223 221 218 221 220 223 224 223 227 223 225 222 224 224 223 221 224 222 227 223 223 225 223 222 223 220 222 222 223 224 223 221 222 220 222 223 223 221 224 222 223 220 222 225 222 224 222 224 220 221 218 223 221 223 220 222 220 220 219 218 220 218 219 216 209 211 210 208 200 200 215 230 246 254 255 255 255 255 255 255 255 255 255 255
255 255 255 255 255 255 255 255 255 255 250 227 212 191 186 194 204 211 210 215 218 222 221 220 219 220 222 219 226 225 226 222 223 220 225 226 224 222 224 224 223 224 224 223 226 224 224 221 221 223 224 222 221 221 224 221 221 224 223 222 224 223 221 221 222 223 223 224 224 223 221 222 223 225 220 224 220 221 222 223 222 218 221 220 217 220 220 217 215 217 214 212 209 205 199 207 224 237 253 255 255 255 255 255 255 255 255 255 255
255 255 255 255 255 255 255 255 255 255 245 221 204 192 186 198 208 212 215 214 220 218 219 221 222 219 222 222 223 225 223 225 222 224 226 223 222 224 224 222 223 226 224 221 222 224 224 220 221 221 222 225 224 224 222 222 224 223 220 226 224 219 225 222 220 218 224 223 220 222 222 224 225 222 223 222 222 223 223 221 222 220 220 217 215 220 222 215 219 218 213 209 210 210 199 204 214 225 247 254 255 255 255 255 255 255 255 255 255
255 255 255 255 255 255 255 255 255 253 237 216 196 184 192 203 211 215 216 218 216 220 223 224 222 220 223 220 223 223 224 223 223 227 221 223 224 222 221 220 222 224 226 224 224 218 220 224 222 223 221 224 224 226 220 224 220 222 221 224 224 223 225 222 222 222 219 222 223 225 222 221 222 220 222 223 220 224 221 223 220 221 219 220 221 218 218 219 216 218 215 214 216 210 205 204 207 217 234 251 255 255 255 255 255 255 255 255 255
255 255 255 255 255 255 255 255 255 250 228 207 192 187 196 206 210 215 213 217 218 220 220 224 223 222 223 225 226 221 223 225 223 224 220 225 221 224 222 223 223 225 224 220 224 224 225 223 224 220 222 224 222 222 224 224 221 222 222 223 221 219 224 226 222 221 222 219 223 223 223 224 224 223 223 224 222 221 222 221 221 218 222 222 219 218 220 221 218 218 217 217 211 210 208 200 204 214 230 244 255 255 255 255 255 255 255 255 255
255 255 255 255 255 255 255 255 255 245 219 205 186 182 194 205 212 216 215 221 219 221 220 222 220 222 220 220 225 226 223 225 223 222 222 224 224 223 222 220 223 223 222 221 221 223 221 220 222 224 220 218 221 224 224 223 218 222 221 220 223 220 223 221 222 220 224 221 222 223 221 221 223 220 226 222 220 224 220 221 220 221 223 221 219 221 221 218 221 215 216 217 215 214 211 209 206 205 222 236 252 255 255 255 255 255 255 255 255
255 255 255 255 255 255 255 255 255 239 216 198 182 181 200 206 210 218 218 218 216 219 222 220 221 222 219 226 224 221 222 225 224 222 219 222 222 224 224 222 223 221 222 225 223 224 222 222 224 222 223 224 224 224 220 224 222 224 222 220 222 223 223 220 221 222 222 221 222 222 219 222 223 224 222 220 223 221 223 224 220 222 221 222 220 221 221 221 217 218 216 215 217 214 213 204 204 202 214 229 245 255 255 255 255 255 255 255 255
255 255 255 255 255 255 255 255 254 231 208 191 182 187 203 206 212 219 216 218 222 221 221 222 218 223 223 224 223 222 223 224 224 224 224 223 224 223 226 220 223 225 223 220 224 224 222 223 225 222 223 222 225 220 224 220 221 223 224 222 219 222 220 222 221 221 221 224 222 221 223 224 222 226 222 224 223 222 222 223 223 220 220 224 220 221 222 221 223 220 218 217 217 213 214 212 205 202 207 217 238 252 255 255 255 255 255 255 255
255 255 255 255 255 255 255 255 252 224 202 182 176 190 203 215 213 215 218 220 219 222 222 219 225 222 224 221 222 224 225 227 224 223 227 221 223 224 223 224 221 222 224 220 222 223 220 223 221 223 225 223 220 220 223 222 225 223 221 217 222 219 222 222 222 219 222 222 221 222 223 220 221 225 222 223 221 224 223 220 222 223 223 218 225 219 221 219 218 222 218 216 214 216 213 210 208 204 205 216 234 248 255 255 255 255 255 255 255
255 255 255 255 255 255 255 255 248 219 196 182 172 195 209 213 215 216 217 218 219 219 219 221 224 220 222 224 224 221 223 221 223 220 223 222 223 222 223 223 223 223 224 223 223 220 219 224 220 221 224 222 223 221 221 220 220 221 222 223 223 222 219 221 219 221 223 220 220 222 224 220 218 223 223 224 222 221 221 223 220 217 224 223 222 220 220 221 223 219 219 216 221 219 217 211 208 205 201 210 222 241 253 255 255 255 255 255 255
255 255 255 255 255 255 255 255 244 218 191 180 181 198 206 214 216 217 217 217 222 218 219 221 222 223 221 218 224 220 223 222 223 223 222 219 222 223 221 222 225 224 221 222 222 219 224 225 221 221 221 221 221 221 223 222 219 222 221 223 223 221 218 222 223 222 223 223 223 221 224 222 222 220 223 223 222 223 221 222 224 223 222 222 222 222 221 218 218 220 219 218 216 217 217 215 211 203 204 208 216 239 251 255 255 255 255 255 255
255 255 255 255 255 255 255 255 243 212 191 177 178 202 209 212 215 216 220 220 221 218 224 221 220 222 220 225 221 222 225 220 224 223 220 221 224 223 224 222 226 223 222 222 221 219 223 222 222 222 219 222 222 221 223 222 223 223 220 221 219 223 221 224 222 223 223 221 219 220 221 220 220 222 223 224 223 225 224 225 222 224 223 221 221 223 222 223 220 225 221 219 217 218 215 215 215 209 207 201 216 229 247 255 255 255 255 255 255
255 255 255 255 255 255 255 255 237 206 186 172 184 202 206 211 217 214 217 219 218 221 222 222 221 220 225 224 226 220 222 227 222 225 227 221 222 219 223 221 224 225 223 222 221 223 227 218 219 221 221 220 221 220 223 221 219 220 221 222 222 222 221 222 222 221 221 219 220 224 222 221 219 221 220 223 224 222 222 221 225 222 226 223 221 220 221 220 223 221 218 219 219 219 213 217 215 208 208 200 207 225 242 254 255 255 255 255 255
255 255 255 255 255 255 255 255 234 203 185 177 180 203 207 215 218 215 220 220 217 223 222 225 223 223 220 224 225 225 222 223 221 225 223 222 220 222 224 222 223 224 221 222 220 223 223 222 222 218 220 220 221 221 221 223 221 224 219 222 220 221 223 218 223 221 224 220 220 222 221 220 222 223 219 221 223 222 222 225 223 220 221 223 221 221 221 223 225 218 219 218 223 217 218 214 215 211 207 199 208 219 237 252 255 255 255 255 255
255 255 255 255 255 255 255 254 230 203 186 173 181 203 208 213 215 215 217 219 220 221 220 223 224 219 221 221 224 223 222 220 221 223 221 225 223 220 221 224 223 221 224 222 220 222 220 218 220 221 221 223 222 223 223 221 222 222 221 226 220 220 221 218 222 219 221 219 221 220 222 221 221 221 223 220 224 221 219 226 223 222 220 220 225 222 221 223 222 218 220 220 218 215 219 217 213 211 205 203 202 215 231 249 255 255 255 255 255
255 255 255 255 255 255 255 254 232 202 178 169 185 202 207 212 216 217 217 219 221 222 221 222 222 219 222 219 225 223 222 222 223 225 224 223 218 224 222 219 223 221 220 223 223 222 224 225 222 222 221 220 220 222 220 220 223 219 220 218 221 222 223 221 222 223 219 220 224 221 221 220 222 226 220 223 222 221 221 224 228 223 220 220 220 220 223 218 220 221 217 218 221 219 215 215 216 213 212 206 203 209 226 242 254 255 255 255 255
255 255 255 255 255 255 255 254 228 198 176 166 187 200 208 213 215 217 217 221 224 223 218 222 218 223 223 222 221 222 222 223 222 226 225 222 223 222 224 224 221 217 218 221 217 221 222 224 222 219 222 222 221 218 223 221 216 220 219 223 219 218 220 220 223 221 220 220 220 221 218 223 222 222 218 222 221 221 222 223 225 223 224 223 221 224 222 223 219 224 223 221 220 220 216 216 216 211 212 202 203 206 222 240 253 255 255 255 255
255 255 255 255 255 255 255 254 224 194 172 169 181 201 209 214 218 216 217 220 222 221 222 221 220 224 222 224 222 225 223 223 225 221 219 222 223 221 222 221 220 222 224 221 218 222 220 222 222 220 222 224 221 221 219 222 217 220 218 224 218 223 220 221 224 223 220 222 218 223 222 219 224 223 222 222 222 223 221 222 224 222 221 223 221 221 221 223 224 222 220 220 218 221 219 218 213 216 213 209 200 210 218 238 252 255 255 255 255
255 255 255 255 255 255 255 254 227 194 174 165 183 204 211 217 215 214 218 216 217 219 220 219 223 221 222 222 223 223 223 223 223 222 222 221 222 223 220 224 224 221 222 219 222 221 220 220 221 222 221 222 220 219 221 222 222 218 222 218 218 220 217 219 224 223 223 220 224 223 222 221 222 221 219 218 223 221 223 225 224 219 222 222 222 221 223 219 223 218 220 221 217 218 218 217 213 215 213 210 206 203 217 232 249 255 255 255 255
255 255 255 255 255 255 255 254 225 195 178 168 181 206 208 210 218 218 216 216 221 220 221 223 222 221 224 221 223 222 221 221 221 221 222 224 221 222 220 224 221 222 220 221 222 221 220 219 220 221 222 220 220 225 221 219 223 221 219 219 222 222 221 221 223 219 220 223 222 222 221 221 220 221 222 219 219 221 224 222 223 220 224 224 224 222 224 222 225 221 223 220 222 220 219 219 218 216 213 208 208 202 216 230 247 255 255 255 255
255 255 255 255 255 255 255 254 230 194 173 161 180 205 206 213 216 216 217 220 215 222 220 221 223 225 220 223 223 223 221 221 220 224 224 220 218 223 220 221 222 220 221 225 222 217 221 220 221 222 221 222 220 220 220 223 219 222 218 224 222 221 223 222 222 218 220 224 220 219 221 222 221 224 223 223 219 223 223 224 222 222 222 221 224 223 222 222 220 221 225 221 221 221 219 220 218 218 212 211 207 204 211 227 245 255 255 255 255
255 255 255 255 255 255 255 255 227 197 171 159 177 202 207 214 214 217 218 220 222 224 225 220 222 219 222 220 220 223 223 224 223 223 223 224 221 222 222 220 220 223 221 220 218 222 221 223 225 219 220 219 219 219 221 220 221 221 216 219 221 220 223 219 220 221 220 222 220 222 224 223 223 222 222 222 223 220 224 224 222 222 220 224 221 225 221 225 222 221 224 222 221 219 220 220 217 218 213 214 210 203 209 223 243 254 255 255 255
255 255 255 255 255 255 255 255 230 200 181 162 176 204 205 213 215 218 218 219 219 220 221 221 222 220 223 222 220 219 220 219 223 224 223 222 224 219 219 222 222 220 220 222 220 221 218 221 221 221 221 222 217 221 217 221 220 218 220 222 221 222 218 220 221 220 221 221 221 219 220 221 221 223 222 217 222 226 221 223 225 222 223 219 221 223 222 222 222 221 223 224 221 221 218 219 219 216 219 213 210 204 209 225 239 253 255 255 255
255 255 255 255 255 255 255 255 234 201 180 161 171 199 207 211 216 213 217 219 219 218 223 223 219 222 223 225 222 222 221 223 222 223 223 218 221 222 222 221 219 223 220 218 222 217 219 221 221 223 226 217 222 220 219 220 220 218 220 221 220 221 221 221 219 221 221 220 223 222 221 222 223 222 223 221 221 221 222 221 218 220 221 223 220 223 221 225 221 225 220 220 221 221 222 221 219 219 215 214 208 205 210 219 239 253 255 255 255
255 255 255 255 255 255 255 255 241 203 179 165 171 202 201 212 214 217 215 218 220 220 218 219 221 221 223 223 224 225 223 223 218 224 223 220 220 221 219 222 222 221 222 220 219 221 219 223 220 220 221 219 222 217 216 220 220 218 220 222 221 220 222 220 221 223 223 223 224 222 220 220 220 223 220 222 222 222 220 221 222 223 221 224 222 221 223 223 222 220 225 221 222 223 220 221 217 217 214 210 208 203 207 221 238 253 255 255 255
255 255 255 255 255 255 255 255 246 211 184 171 167 197 204 210 216 215 217 216 217 219 222 222 219 220 224 223 220 219 223 221 222 221 222 222 221 218 220 222 223 224 221 218 222 221 220 218 220 221 220 220 225 222 219 220 220 221 223 221 219 221 220 223 219 224 219 220 222 224 220 221 217 220 221 223 221 222 225 223 224 221 223 221 223 222 222 221 222 220 220 220 222 220 219 222 219 217 217 216 210 203 207 221 236 251 255 255 255
255 255 255 255 255 255 255 255 249 214 185 174 168 190 205 208 211 213 214 218 220 219 221 222 224 223 219 220 223 224 223 217 224 225 224 222 222 221 223 222 224 221 223 222 222 217 218 225 222 219 218 219 221 219 221 222 217 223 222 222 220 217 219 218 218 224 223 222 224 222 223 223 222 221 223 222 220 224 225 222 221 224 221 223 224 223 221 223 224 224 222 221 217 218 223 222 216 217 218 216 212 207 206 217 235 251 255 255 255
255 255 255 255 255 255 255 255 252 220 195 169 167 186 205 211 215 216 216 219 217 220 223 220 225 218 222 220 220 224 224 220 222 223 220 225 217 223 224 220 220 223 221 222 222 222 220 220 223 220 220 219 220 224 220 221 221 219 220 223 222 219 221 221 222 219 220 222 220 222 222 221 224 220 220 224 222 220 222 224 223 223 222 222 225 221 221 223 221 221 221 222 220 221 222 221 220 216 214 213 208 206 208 221 233 251 255 255 255
255 255 255 255 255 255 255 255 254 229 194 176 163 178 200 210 213 214 217 215 218 213 222 222 220 218 223 220 224 221 222 222 222 222 224 221 219 223 223 225 221 221 222 221 222 223 222 224 224 219 216 223 218 221 221 216 220 223 219 222 220 219 220 221 220 219 222 223 220 222 223 220 223 223 220 225 223 223 224 223 223 224 221 220 224 221 224 227 220 226 223 223 222 216 219 216 219 216 214 216 209 205 203 218 233 250 255 255 255
255 255 255 255 255 255 255 255 255 234 199 178 166 173 200 209 212 214 215 220 217 220 219 220 220 223 220 220 221 224 222 219 221 225 223 222 221 223 220 222 223 221 220 219 220 220 218 223 219 218 221 220 221 223 222 220 223 220 219 220 223 223 221 222 222 218 221 222 221 219 220 222 220 222 221 221 222 221 220 220 224 223 225 221 220 221 220 225 223 222 220 221 220 220 220 220 217 220 216 211 213 204 209 219 236 250 255 255 255
255 255 255 255 255 255 255 255 255 241 204 182 164 165 191 206 209 214 216 217 220 217 220 217 220 219 219 223 220 220 221 223 222 223 223 222 220 221 222 224 224 225 221 222 221 221 218 218 220 221 223 223 220 216 222 223 221 222 225 223 221 222 220 220 221 219 221 224 225 225 222 224 224 223 222 224 222 223 223 222 223 220 221 223 224 222 223 224 220 224 221 222 223 219 222 219 220 219 217 213 211 205 208 222 235 251 255 255 255
255 255 255 255 255 255 255 255 255 248 214 185 174 164 185 203 210 215 217 219 217 217 221 221 221 221 222 221 222 221 223 219 223 221 223 222 223 222 223 222 219 220 221 223 219 221 222 220 221 221 221 220 222 218 220 221 221 226 220 226 220 221 225 222 221 220 218 223 223 223 219 221 222 224 220 222 221 223 220 224 220 225 224 225 225 221 222 221 223 218 223 221 222 223 218 217 220 219 212 212 210 206 209 223 238 251 255 255 255
255 255 255 255 255 255 255 255 255 254 222 194 169 159 179 198 206 212 215 220 218 219 220 222 220 221 220 223 222 220 221 223 221 224 224 220 218 221 221 220 220 219 220 222 221 219 221 222 221 223 222 219 220 224 219 221 225 220 223 221 219 223 221 220 222 223 220 222 220 222 224 221 222 223 221 223 222 219 222 221 224 222 226 222 224 225 224 223 223 224 221 222 221 223 218 222 221 218 215 214 210 209 212 225 240 252 255 255 255
255 255 255 255 255 255 255 255 255 255 233 200 174 160 170 194 208 215 214 216 216 218 219 220 221 220 222 220 222 223 224 221 222 222 221 224 224 223 220 223 225 221 221 220 220 220 221 222 223 219 220 219 223 220 222 219 220 224 223 219 222 221 221 221 219 220 221 222 222 220 223 221 223 222 220 223 221 224 222 223 225 221 224 223 223 225 223 221 219 221 221 223 224 222 224 223 216 215 215 212 211 206 209 221 240 253 255 255 255
255 255 255 255 255 255 255 255 255 255 245 207 182 169 167 186 207 208 212 217 218 218 219 219 222 221 223 222 221 220 220 223 220 225 221 223 223 224 220 222 223 224 222 221 221 222 221 220 220 222 220 221 221 224 222 222 222 219 221 218 220 222 221 219 220 221 222 220 221 222 224 222 222 225 222 225 225 221 221 225 222 222 221 225 223 223 222 223 221 221 223 221 220 224 216 218 222 221 219 214 213 207 212 227 241 254 255 255 255
255 255 255 255 255 255 255 255 255 255 251 218 192 166 157 175 203 209 212 210 218 216 219 219 219 222 217 222 222 219 222 219 219 223 223 221 222 223 222 221 222 221 222 224 227 222 224 221 220 219 221 222 223 219 222 220 221 223 224 220 220 222 223 221 221 222 223 223 224 222 224 223 223 220 221 223 222 221 221 219 222 223 225 221 221 224 222 224 224 222 223 220 221 220 221 220 219 217 217 211 211 203 214 228 244 254 255 255 255
255 255 255 255 255 255 255 255 255 255 255 234 193 176 163 162 191 208 213 212 214 215 217 220 219 218 220 218 222 223 219 221 221 220 223 222 223 221 222 219 221 218 221 221 224 223 221 224 219 225 219 221 220 222 224 225 219 221 222 219 220 221 218 223 221 220 221 223 220 223 225 220 221 219 224 221 222 222 224 226 223 219 224 222 222 223 223 222 221 224 225 223 219 220 221 221 217 216 214 210 209 206 218 230 246 255 255 255 255
255 255 255 255 255 255 255 255 255 255 255 246 209 182 157 162 186 205 209 214 214 216 218 219 216 219 222 218 218 221 221 220 222 224 221 223 223 221 222 222 224 225 222 223 218 221 221 222 226 223 223 222 222 222 222 220 222 220 219 222 221 221 223 222 222 222 221 222 223 224 223 222 222 222 222 223 221 220 222 221 220 223 223 226 226 222 223 222 223 223 223 218 222 221 224 219 217 216 215 211 208 211 219 234 249 255 255 255 255
255 255 255 255 255 255 255 255 255 255 255 252 223 189 168 155 171 200 208 212 215 216 216 217 219 218 222 222 221 221 218 219 223 221 218 223 225 221 225 225 222 223 226 223 222 219 219 222 222 218 222 223 222 221 220 223 221 221 223 222 219 223 222 222 223 223 220 223 223 224 223 223 222 223 223 223 224 223 224 224 224 223 220 221 222 225 222 223 224 221 223 217 219 222 218 219 218 217 213 214 210 210 224 236 249 255 255 255 255
255 255 255 255 255 255 255 255 255 255 255 255 238 199 178 157 158 187 208 212 213 215 216 215 218 217 218 223 222 222 221 220 221 224 223 222 219 220 221 224 223 222 219 223 221 224 221 220 221 221 223 222 222 224 222 222 222 227 222 224 221 223 225 224 221 223 221 221 223 221 224 226 223 223 223 223 222 225 225 221 222 222 222 224 227 223 221 222 225 226 224 223 221 220 219 220 223 217 215 209 204 213 225 241 252 255 255 255 255
255 255 255 255 255 255 255 255 255 255 255 255 251 214 186 159 152 169 201 204 210 216 214 216 220 218 220 220 219 219 221 220 222 221 222 221 221 221 222 221 222 221 220 222 221 220 219 220 224 222 219 222 221 220 221 222 223 222 221 224 221 223 220 222 223 220 221 225 221 222 224 223 225 224 225 226 222 222 223 222 220 223 222 224 223 221 224 225 222 219 221 221 221 217 220 220 216 218 214 207 206 214 227 241 254 255 255 255 255
255 255 255 255 255 255 255 255 255 255 255 255 255 234 192 171 159 160 187 202 210 212 219 217 219 217 219 220 220 219 221 220 219 220 222 221 222 222 223 221 221 221 220 220 221 224 222 223 221 221 223 224 222 222 224 223 222 222 221 220 222 222 221 220 221 222 224 221 224 222 225 220 223 224 224 226 223 221 223 223 225 223 223 222 223 223 222 224 220 221 221 223 223 222 224 217 218 215 214 210 210 217 233 246 255 255 255 255 255
255 255 255 255 255 255 255 255 255 255 255 255 255 248 214 180 166 152 171 202 206 211 213 216 215 215 220 218 220 220 219 219 223 220 219 223 224 225 220 223 224 222 220 222 222 219 221 220 219 221 223 224 218 223 225 222 220 223 221 221 223 220 224 221 223 223 222 223 222 223 223 222 223 222 224 226 224 223 224 224 223 222 223 224 219 225 219 222 223 222 219 225 223 220 216 217 216 214 213 208 209 222 236 250 255 255 255 255 255
255 255 255 255 255 255 255 255 255 255 255 255 255 255 230 194 169 155 156 180 207 209 214 215 217 216 217 219 218 219 223 223 219 224 221 224 221 220 220 223 226 221 224 221 225 221 221 223 221 223 221 223 225 221 224 220 222 223 220 222 224 225 220 222 223 224 220 222 222 227 225 222 225 224 224 222 226 225 221 220 223 225 223 224 223 222 220 224 224 222 219 220 221 220 219 222 217 210 207 208 214 229 242 252 255 255 255 255 255
255 255 255 255 255 255 255 255 255 255 255 255 255 255 249 210 182 159 157 166 196 206 209 214 219 215 216 218 216 218 224 219 217 222 221 220 220 221 219 219 220 222 222 221 221 221 220 223 222 222 222 223 219 222 222 222 222 222 223 223 222 224 223 221 222 223 225 222 222 221 224 221 224 224 223 226 226 226 225 223 223 226 223 223 222 223 223 224 222 225 224 219 221 218 217 214 214 210 212 210 221 231 247 254 255 255 255 255 255
255 255 255 255 255 255 255 255 255 255 255 255 255 255 255 234 197 175 160 155 177 199 206 206 211 214 214 217 220 220 219 220 221 219 217 222 218 221 221 221 223 221 222 224 222 219 222 220 226 222 224 222 223 222 221 224 220 222 224 225 222 223 223 222 223 222 223 221 226 227 224 221 222 223 223 222 222 223 224 224 226 224 220 224 222 222 226 224 224 219 220 220 222 219 216 217 214 209 209 211 223 236 250 255 255 255 255 255 255
255 255 255 255 255 255 255 255 255 255 255 255 255 255 255 251 217 184 163 149 156 188 204 209 214 215 212 215 220 218 217 219 219 221 218 222 225 223 223 222 222 222 222 220 221 222 224 223 224 221 224 224 222 223 222 218 224 223 223 224 225 225 224 222 222 223 222 220 225 223 223 225 222 222 223 223 222 219 224 224 223 225 225 223 221 220 222 223 222 220 226 220 217 220 214 215 215 211 208 216 229 242 252 255 255 255 255 255 255
255 255 255 255 255 255 255 255 255 255 255 255 255 255 255 255 239 201 173 161 151 168 199 206 211 214 216 214 216 220 217 220 221 220 222 221 220 218 223 223 221 222 220 224 221 219 225 225 226 222 222 221 222 224 223 224 223 223 226 222 224 222 223 223 223 222 221 222 225 220 222 225 224 224 222 220 221 224 222 224 224 223 225 223 223 220 221 221 221 222 219 220 220 218 215 213 208 208 210 220 234 247 255 255 255 255 255 255 255
255 255 255 255 255 255 255 255 255 255 255 255 255 255 255 255 254 226 195 165 158 158 177 201 207 211 212 214 216 219 218 220 216 219 221 221 219 219 220 219 219 220 221 224 221 220 223 222 224 224 222 220 224 224 220 222 222 219 219 221 222 222 225 222 224 222 224 222 225 225 222 223 220 225 223 224 222 221 227 224 225 222 218 223 221 221 221 224 221 222 218 220 220 217 214 214 211 205 216 225 237 252 255 255 255 255 255 255 255
255 255 255 255 255 255 255 255 255 255 255 255 255 255 255 255 255 248 213 185 165 160 156 179 202 210 210 215 210 216 217 221 219 219 221 219 219 222 222 220 224 219 222 221 222 222 222 222 221 219 223 222 222 223 223 223 225 220 223 222 223 222 224 225 223 222 221 222 223 222 224 223 221 223 224 225 224 225 226 222 226 222 225 221 220 222 220 221 220 221 220 219 221 215 214 213 211 212 222 235 248 254 255 255 255 255 255 255 255
255 255 255 255 255 255 255 255 255 255 255 255 255 255 255 255 255 255 237 203 183 156 154 161 191 205 208 212 213 217 216 219 217 218 217 219 220 222 219 221 221 220 222 222 222 221 221 222 226 223 222 223 221 219 223 221 225 221 222 223 222 219 225 225 222 225 225 223 223 223 220 222 227 226 222 224 225 224 223 223 222 223 224 224 224 223 220 220 221 219 219 217 216 213 212 209 208 217 226 238 251 255 255 255 255 255 255 255 255
255 255 255 255 255 255 255 255 255 255 255 255 255 255 255 255 255 255 254 228 190 172 161 154 169 198 204 212 212 217 214 216 220 215 222 218 218 220 219 220 222 221 218 222 220 223 221 225 223 223 225 224 221 222 222 223 223 221 222 222 221 223 222 225 222 222 224 224 226 224 224 225 222 223 222 224 221 220 223 224 224 224 224 223 226 221 223 220 219 218 220 218 217 213 208 209 213 220 233 246 254 255 255 255 255 255 255 255 255
255 255 255 255 255 255 255 255 255 255 255 255 255 255 255 255 255 255 255 251 220 190 169 157 160 174 198 211 212 213 210 215 217 216 220 216 219 219 223 222 221 218 221 221 221 222 218 224 225 223 223 219 222 217 225 224 223 222 226 221 225 220 225 222 225 221 222 226 225 224 222 227 221 221 219 224 223 220 225 223 222 223 223 220 219 220 220 220 218 221 217 214 216 217 210 212 219 228 240 252 255 255 255 255 255 255 255 255 255
255 255 255 255 255 255 255 255 255 255 255 255 255 255 255 255 255 255 255 255 245 211 191 166 157 158 178 200 209 211 215 215 216 218 215 220 219 222 220 223 219 221 222 221 223 221 223 224 221 224 224 223 221 225 224 222 223 223 226 222 223 223 222 224 225 224 222 223 223 224 225 224 223 222 223 222 222 222 223 221 223 223 221 218 222 223 220 220 216 216 215 213 214 207 210 211 223 236 247 254 255 255 255 255 255 255 255 255 255
255 255 255 255 255 255 255 255 255 255 255 255 255 255 255 255 255 255 255 255 255 241 206 185 166 159 157 177 199 205 212 210 215 215 217 218 217 216 220 223 223 222 221 221 222 221 223 221 223 222 224 221 221 222 222 221 221 222 227 221 225 222 225 222 222 223 223 222 221 219 224 225 222 220 227 217 220 219 222 222 221 223 220 221 221 222 221 221 220 217 218 213 213 205 208 223 232 243 253 255 255 255 255 255 255 255 255 255 255
255 255 255 255 255 255 255 255 255 255 255 255 255 255 255 255 255 255 255 255 255 254 235 203 182 170 154 163 179 199 204 210 213 214 216 215 212 217 218 219 217 222 221 222 219 222 220 220 221 222 220 222 221 222 221 223 224 222 221 218 223 224 224 222 224 225 224 221 221 221 224 223 223 226 222 222 222 221 224 220 219 222 221 219 222 219 220 219 215 217 215 211 208 210 217 228 240 250 255 255 255 255 255 255 255 255 255 255 255
255 255 255 255 255 255 255 255 255 255 255 255 255 255 255 255 255 255 255 255 255 255 254 233 204 180 170 162 163 181 203 203 211 215 209 215 215 217 216 218 218 217 221 219 219 219 220 223 224 222 218 222 220 221 218 225 220 223 222 223 224 226 226 221 223 224 224 224 222 223 226 221 225 223 221 223 222 223 221 223 223 220 223 221 217 220 218 219 214 214 210 207 209 216 226 238 249 254 255 255 255 255 255 255 255 255 255 255 255
255 255 255 255 255 255 255 255 255 255 255 255 255 255 255 255 255 255 255 255 255 255 255 253 232 202 182 169 164 158 176 196 205 207 208 214 214 214 216 215 217 220 219 219 222 220 218 220 221 221 221 220 221 220 222 224 223 222 223 223 221 222 223 222 223 224 218 221 225 221 222 225 223 218 220 221 223 221 223 224 220 223 220 220 222 219 218 211 215 214 210 205 215 224 232 245 254 255 255 255 255 255 255 255 255 255 255 255 255
255 255 255 255 255 255 255 255 255 255 255 255 255 255 255 255 255 255 255 255 255 255 255 255 253 231 203 183 167 167 165 176 199 203 207 208 210 215 213 216 214 217 218 219 222 218 219 220 218 220 220 220 224 222 220 220 222 220 222 221 224 224 223 223 222 222 222 221 222 225 221 221 223 221 222 224 221 223 224 221 216 220 217 219 218 217 214 214 214 207 208 214 220 232 242 252 255 255 255 255 255 255 255 255 255 255 255 255 255
255 255 255 255 255 255 255 255 255 255 255 255 255 255 255 255 255 255 255 255 255 255 255 255 255 254 235 206 187 174 168 163 169 189 204 207 211 211 209 210 215 217 215 217 218 222 219 219 217 221 218 221 224 219 219 220 222 223 218 220 222 223 222 223 219 224 221 224 220 220 219 221 221 225 221 219 221 217 221 220 220 220 217 221 215 216 213 212 209 207 211 219 230 243 250 255 255 255 255 255 255 255 255 255 255 255 255 255 255
255 255 255 255 255 255 255 255 255 255 255 255 255 255 255 255 255 255 255 255 255 255 255 255 255 255 254 237 213 193 180 173 160 169 183 196 203 212 210 210 214 218 213 217 219 218 220 216 220 220 219 223 225 220 220 219 218 221 219 220 221 224 224 222 220 221 221 219 222 224 222 222 218 224 220 221 219 217 219 215 216 220 219 215 214 216 210 209 208 212 220 229 240 249 255 255 255 255 255 255 255 255 255 255 255 255 255 255 255
255 255 255 255 255 255 255 255 255 255 255 255 255 255 255 255 255 255 255 255 255 255 255 255 255 255 255 254 240 219 198 180 173 167 164 173 193 202 208 209 212 211 213 219 218 214 220 217 218 215 215 220 221 221 220 221 220 220 221 222 223 223 222 222 220 219 220 220 222 221 219 219 219 223 220 219 222 218 218 217 221 216 214 215 212 214 208 206 210 219 225 241 251 255 255 255 255 255 255 255 255 255 255 255 255 255 255 255 255
255 255 255 255 255 255 255 255 255 255 255 255 255 255 255 255 255 255 255 255 255 255 255 255 255 255 255 255 255 244 222 201 184 171 163 165 171 188 200 207 209 210 210 211 209 217 212 218 217 219 218 215 216 217 219 221 219 220 220 218 219 220 221 217 219 220 221 219 221 218 224 217 219 219 221 221 218 216 217 214 216 218 211 215 207 203 210 212 219 229 240 249 255 255 255 255 255 255 255 255 255 255 255 255 255 255 255 255 255
255 255 255 255 255 255 255 255 255 255 255 255 255 255 255 255 255 255 255 255 255 255 255 255 255 255 255 255 255 255 249 229 206 187 177 168 166 166 172 191 202 206 210 208 211 213 215 214 213 216 216 216 216 221 223 218 221 218 219 222 220 220 223 221 223 220 220 222 217 220 217 221 219 218 217 220 218 215 219 217 215 213 211 208 209 209 214 220 233 240 249 255 255 255 255 255 255 255 255 255 255 255 255 255 255 255 255 255 255
255 255 255 255 255 255 255 255 255 255 255 255 255 255 255 255 255 255 255 255 255 255 255 255 255 255 255 255 255 255 255 254 238 214 197 188 178 170 167 171 183 195 203 201 209 210 209 212 214 215 211 215 216 216 216 219 223 216 218 215 217 220 215 218 218 220 220 217 221 217 218 215 218 218 214 217 212 211 213 211 209 210 207 204 208 212 224 232 241 252 255 255 255 255 255 255 255 255 255 255 255 255 255 255 255 255 255 255 255
255 255 255 255 255 255 255 255 255 255 255 255 255 255 255 255 255 255 255 255 255 255 255 255 255 255 255 255 255 255 255 255 255 247 226 210 195 185 178 173 169 173 179 198 200 203 210 206 210 210 213 212 214 214 214 218 218 218 218 215 218 219 214 216 218 219 218 216 217 216 219 214 217 217 212 214 215 210 206 210 208 202 207 211 220 228 233 244 252 255 255 255 255 255 255 255 255 255 255 255 255 255 255 255 255 255 255 255 255
255 255 255 255 255 255 255 255 255 255 255 255 255 255 255 255 255 255 255 255 255 255 255 255 255 255 255 255 255 255 255 255 255 255 253 239 219 206 196 180 175 173 172 171 181 189 198 204 204 206 211 210 211 212 215 212 211 214 214 212 213 214 217 213 217 215 215 215 211 212 215 215 212 213 212 208 210 203 203 204 203 206 215 222 229 239 248 253 255 255 255 255 255 255 255 255 255 255 255 255 255 255 255 255 255 255 255 255 255
255 255 255 255 255 255 255 255 255 255 255 255 255 255 255 255 255 255 255 255 255 255 255 255 255 255 255 255 255 255 255 255 255 255 255 255 248 233 216 203 195 186 179 177 174 173 178 190 198 195 206 206 206 205 207 207 212 212 210 212 213 215 212 212 212 212 212 213 213 211 210 210 210 208 206 203 200 203 205 206 211 219 227 237 244 248 255 255 255 255 255 255 255 255 255 255 255 255 255 255 255 255 255 255 255 255 255 255 255
255 255 255 255 255 255 255 255 255 255 255 255 255 255 255 255 255 255 255 255 255 255 255 255 255 255 255 255 255 255 255 255 255 255 255 255 255 255 249 230 220 208 202 187 177 183 180 177 175 185 188 195 198 200 202 203 207 210 206 209 206 207 210 208 209 209 207 210 207 209 206 203 206 202 202 204 201 208 214 218 224 233 240 247 253 255 255 255 255 255 255 255 255 255 255 255 255 255 255 255 255 255 255 255 255 255 255 255 255
255 255 255 255 255 255 255 255 255 255 255 255 255 255 255 255 255 255 255 255 255 255 255 255 255 255 255 255 255 255 255 255 255 255 255 255 255 255 255 255 247 235 220 209 197 192 189 185 185 179 183 180 184 188 189 192 194 198 196 199 202 201 204 202 201 200 200 201 203 201 196 195 200 203 206 208 215 223 226 232 238 247 252 255 255 255 255 255 255 255 255 255 255 255 255 255 255 255 255 255 255 255 255 255 255 255 255 255 255
255 255 255 255 255 255 255 255 255 255 255 255 255 255 255 255 255 255 255 255 255 255 255 255 255 255 255 255 255 255 255 255 255 255 255 255 255 255 255 255 255 254 250 241 228 218 214 206 198 197 192 189 189 183 186 189 183 191 188 191 196 193 194 200 200 200 197 196 197 201 196 204 209 212 218 219 229 233 239 246 252 254 255 255 255 255 255 255 255 255 255 255 255 255 255 255 255 255 255 255 255 255 255 255 255 255 255 255 255
255 255 255 255 255 255 255 255 255 255 255 255 255 255 255 255 255 255 255 255 255 255 255 255 255 255 255 255 255 255 255 255 255 255 255 255 255 255 255 255 255 255 255 255 253 246 237 230 223 215 210 207 203 199 203 198 194 198 200 198 201 199 201 204 204 204 202 205 206 213 212 220 223 227 233 237 242 247 254 255 255 255 255 255 255 255 255 255 255 255 255 255 255 255 255 255 255 255 255 255 255 255 255 255 255 255 255 255 255
255 255 255 255 255 255 255 255 255 255 255 255 255 255 255 255 255 255 255 255 255 255 255 255 255 255 255 255 255 255 255 255 255 255 255 255 255 255 255 255 255 255 255 255 255 255 255 252 248 242 236 232 225 220 221 215 215 212 215 213 214 218 214 218 222 218 222 224 222 227 228 233 240 244 248 252 254 255 255 255 255 255 255 255 255 255 255 255 255 255 255 255 255 255 255 255 255 255 255 255 255 255 255 255 255 255 255 255 255
255 255 255 255 255 255 255 255 255 255 255 255 255 255 255 255 255 255 255 255 255 255 255 255 255 255 255 255 255 255 255 255 255 255 255 255 255 255 255 255 255 255 255 255 255 255 255 255 255 255 254 251 249 243 243 239 237 234 233 234 233 234 234 234 237 237 241 241 242 244 248 251 253 254 255 255 255 255 255 255 255 255 255 255 255 255 255 255 255 255 255 255 255 255 255 255 255 255 255 255 255 255 255 255 255 255 255 255 255
255 255 255 255 255 255 255 255 255 255 255 255 255 255 255 255 255 255 255 255 255 255 255 255 255 255 255 255 255 255 255 255 255 255 255 255 255 255 255 255 255 255 255 255 255 255 255 255 255 255 255 255 255 255 255 254 253 253 252 252 250 251 251 251 253 253 252 253 254 255 255 255 255 255 255 255 255 255 255 255 255 255 255 255 255 255 255 255 255 255 255 255 255 255 255 255 255 255 255 255 255 255 255 255 255 255 255 255 255
255 255 255 255 255 255 255 255 255 255 255 255 255 255 255 255 255 255 255 255 255 255 255 255 255 255 255 255 255 255 255 255 255 255 255 255 255 255 255 255 255 255 255 255 255 255 255 255 255 255 255 255 255 255 255 255 255 255 255 255 255 255 255 255 255 255 255 255 255 255 255 255 255 255 255 255 255 255 255 255 255 255 255 255 255 255 255 255 255 255 255 255 255 255 255 255 255 255 255 255 255 255 255 255 255 255 255 255 255
255 255 255 255 255 255 255 255 255 255 255 255 255 255 255 255 255 255 255 255 255 255 255 255 255 255 255 255 255 255 255 255 255 255 255 255 255 255 255 255 255 255 255 255 255 255 255 255 255 255 255 255 255 255 255 255 255 255 255 255 255 255 255 255 255 255 255 255 255 255 255 255 255 255 255 255 255 255 255 255 255 255 255 255 255 255 255 255 255 255 255 255 255 255 255 255 255 255 255 255 255 255 255 255 255 255 255 255 255
255 255 255 255 255 255 255 255 255 255 255 255 255 255 255 255 255 255 255 255 255 255 255 255 255 255 255 255 255 255 255 255 255 255 255 255 255 255 255 255 255 255 255 255 255 255 255 255 255 255 255 255 255 255 255 255 255 255 255 255 255 255 255 255 255 255 255 255 255 255 255 255 255 255 255 255 255 255 255 255 255 255 255 255 255 255 255 255 255 255 255 255 255 255 255 255 255 255 255 255 255 255 255 255 255 255 255 255 255
255 255 255 255 255 255 255 255 255 255 255 255 255 255 255 255 255 255 255 255 255 255 255 255 255 255 255 255 255 255 255 255 255 255 255 255 255 255 255 255 255 255 255 255 255 255 255 255 255 255 255 255 255 255 255 255 255 255 255 255 255 255 255 255 255 255 255 255 255 255 255 255 255 255 255 255 255 255 255 255 255 255 255 255 255 255 255 255 255 255 255 255 255 255 255 255 255 255 255 255 255 255 255 255 255 255 255 255 255
