P2
92 92
255
255 255 255 255 255 255 255 255 255 255 255 255 255 255 255 255 255 255 255 255 255 255 255 255 255 255 255 255 255 255 255 255 255 255 255 255 255 255 255 255 255 255 255 255 255 255 255 255 255 255 255 255 255 255 255 255 255 255 255 255 255 255 255 255 255 255 255 255 255 255 255 255 255 255 255 255 255 255 255 255 255 255 255 255 255 255 255 255 255 255 255 255
255 255 255 255 255 255 255 255 255 255 255 255 255 255 255 255 255 255 255 255 255 255 255 255 255 255 255 255 255 255 255 255 255 255 255 255 255 255 255 255 255 255 255 255 255 255 255 255 255 255 255 255 255 255 255 255 255 255 255 255 255 255 255 255 255 255 255 255 255 255 255 255 255 255 255 255 255 255 255 255 255 255 255 255 255 255 255 255 255 255 255 255
255 255 255 255 255 255 255 255 255 255 255 255 255 255 255 255 255 255 255 255 255 255 255 255 255 255 255 255 255 255 255 255 255 255 255 255 255 255 255 255 255 255 255 255 255 255 255 255 255 255 255 255 255 255 255 255 255 255 255 255 255 255 255 255 255 255 255 255 255 255 255 255 255 255 255 255 255 255 255 255 255 255 255 255 255 255 255 255 255 255 255 255
255 255 255 255 255 255 255 255 255 255 255 255 255 255 255 255 255 255 255 255 255 255 255 255 255 255 255 255 255 255 255 255 255 255 255 255 255 255 255 255 255 255 255 255 255 255 255 255 255 255 255 255 255 255 255 255 255 255 255 255 255 255 255 255 255 255 255 255 255 255 255 255 255 255 255 255 255 255 255 255 255 255 255 255 255 255 255 255 255 255 255 255
255 255 255 255 255 255 255 255 255 255 255 255 255 255 255 255 255 255 255 255 255 255 255 255 255 255 255 255 255 255 255 255 255 255 255 255 255 255 255 255 255 255 255 255 255 255 255 255 255 255 255 255 255 255 255 255 255 255 255 255 255 255 255 255 255 255 255 255 255 255 255 255 255 255 255 255 255 255 255 255 255 255 255 255 255 255 255 255 255 255 255 255
255 255 255 255 255 255 255 255 255 255 255 255 255 255 255 255 255 255 255 255 255 255 255 255 255 255 255 255 255 255 255 255 255 255 255 255 255 255 255 255 255 255 255 255 255 255 255 255 255 255 255 255 255 255 255 255 255 255 255 255 255 255 255 255 255 255 255 255 255 255 255 255 255 255 255 255 255 255 255 255 255 255 255 255 255 255 255 255 255 255 255 255
255 255 255 255 255 255 255 255 255 255 255 255 255 255 255 255 255 255 255 255 255 255 255 255 255 255 255 255 255 255 255 255 255 255 255 255 255 255 255 255 255 255 255 255 255 255 255 255 255 255 255 255 255 255 255 255 255 255 255 255 255 255 255 255 255 255 255 255 255 255 255 255 255 255 255 255 255 255 255 255 255 255 255 255 255 255 255 255 255 255 255 255
255 255 255 255 255 255 255 255 255 255 255 255 255 255 255 255 255 255 255 255 255 255 255 255 255 255 255 255 255 255 255 255 255 255 255 255 255 255 255 255 255 255 255 255 255 255 255 255 255 255 255 255 255 255 255 255 255 255 255 255 255 255 255 255 255 255 255 255 255 255 255 255 255 255 255 255 255 255 255 255 255 255 255 255 255 255 255 255 255 255 255 255
255 255 255 255 255 255 255 255 255 255 255 255 255 255 255 255 255 255 255 255 255 255 255 255 255 255 255 255 255 255 255 255 255 255 255 255 255 255 255 255 255 255 255 255 255 255 255 255 255 255 255 255 255 255 255 255 255 255 255 255 255 255 255 255 255 255 255 255 255 255 255 255 255 255 255 255 255 255 255 255 255 255 255 255 255 255 255 255 255 255 255 255
255 255 255 255 255 255 255 255 255 255 255 255 255 255 255 255 255 255 255 255 255 255 255 255 255 255 255 255 255 255 255 255 254 254 254 254 255 255 255 255 255 255 255 255 255 255 255 255 255 255 255 255 255 255 255 255 255 255 255 255 255 255 255 255 255 255 255 255 255 255 255 255 255 255 255 255 255 255 255 255 255 255 255 255 255 255 255 255 255 255 255 255
255 255 255 255 255 255 255 255 255 255 255 255 255 255 255 255 255 255 255 255 255 255 255 255 255 255 255 253 249 246 242 239 238 236 234 237 237 240 242 246 249 251 254 255 255 255 255 255 255 255 255 255 255 255 255 255 255 255 255 255 255 255 255 255 255 255 255 255 255 255 255 255 255 255 255 255 255 255 255 255 255 255 255 255 255 255 255 255 255 255 255 255
255 255 255 255 255 255 255 255 255 255 255 255 255 255 255 255 255 255 255 255 255 255 255 255 254 249 242 233 224 222 216 216 210 210 212 214 212 214 219 221 224 230 235 243 247 252 255 255 255 255 255 255 255 255 255 255 255 255 255 255 255 255 255 255 255 255 255 255 255 255 255 255 255 255 255 255 255 255 255 255 255 255 255 255 255 255 255 255 255 255 255 255
255 255 255 255 255 255 255 255 255 255 255 255 255 255 255 255 255 255 255 255 255 255 255 248 236 227 215 205 199 196 187 186 191 186 188 184 185 189 189 196 201 206 211 217 223 233 239 247 253 255 255 255 255 255 255 255 255 255 255 255 255 255 255 255 255 255 255 255 255 255 255 255 255 255 255 255 255 255 255 255 255 255 255 255 255 255 255 255 255 255 255 255
255 255 255 255 255 255 255 255 255 255 255 255 255 255 255 255 255 255 255 255 255 253 240 223 208 196 191 174 169 170 166 167 165 166 165 164 165 169 171 172 175 177 186 194 199 207 213 224 233 240 251 255 255 255 255 255 255 255 255 255 255 255 255 255 255 255 255 255 255 255 255 255 255 255 255 255 255 255 255 255 255 255 255 255 255 255 255 255 255 255 255 255
255 255 255 255 255 255 255 255 255 255 255 255 255 255 255 255 255 255 255 255 253 233 211 191 183 168 164 156 150 154 151 151 152 153 154 153 154 149 158 155 157 161 161 167 169 180 187 194 206 217 230 240 249 255 255 255 255 255 255 255 255 255 255 255 255 255 255 255 255 255 255 255 255 255 255 255 255 255 255 255 255 255 255 255 255 255 255 255 255 255 255 255
255 255 255 255 255 255 255 255 255 255 255 255 255 255 255 255 255 255 255 254 231 206 185 165 154 143 141 139 140 146 145 152 159 160 160 159 158 156 156 152 151 148 152 149 153 161 166 176 184 189 203 210 225 239 251 255 255 255 255 255 255 255 255 255 255 255 255 255 255 255 255 255 255 255 255 255 255 255 255 255 255 255 255 255 255 255 255 255 255 255 255 255
255 255 255 255 255 255 255 255 255 255 255 255 255 255 255 255 255 255 255 238 201 179 155 138 132 132 133 138 152 153 157 164 165 168 167 166 170 168 165 162 164 159 153 154 151 150 150 155 157 167 175 189 201 214 229 241 253 255 255 255 255 255 255 255 255 255 255 255 255 255 255 255 255 255 255 255 255 255 255 255 255 255 255 255 255 255 255 255 255 255 255 255
255 255 255 255 255 255 255 255 255 255 255 255 255 255 255 255 255 255 247 206 174 147 129 121 114 125 148 153 160 164 167 169 171 176 172 177 173 175 174 173 173 167 162 167 158 151 150 146 148 149 158 170 174 188 201 215 233 250 255 255 255 255 255 255 255 255 255 255 255 255 255 255 255 255 255 255 255 255 255 255 255 255 255 255 255 255 255 255 255 255 255 255
255 255 255 255 255 255 255 255 255 255 255 255 255 255 255 255 255 255 226 180 152 131 115 102 115 141 158 162 168 172 172 173 178 176 180 175 177 176 180 176 174 173 174 169 170 165 164 163 146 142 141 147 155 168 180 191 207 224 240 253 255 255 255 255 255 255 255 255 255 255 255 255 255 255 255 255 255 255 255 255 255 255 255 255 255 255 255 255 255 255 255 255
255 255 255 255 255 255 255 255 255 255 255 255 255 255 255 255 255 246 198 156 132 113 103 100 131 155 163 171 175 180 178 177 182 182 183 179 181 182 183 177 177 175 177 174 175 167 169 163 161 158 151 146 140 146 157 168 185 196 214 235 250 255 255 255 255 255 255 255 255 255 255 255 255 255 255 255 255 255 255 255 255 255 255 255 255 255 255 255 255 255 255 255
255 255 255 255 255 255 255 255 255 255 255 255 255 255 255 255 255 230 180 142 116 100 94 108 146 166 170 178 176 179 178 183 182 183 184 183 185 183 182 186 180 183 179 178 176 176 175 170 169 165 163 149 147 137 140 150 155 174 187 209 227 247 255 255 255 255 255 255 255 255 255 255 255 255 255 255 255 255 255 255 255 255 255 255 255 255 255 255 255 255 255 255
255 255 255 255 255 255 255 255 255 255 255 255 255 255 255 255 251 207 163 132 107 92 103 133 159 171 176 178 179 184 184 187 183 188 185 185 188 184 186 189 185 185 183 183 184 179 182 178 168 174 166 163 156 150 141 141 146 151 170 183 205 221 242 255 255 255 255 255 255 255 255 255 255 255 255 255 255 255 255 255 255 255 255 255 255 255 255 255 255 255 255 255
255 255 255 255 255 255 255 255 255 255 255 255 255 255 255 255 241 191 149 124 100 98 104 153 171 175 179 180 182 183 187 183 189 188 188 189 188 188 188 189 183 186 183 181 182 183 182 179 177 174 173 170 167 161 152 142 136 139 147 165 175 199 220 241 254 255 255 255 255 255 255 255 255 255 255 255 255 255 255 255 255 255 255 255 255 255 255 255 255 255 255 255
255 255 255 255 255 255 255 255 255 255 255 255 255 255 255 255 224 185 140 114 99 90 129 164 174 177 176 184 187 186 189 189 188 187 190 188 185 188 190 185 188 183 186 186 187 186 180 181 180 177 177 173 171 162 162 154 148 137 135 145 158 174 195 216 240 254 255 255 255 255 255 255 255 255 255 255 255 255 255 255 255 255 255 255 255 255 255 255 255 255 255 255
255 255 255 255 255 255 255 255 255 255 255 255 255 255 255 252 209 166 130 111 101 109 151 167 174 180 184 182 186 188 188 187 188 191 187 191 187 189 190 188 190 185 188 188 182 186 185 181 186 183 178 178 174 172 166 162 158 152 136 134 141 155 173 194 213 238 254 255 255 255 255 255 255 255 255 255 255 255 255 255 255 255 255 255 255 255 255 255 255 255 255 255
255 255 255 255 255 255 255 255 255 255 255 255 255 255 255 247 196 152 128 108 98 117 160 173 179 180 184 185 188 190 186 191 191 189 189 191 186 193 193 191 187 188 188 189 188 186 186 183 183 181 178 184 179 173 170 169 163 161 151 142 134 147 153 172 192 216 239 254 255 255 255 255 255 255 255 255 255 255 255 255 255 255 255 255 255 255 255 255 255 255 255 255
255 255 255 255 255 255 255 255 255 255 255 255 255 255 255 238 187 148 117 104 104 130 171 172 177 182 184 186 188 187 191 193 190 193 191 191 192 192 191 191 192 186 190 188 187 190 185 187 187 185 184 181 179 177 173 175 172 166 159 152 139 132 138 150 169 193 219 242 255 255 255 255 255 255 255 255 255 255 255 255 255 255 255 255 255 255 255 255 255 255 255 255
255 255 255 255 255 255 255 255 255 255 255 255 255 255 255 228 178 139 123 105 107 144 168 173 180 185 187 187 186 190 191 191 195 194 194 192 193 191 190 193 192 192 193 189 188 191 187 187 187 186 183 181 182 181 177 175 173 166 168 160 154 141 130 140 153 176 195 221 245 255 255 255 255 255 255 255 255 255 255 255 255 255 255 255 255 255 255 255 255 255 255 255
255 255 255 255 255 255 255 255 255 255 255 255 255 255 255 218 169 136 116 99 107 154 169 178 180 184 186 187 190 188 192 193 191 193 194 191 194 193 192 191 193 188 190 189 188 191 189 190 185 187 186 186 185 179 178 172 175 169 170 164 158 149 140 130 143 155 175 199 227 248 255 255 255 255 255 255 255 255 255 255 255 255 255 255 255 255 255 255 255 255 255 255
255 255 255 255 255 255 255 255 255 255 255 255 255 255 253 210 167 131 111 102 114 159 175 181 182 185 189 191 188 190 194 192 192 195 197 194 194 191 191 195 196 194 190 191 192 192 191 187 188 186 190 186 181 183 182 179 178 180 175 170 163 159 153 135 128 146 160 178 202 232 252 255 255 255 255 255 255 255 255 255 255 255 255 255 255 255 255 255 255 255 255 255
255 255 255 255 255 255 255 255 255 255 255 255 255 255 250 201 163 126 103 102 115 164 174 185 185 186 186 186 191 195 190 192 193 191 194 197 192 195 195 195 195 189 192 193 190 193 192 191 189 187 190 189 184 183 181 183 176 179 175 175 167 162 156 147 137 133 145 164 186 213 239 254 255 255 255 255 255 255 255 255 255 255 255 255 255 255 255 255 255 255 255 255
255 255 255 255 255 255 255 255 255 255 255 255 255 255 246 197 155 122 106 99 123 165 173 182 185 187 188 193 193 193 191 197 193 192 195 198 197 196 194 193 193 193 193 191 192 189 192 186 190 187 191 188 188 185 188 180 181 179 177 178 172 170 167 159 148 131 135 147 169 194 221 245 255 255 255 255 255 255 255 255 255 255 255 255 255 255 255 255 255 255 255 255
255 255 255 255 255 255 255 255 255 255 255 255 255 255 245 193 151 124 108 103 124 169 175 180 184 185 188 187 191 191 192 190 192 194 194 196 194 194 193 194 189 195 194 193 192 193 191 192 190 189 189 186 187 186 187 188 183 180 177 173 173 169 167 163 157 143 134 137 153 178 200 231 252 255 255 255 255 255 255 255 255 255 255 255 255 255 255 255 255 255 255 255
255 255 255 255 255 255 255 255 255 255 255 255 255 255 242 190 143 118 103 100 130 171 175 183 190 187 188 194 190 194 191 195 195 196 192 194 196 192 193 194 195 194 194 192 191 189 192 192 191 189 187 187 190 188 183 183 181 182 180 177 181 174 175 164 158 149 139 134 141 155 182 210 239 255 255 255 255 255 255 255 255 255 255 255 255 255 255 255 255 255 255 255
255 255 255 255 255 255 255 255 255 255 255 255 255 255 241 186 147 120 105 108 138 167 176 186 185 190 189 191 193 196 191 192 194 195 196 197 195 195 195 196 196 194 196 190 197 190 193 193 193 188 189 185 182 189 188 183 186 188 180 179 181 177 173 172 165 162 149 135 136 150 166 197 223 249 255 255 255 255 255 255 255 255 255 255 255 255 255 255 255 255 255 255
255 255 255 255 255 255 255 255 255 255 255 255 255 255 240 188 146 120 105 105 138 169 183 183 188 188 191 191 192 189 194 193 193 194 196 194 196 193 193 194 194 195 193 193 192 195 191 192 193 193 193 188 190 191 186 186 186 184 184 181 179 178 176 171 169 162 156 148 131 138 155 177 206 235 255 255 255 255 255 255 255 255 255 255 255 255 255 255 255 255 255 255
255 255 255 255 255 255 255 255 255 255 255 255 255 255 241 191 148 116 106 104 142 175 180 185 186 188 188 191 191 192 190 194 188 194 195 196 196 193 196 193 194 194 195 192 195 190 189 191 197 190 191 189 189 186 188 188 187 181 181 179 182 179 173 172 174 165 163 157 136 136 145 164 192 220 247 255 255 255 255 255 255 255 255 255 255 255 255 255 255 255 255 255
255 255 255 255 255 255 255 255 255 255 255 255 255 255 240 188 149 122 109 103 134 165 179 185 186 188 194 193 193 193 195 193 195 199 195 194 196 195 196 195 196 194 193 192 196 193 195 193 190 196 187 190 187 188 189 187 190 188 188 183 181 184 183 176 173 173 168 158 151 133 135 158 178 204 234 254 255 255 255 255 255 255 255 255 255 255 255 255 255 255 255 255
255 255 255 255 255 255 255 255 255 255 255 255 255 255 244 190 149 123 103 105 132 168 180 182 189 188 187 191 194 191 193 192 194 189 196 193 197 195 195 194 195 197 194 195 196 193 190 190 190 194 189 189 194 188 188 188 185 186 188 187 186 178 179 176 178 172 170 162 152 140 131 146 168 189 219 248 255 255 255 255 255 255 255 255 255 255 255 255 255 255 255 255
255 255 255 255 255 255 255 255 255 255 255 255 255 255 246 196 152 126 106 105 133 170 179 183 187 187 192 192 192 192 192 193 194 194 196 196 198 197 193 194 195 194 194 192 195 195 193 192 193 192 191 190 192 191 187 187 187 189 186 187 185 181 181 178 177 177 171 167 159 152 137 137 153 179 207 237 255 255 255 255 255 255 255 255 255 255 255 255 255 255 255 255
255 255 255 255 255 255 255 255 255 255 255 255 255 255 248 199 158 124 110 103 123 166 176 181 186 189 189 191 190 190 193 196 196 195 195 193 197 196 195 195 198 191 195 192 193 192 192 192 192 190 189 192 190 191 188 188 190 187 185 185 183 185 186 182 179 173 174 173 162 159 145 135 149 167 192 225 250 255 255 255 255 255 255 255 255 255 255 255 255 255 255 255
255 255 255 255 255 255 255 255 255 255 255 255 255 255 251 207 161 133 110 103 121 163 176 183 184 189 191 192 192 191 193 193 195 195 194 194 197 196 197 194 193 194 190 196 195 192 191 190 189 195 193 190 190 190 191 190 188 189 189 186 187 184 184 182 182 179 174 170 171 157 151 135 141 157 181 212 243 255 255 255 255 255 255 255 255 255 255 255 255 255 255 255
255 255 255 255 255 255 255 255 255 255 255 255 255 255 254 214 165 131 113 102 114 158 177 183 184 189 189 188 195 194 193 191 192 195 193 197 198 195 192 193 194 192 190 190 192 193 194 193 193 192 197 189 191 190 190 188 190 189 185 190 187 187 183 178 181 180 176 175 172 162 154 143 139 152 173 204 233 254 255 255 255 255 255 255 255 255 255 255 255 255 255 255
255 255 255 255 255 255 255 255 255 255 255 255 255 255 255 222 171 135 115 101 111 150 179 181 185 187 187 191 195 191 195 191 193 195 192 194 196 193 194 192 195 192 193 196 195 192 194 189 196 191 193 193 195 190 191 190 189 188 192 188 186 187 184 184 185 183 175 176 169 165 161 146 137 143 165 190 223 248 255 255 255 255 255 255 255 255 255 255 255 255 255 255
255 255 255 255 255 255 255 255 255 255 255 255 255 255 255 233 179 145 118 105 106 146 174 180 184 187 187 188 192 193 194 193 194 195 194 194 196 197 193 195 197 193 194 194 193 194 197 192 195 193 193 192 194 190 190 191 190 191 187 188 188 187 188 185 184 182 179 181 170 169 161 152 138 143 161 182 213 241 255 255 255 255 255 255 255 255 255 255 255 255 255 255
255 255 255 255 255 255 255 255 255 255 255 255 255 255 255 239 188 148 120 107 102 136 175 179 182 185 190 191 191 190 191 194 194 194 195 193 194 195 196 194 196 197 195 194 194 195 193 195 193 193 192 190 194 190 193 189 191 188 187 192 186 188 187 183 184 184 180 180 176 171 165 158 147 141 152 173 202 233 254 255 255 255 255 255 255 255 255 255 255 255 255 255
255 255 255 255 255 255 255 255 255 255 255 255 255 255 255 250 201 154 126 109 100 128 165 175 180 184 188 191 193 192 191 192 195 197 193 194 194 194 192 196 194 197 195 192 196 192 195 194 190 191 192 192 194 193 193 190 191 191 189 194 187 190 190 190 186 188 184 182 177 176 173 162 150 138 146 166 197 225 250 255 255 255 255 255 255 255 255 255 255 255 255 255
255 255 255 255 255 255 255 255 255 255 255 255 255 255 255 253 213 162 134 113 102 113 155 175 179 183 186 192 191 190 194 196 191 192 196 196 194 193 197 194 192 193 193 197 196 190 196 196 189 194 193 192 193 191 195 191 190 189 192 189 188 188 188 190 186 188 180 182 180 173 171 168 158 144 145 163 191 217 246 255 255 255 255 255 255 255 255 255 255 255 255 255
255 255 255 255 255 255 255 255 255 255 255 255 255 255 255 255 228 176 145 116 104 102 144 173 178 183 186 186 188 187 194 194 194 193 193 194 196 195 196 196 196 195 196 194 194 194 193 195 195 193 193 192 195 191 193 194 192 194 192 193 193 185 186 189 182 186 182 183 178 178 173 169 159 146 144 160 184 211 240 255 255 255 255 255 255 255 255 255 255 255 255 255
255 255 255 255 255 255 255 255 255 255 255 255 255 255 255 255 241 192 154 127 104 109 128 162 174 178 185 188 188 189 194 194 191 195 191 195 194 195 196 195 194 190 196 196 192 193 191 192 195 197 198 192 192 196 191 193 192 193 191 192 189 189 189 187 187 186 182 185 177 174 174 167 163 151 143 158 182 203 236 254 255 255 255 255 255 255 255 255 255 255 255 255
255 255 255 255 255 255 255 255 255 255 255 255 255 255 255 255 251 206 160 130 120 100 116 157 171 181 184 184 191 191 193 191 193 198 192 196 196 196 190 195 196 194 194 199 196 195 195 197 191 195 194 195 194 191 195 192 189 193 190 191 188 190 188 191 184 186 185 180 181 176 175 174 165 155 142 157 176 200 229 251 255 255 255 255 255 255 255 255 255 255 255 255
255 255 255 255 255 255 255 255 255 255 255 255 255 255 255 255 255 224 180 138 119 110 109 140 172 177 183 186 191 191 188 190 191 191 194 196 194 195 196 197 195 193 191 193 195 198 196 194 193 194 194 194 192 194 193 192 193 193 191 189 193 190 192 190 188 186 182 187 183 180 178 173 165 158 147 152 167 197 224 250 255 255 255 255 255 255 255 255 255 255 255 255
255 255 255 255 255 255 255 255 255 255 255 255 255 255 255 255 255 240 188 150 128 111 103 118 164 174 179 180 187 189 188 191 192 192 191 196 194 196 194 193 193 195 197 196 196 192 197 196 193 194 193 193 197 193 189 193 192 191 191 191 192 194 188 188 185 186 185 182 182 179 177 172 167 158 145 149 168 195 219 247 255 255 255 255 255 255 255 255 255 255 255 255
255 255 255 255 255 255 255 255 255 255 255 255 255 255 255 255 255 252 212 167 134 115 104 107 144 177 181 180 186 188 188 188 194 192 195 192 196 195 192 194 192 199 195 197 195 191 194 197 196 194 190 198 194 196 193 195 191 191 193 192 191 191 191 189 191 187 182 184 183 181 178 176 172 161 149 151 167 191 219 244 255 255 255 255 255 255 255 255 255 255 255 255
255 255 255 255 255 255 255 255 255 255 255 255 255 255 255 255 255 255 232 182 145 124 104 102 126 164 174 178 181 191 190 189 192 193 194 195 192 196 195 193 195 194 197 194 195 192 198 193 195 195 197 195 198 195 194 193 191 193 192 193 192 189 194 194 190 189 189 183 183 180 181 176 170 160 151 148 165 184 216 241 255 255 255 255 255 255 255 255 255 255 255 255
255 255 255 255 255 255 255 255 255 255 255 255 255 255 255 255 255 255 249 203 165 138 114 104 102 149 172 181 182 184 190 190 191 192 191 191 196 194 194 196 193 192 196 194 199 191 193 196 196 195 196 195 193 194 194 193 194 196 192 191 189 193 191 191 189 188 187 185 186 183 177 176 173 167 150 150 159 184 213 240 255 255 255 255 255 255 255 255 255 255 255 255
255 255 255 255 255 255 255 255 255 255 255 255 255 255 255 255 255 255 255 228 177 150 124 109 104 124 160 170 182 179 184 192 188 193 190 192 195 193 193 196 194 195 193 196 195 195 195 194 194 195 195 192 194 193 194 195 193 192 194 194 192 194 189 193 190 188 190 185 181 182 182 174 174 161 153 146 161 188 213 239 255 255 255 255 255 255 255 255 255 255 255 255
255 255 255 255 255 255 255 255 255 255 255 255 255 255 255 255 255 255 255 249 204 165 135 117 100 106 136 170 176 182 185 187 190 189 192 192 193 191 191 195 194 192 192 193 196 196 194 195 196 195 191 194 197 190 195 195 193 194 191 192 196 193 190 190 190 192 188 187 184 185 181 183 172 166 155 149 162 184 212 238 255 255 255 255 255 255 255 255 255 255 255 255
255 255 255 255 255 255 255 255 255 255 255 255 255 255 255 255 255 255 255 255 230 181 150 125 112 104 115 155 173 178 181 185 187 186 190 189 192 191 194 191 191 195 195 196 197 193 193 195 195 193 196 194 191 194 192 194 194 194 194 195 192 192 193 193 189 192 186 187 184 182 181 177 175 164 155 151 165 184 209 238 255 255 255 255 255 255 255 255 255 255 255 255
255 255 255 255 255 255 255 255 255 255 255 255 255 255 255 255 255 255 255 255 251 207 168 140 119 109 104 124 160 176 178 185 187 188 191 194 192 193 196 193 194 198 196 195 198 194 194 193 195 195 194 194 194 193 196 194 195 194 195 191 190 192 194 188 192 189 191 186 188 184 182 177 176 167 155 154 162 185 212 239 255 255 255 255 255 255 255 255 255 255 255 255
255 255 255 255 255 255 255 255 255 255 255 255 255 255 255 255 255 255 255 255 255 239 191 157 131 115 102 106 137 164 176 183 183 183 185 188 190 189 194 194 192 191 193 197 192 198 195 195 191 194 193 194 195 195 193 191 194 193 195 191 195 192 194 194 193 189 188 183 188 184 182 179 172 168 156 153 164 190 214 239 255 255 255 255 255 255 255 255 255 255 255 255
255 255 255 255 255 255 255 255 255 255 255 255 255 255 255 255 255 255 255 255 255 254 221 179 148 123 106 106 110 144 169 177 183 182 184 188 188 193 190 189 192 194 195 193 196 198 194 193 195 195 195 193 195 195 197 195 195 192 194 194 193 192 193 191 194 191 191 190 186 184 183 179 169 166 156 153 165 190 215 242 255 255 255 255 255 255 255 255 255 255 255 255
255 255 255 255 255 255 255 255 255 255 255 255 255 255 255 255 255 255 255 255 255 255 248 206 169 135 119 105 99 115 149 172 176 179 186 182 185 188 186 195 193 196 195 192 193 195 193 196 192 195 194 194 194 193 195 193 195 196 195 194 195 194 192 191 190 189 186 186 185 180 182 178 172 167 156 156 172 194 215 243 255 255 255 255 255 255 255 255 255 255 255 255
255 255 255 255 255 255 255 255 255 255 255 255 255 255 255 255 255 255 255 255 255 255 255 240 193 157 135 117 103 98 122 156 173 177 178 182 185 188 187 188 190 190 195 196 190 195 192 194 193 196 192 196 193 194 195 193 193 196 193 193 196 193 189 191 190 187 189 183 187 184 177 176 173 163 157 158 171 192 220 246 255 255 255 255 255 255 255 255 255 255 255 255
255 255 255 255 255 255 255 255 255 255 255 255 255 255 255 255 255 255 255 255 255 255 255 255 228 184 150 130 118 101 105 121 153 170 179 180 186 185 187 188 189 191 192 191 191 193 195 192 192 193 194 194 195 195 194 196 192 190 192 194 192 191 192 193 189 191 189 186 186 183 182 178 172 162 152 165 176 198 225 248 255 255 255 255 255 255 255 255 255 255 255 255
255 255 255 255 255 255 255 255 255 255 255 255 255 255 255 255 255 255 255 255 255 255 255 255 252 219 181 150 130 112 106 104 118 154 168 176 179 184 185 187 189 190 188 193 190 192 194 190 193 192 192 194 192 196 192 192 193 192 194 194 191 186 192 190 194 186 185 185 186 181 178 178 169 161 158 158 182 202 230 251 255 255 255 255 255 255 255 255 255 255 255 255
255 255 255 255 255 255 255 255 255 255 255 255 255 255 255 255 255 255 255 255 255 255 255 255 255 250 214 178 145 129 114 104 103 115 150 167 175 178 181 182 182 187 187 191 193 192 190 194 193 191 194 194 194 194 191 191 192 195 192 194 190 191 192 187 190 189 190 185 181 177 178 174 169 159 151 164 183 207 235 253 255 255 255 255 255 255 255 255 255 255 255 255
255 255 255 255 255 255 255 255 255 255 255 255 255 255 255 255 255 255 255 255 255 255 255 255 255 255 247 210 173 149 126 112 105 107 114 144 167 174 177 180 183 182 188 188 190 189 190 191 189 190 194 190 191 195 194 192 193 195 192 191 191 188 190 187 188 186 183 185 183 175 174 175 169 153 155 169 184 215 240 255 255 255 255 255 255 255 255 255 255 255 255 255
255 255 255 255 255 255 255 255 255 255 255 255 255 255 255 255 255 255 255 255 255 255 255 255 255 255 255 246 210 177 151 124 111 108 100 110 134 161 172 178 181 182 182 184 183 191 188 188 189 192 190 189 194 189 193 194 194 188 194 190 193 190 190 185 189 188 184 181 181 176 175 168 161 151 155 175 197 222 245 255 255 255 255 255 255 255 255 255 255 255 255 255
255 255 255 255 255 255 255 255 255 255 255 255 255 255 255 255 255 255 255 255 255 255 255 255 255 255 255 255 247 211 176 156 131 114 105 103 108 122 149 165 176 180 180 182 186 185 182 187 187 189 186 190 191 189 191 190 190 191 188 189 187 187 188 191 186 181 183 181 175 175 172 168 156 151 163 181 204 228 250 255 255 255 255 255 255 255 255 255 255 255 255 255
255 255 255 255 255 255 255 255 255 255 255 255 255 255 255 255 255 255 255 255 255 255 255 255 255 255 255 255 255 248 212 182 156 139 120 106 103 103 111 132 156 166 175 181 177 180 185 182 185 183 184 186 187 189 189 189 187 191 191 185 189 186 186 183 183 183 182 182 176 170 170 162 151 153 166 187 211 237 254 255 255 255 255 255 255 255 255 255 255 255 255 255
255 255 255 255 255 255 255 255 255 255 255 255 255 255 255 255 255 255 255 255 255 255 255 255 255 255 255 255 255 255 251 223 189 161 140 126 114 109 102 101 118 141 159 167 170 181 181 182 183 184 185 189 188 184 185 185 186 186 186 187 185 183 187 184 184 184 176 174 172 165 161 153 146 156 174 199 223 245 255 255 255 255 255 255 255 255 255 255 255 255 255 255
255 255 255 255 255 255 255 255 255 255 255 255 255 255 255 255 255 255 255 255 255 255 255 255 255 255 255 255 255 255 255 253 232 201 172 151 129 116 111 104 103 104 117 140 157 169 173 178 176 181 181 182 184 180 185 185 187 182 184 187 182 182 183 178 177 178 175 170 163 163 151 143 149 163 186 210 235 251 255 255 255 255 255 255 255 255 255 255 255 255 255 255
255 255 255 255 255 255 255 255 255 255 255 255 255 255 255 255 255 255 255 255 255 255 255 255 255 255 255 255 255 255 255 255 255 242 208 179 158 139 118 115 106 102 100 105 112 136 155 163 168 173 177 175 179 177 179 179 181 180 178 183 175 179 176 178 176 170 169 168 162 155 141 139 150 174 197 221 244 255 255 255 255 255 255 255 255 255 255 255 255 255 255 255
255 255 255 255 255 255 255 255 255 255 255 255 255 255 255 255 255 255 255 255 255 255 255 255 255 255 255 255 255 255 255 255 255 255 249 225 196 170 151 136 126 114 101 98 106 99 112 122 137 154 159 164 167 174 175 174 177 176 173 177 172 170 171 170 164 163 162 148 147 136 135 147 162 187 211 234 251 255 255 255 255 255 255 255 255 255 255 255 255 255 255 255
255 255 255 255 255 255 255 255 255 255 255 255 255 255 255 255 255 255 255 255 255 255 255 255 255 255 255 255 255 255 255 255 255 255 255 254 241 214 186 163 150 135 122 118 108 106 104 102 105 107 121 135 145 148 160 165 168 163 172 165 165 164 163 160 161 148 138 128 121 121 138 156 175 201 225 247 255 255 255 255 255 255 255 255 255 255 255 255 255 255 255 255
255 255 255 255 255 255 255 255 255 255 255 255 255 255 255 255 255 255 255 255 255 255 255 255 255 255 255 255 255 255 255 255 255 255 255 255 255 251 235 208 181 165 147 137 124 123 111 106 103 104 100 105 107 109 116 113 128 130 127 135 135 128 120 118 112 99 108 109 114 129 151 173 194 219 240 255 255 255 255 255 255 255 255 255 255 255 255 255 255 255 255 255
255 255 255 255 255 255 255 255 255 255 255 255 255 255 255 255 255 255 255 255 255 255 255 255 255 255 255 255 255 255 255 255 255 255 255 255 255 255 255 250 232 208 188 169 156 145 133 123 119 111 106 104 107 106 101 101 102 101 105 101 99 99 93 95 94 100 104 110 128 149 169 192 217 236 253 255 255 255 255 255 255 255 255 255 255 255 255 255 255 255 255 255
255 255 255 255 255 255 255 255 255 255 255 255 255 255 255 255 255 255 255 255 255 255 255 255 255 255 255 255 255 255 255 255 255 255 255 255 255 255 255 255 255 250 233 212 191 181 165 153 143 132 127 121 117 112 109 107 104 110 109 100 103 104 94 99 106 107 119 131 149 169 192 214 235 253 255 255 255 255 255 255 255 255 255 255 255 255 255 255 255 255 255 255
255 255 255 255 255 255 255 255 255 255 255 255 255 255 255 255 255 255 255 255 255 255 255 255 255 255 255 255 255 255 255 255 255 255 255 255 255 255 255 255 255 255 255 253 243 226 205 186 177 164 157 155 140 137 132 130 127 119 126 124 120 117 119 120 119 131 146 161 180 196 218 240 253 255 255 255 255 255 255 255 255 255 255 255 255 255 255 255 255 255 255 255
255 255 255 255 255 255 255 255 255 255 255 255 255 255 255 255 255 255 255 255 255 255 255 255 255 255 255 255 255 255 255 255 255 255 255 255 255 255 255 255 255 255 255 255 255 255 252 241 226 209 198 185 177 165 164 156 154 148 154 148 149 146 147 154 160 167 177 193 208 233 247 255 255 255 255 255 255 255 255 255 255 255 255 255 255 255 255 255 255 255 255 255
255 255 255 255 255 255 255 255 255 255 255 255 255 255 255 255 255 255 255 255 255 255 255 255 255 255 255 255 255 255 255 255 255 255 255 255 255 255 255 255 255 255 255 255 255 255 255 255 255 253 249 238 227 221 209 200 198 195 191 183 184 186 189 197 199 208 222 238 249 255 255 255 255 255 255 255 255 255 255 255 255 255 255 255 255 255 255 255 255 255 255 255
255 255 255 255 255 255 255 255 255 255 255 255 255 255 255 255 255 255 255 255 255 255 255 255 255 255 255 255 255 255 255 255 255 255 255 255 255 255 255 255 255 255 255 255 255 255 255 255 255 255 255 255 255 255 253 249 247 245 241 240 240 241 243 246 250 254 255 255 255 255 255 255 255 255 255 255 255 255 255 255 255 255 255 255 255 255 255 255 255 255 255 255
255 255 255 255 255 255 255 255 255 255 255 255 255 255 255 255 255 255 255 255 255 255 255 255 255 255 255 255 255 255 255 255 255 255 255 255 255 255 255 255 255 255 255 255 255 255 255 255 255 255 255 255 255 255 255 255 255 255 255 255 255 255 255 255 255 255 255 255 255 255 255 255 255 255 255 255 255 255 255 255 255 255 255 255 255 255 255 255 255 255 255 255
255 255 255 255 255 255 255 255 255 255 255 255 255 255 255 255 255 255 255 255 255 255 255 255 255 255 255 255 255 255 255 255 255 255 255 255 255 255 255 255 255 255 255 255 255 255 255 255 255 255 255 255 255 255 255 255 255 255 255 255 255 255 255 255 255 255 255 255 255 255 255 255 255 255 255 255 255 255 255 255 255 255 255 255 255 255 255 255 255 255 255 255
255 255 255 255 255 255 255 255 255 255 255 255 255 255 255 255 255 255 255 255 255 255 255 255 255 255 255 255 255 255 255 255 255 255 255 255 255 255 255 255 255 255 255 255 255 255 255 255 255 255 255 255 255 255 255 255 255 255 255 255 255 255 255 255 255 255 255 255 255 255 255 255 255 255 255 255 255 255 255 255 255 255 255 255 255 255 255 255 255 255 255 255
255 255 255 255 255 255 255 255 255 255 255 255 255 255 255 255 255 255 255 255 255 255 255 255 255 255 255 255 255 255 255 255 255 255 255 255 255 255 255 255 255 255 255 255 255 255 255 255 255 255 255 255 255 255 255 255 255 255 255 255 255 255 255 255 255 255 255 255 255 255 255 255 255 255 255 255 255 255 255 255 255 255 255 255 255 255 255 255 255 255 255 255
255 255 255 255 255 255 255 255 255 255 255 255 255 255 255 255 255 255 255 255 255 255 255 255 255 255 255 255 255 255 255 255 255 255 255 255 255 255 255 255 255 255 255 255 255 255 255 255 255 255 255 255 255 255 255 255 255 255 255 255 255 255 255 255 255 255 255 255 255 255 255 255 255 255 255 255 255 255 255 255 255 255 255 255 255 255 255 255 255 255 255 255
255 255 255 255 255 255 255 255 255 255 255 255 255 255 255 255 255 255 255 255 255 255 255 255 255 255 255 255 255 255 255 255 255 255 255 255 255 255 255 255 255 255 255 255 255 255 255 255 255 255 255 255 255 255 255 255 255 255 255 255 255 255 255 255 255 255 255 255 255 255 255 255 255 255 255 255 255 255 255 255 255 255 255 255 255 255 255 255 255 255 255 255
255 255 255 255 255 255 255 255 255 255 255 255 255 255 255 255 255 255 255 255 255 255 255 255 255 255 255 255 255 255 255 255 255 255 255 255 255 255 255 255 255 255 255 255 255 255 255 255 255 255 255 255 255 255 255 255 255 255 255 255 255 255 255 255 255 255 255 255 255 255 255 255 255 255 255 255 255 255 255 255 255 255 255 255 255 255 255 255 255 255 255 255
255 255 255 255 255 255 255 255 255 255 255 255 255 255 255 255 255 255 255 255 255 255 255 255 255 255 255 255 255 255 255 255 255 255 255 255 255 255 255 255 255 255 255 255 255 255 255 255 255 255 255 255 255 255 255 255 255 255 255 255 255 255 255 255 255 255 255 255 255 255 255 255 255 255 255 255 255 255 255 255 255 255 255 255 255 255 255 255 255 255 255 255
255 255 255 255 255 255 255 255 255 255 255 255 255 255 255 255 255 255 255 255 255 255 255 255 255 255 255 255 255 255 255 255 255 255 255 255 255 255 255 255 255 255 255 255 255 255 255 255 255 255 255 255 255 255 255 255 255 255 255 255 255 255 255 255 255 255 255 255 255 255 255 255 255 255 255 255 255 255 255 255 255 255 255 255 255 255 255 255 255 255 255 255
