P2
109 109
255
255 255 255 255 255 255 255 255 255 255 255 255 255 255 255 255 255 255 255 255 255 255 255 255 255 255 255 255 255 255 255 255 255 255 255 255 255 255 255 255 255 255 255 255 255 255 255 255 255 255 255 255 255 255 255 255 255 255 255 255 255 255 255 255 255 255 255 255 255 255 255 255 255 255 255 255 255 255 255 255 255 255 255 255 255 255 255 255 255 255 255 255 255 255 255 255 255 255 255 255 255 255 255 255 255 255 255 255 255
255 255 255 255 255 255 255 255 255 255 255 255 255 255 255 255 255 255 255 255 255 255 255 255 255 255 255 255 255 255 255 255 255 255 255 255 255 255 255 255 255 255 255 255 255 255 255 255 255 255 255 255 255 255 255 255 255 255 255 255 255 255 255 255 255 255 255 255 255 255 255 255 255 255 255 255 255 255 255 255 255 255 255 255 255 255 255 255 255 255 255 255 255 255 255 255 255 255 255 255 255 255 255 255 255 255 255 255 255
255 255 255 255 255 255 255 255 255 255 255 255 255 255 255 255 255 255 255 255 255 255 255 255 255 255 255 255 255 255 255 255 255 255 255 255 255 255 255 255 255 255 255 255 255 255 255 255 255 255 255 255 255 255 255 255 255 255 255 255 255 255 255 255 255 255 255 255 255 255 255 255 255 255 255 255 255 255 255 255 255 255 255 255 255 255 255 255 255 255 255 255 255 255 255 255 255 255 255 255 255 255 255 255 255 255 255 255 255
255 255 255 255 255 255 255 255 255 255 255 255 255 255 255 255 255 255 255 255 255 255 255 255 255 255 255 255 255 255 255 255 255 255 255 255 255 255 255 255 255 255 255 255 255 255 255 255 255 255 255 255 255 255 255 255 255 255 255 255 255 255 255 255 255 255 255 255 255 255 255 255 255 255 255 255 255 255 255 255 255 255 255 255 255 255 255 255 255 255 255 255 255 255 255 255 255 255 255 255 255 255 255 255 255 255 255 255 255
255 255 255 255 255 255 255 255 255 255 255 255 255 255 255 255 255 255 255 255 255 255 255 255 255 255 255 255 255 255 255 255 255 255 255 255 255 255 255 255 255 255 255 255 255 255 255 255 255 255 255 255 255 255 255 255 255 255 255 255 255 255 255 255 255 255 255 255 255 255 255 255 255 255 255 255 255 255 255 255 255 255 255 255 255 255 255 255 255 255 255 255 255 255 255 255 255 255 255 255 255 255 255 255 255 255 255 255 255
255 255 255 255 255 255 255 255 255 255 255 255 255 255 255 255 255 255 255 255 255 255 255 255 255 255 255 255 255 255 255 255 255 255 255 255 255 255 255 255 254 253 250 247 243 239 239 239 238 241 242 246 250 251 253 255 255 255 255 255 255 255 255 255 255 255 255 255 255 255 255 255 255 255 255 255 255 255 255 255 255 255 255 255 255 255 255 255 255 255 255 255 255 255 255 255 255 255 255 255 255 255 255 255 255 255 255 255 255
255 255 255 255 255 255 255 255 255 255 255 255 255 255 255 255 255 255 255 255 255 255 255 255 255 255 255 255 255 255 255 255 255 255 255 255 255 255 254 249 242 234 226 220 217 215 211 213 211 214 215 221 224 229 234 239 243 249 253 255 255 255 255 255 255 255 255 255 255 255 255 255 255 255 255 255 255 255 255 255 255 255 255 255 255 255 255 255 255 255 255 255 255 255 255 255 255 255 255 255 255 255 255 255 255 255 255 255 255
255 255 255 255 255 255 255 255 255 255 255 255 255 255 255 255 255 255 255 255 255 255 255 255 255 255 255 255 255 255 255 255 255 255 255 255 253 245 236 227 218 208 202 200 195 194 189 191 191 194 191 196 199 202 208 214 220 225 235 241 250 253 255 255 255 255 255 255 255 255 255 255 255 255 255 255 255 255 255 255 255 255 255 255 255 255 255 255 255 255 255 255 255 255 255 255 255 255 255 255 255 255 255 255 255 255 255 255 255
255 255 255 255 255 255 255 255 255 255 255 255 255 255 255 255 255 255 255 255 255 255 255 255 255 255 255 255 255 255 255 255 255 255 254 245 237 225 213 204 196 191 184 179 181 174 176 174 179 178 178 181 181 185 189 190 196 204 208 215 223 234 242 252 255 255 255 255 255 255 255 255 255 255 255 255 255 255 255 255 255 255 255 255 255 255 255 255 255 255 255 255 255 255 255 255 255 255 255 255 255 255 255 255 255 255 255 255 255
255 255 255 255 255 255 255 255 255 255 255 255 255 255 255 255 255 255 255 255 255 255 255 255 255 255 255 255 255 255 255 255 255 252 239 224 211 202 192 187 183 181 182 185 182 188 188 187 190 188 185 183 186 182 184 178 179 185 184 194 203 204 217 229 239 250 254 255 255 255 255 255 255 255 255 255 255 255 255 255 255 255 255 255 255 255 255 255 255 255 255 255 255 255 255 255 255 255 255 255 255 255 255 255 255 255 255 255 255
255 255 255 255 255 255 255 255 255 255 255 255 255 255 255 255 255 255 255 255 255 255 255 255 255 255 255 255 255 255 255 255 250 234 218 206 194 185 178 183 184 187 191 198 196 194 198 199 199 199 200 195 196 197 192 193 184 182 179 175 180 188 194 203 213 222 235 249 254 255 255 255 255 255 255 255 255 255 255 255 255 255 255 255 255 255 255 255 255 255 255 255 255 255 255 255 255 255 255 255 255 255 255 255 255 255 255 255 255
255 255 255 255 255 255 255 255 255 255 255 255 255 255 255 255 255 255 255 255 255 255 255 255 255 255 255 255 255 255 255 248 230 216 195 186 180 176 184 187 194 197 198 201 199 203 200 202 205 207 203 204 203 201 197 197 195 191 185 190 178 177 179 179 189 201 212 227 241 251 255 255 255 255 255 255 255 255 255 255 255 255 255 255 255 255 255 255 255 255 255 255 255 255 255 255 255 255 255 255 255 255 255 255 255 255 255 255 255
255 255 255 255 255 255 255 255 255 255 255 255 255 255 255 255 255 255 255 255 255 255 255 255 255 255 255 255 255 255 248 232 211 195 186 176 181 190 195 198 199 203 207 203 206 203 207 206 208 205 209 205 208 207 202 206 203 204 198 197 189 190 179 175 177 179 188 195 213 227 240 253 255 255 255 255 255 255 255 255 255 255 255 255 255 255 255 255 255 255 255 255 255 255 255 255 255 255 255 255 255 255 255 255 255 255 255 255 255
255 255 255 255 255 255 255 255 255 255 255 255 255 255 255 255 255 255 255 255 255 255 255 255 255 255 255 255 255 251 233 210 195 182 170 182 189 194 199 205 204 202 208 207 210 209 210 206 207 204 208 207 209 211 208 207 206 201 203 200 196 197 195 189 179 173 177 181 186 196 212 232 247 255 255 255 255 255 255 255 255 255 255 255 255 255 255 255 255 255 255 255 255 255 255 255 255 255 255 255 255 255 255 255 255 255 255 255 255
255 255 255 255 255 255 255 255 255 255 255 255 255 255 255 255 255 255 255 255 255 255 255 255 255 255 255 255 253 236 213 190 178 176 174 188 198 202 204 203 204 211 207 214 211 209 210 210 208 214 208 208 212 212 212 209 210 209 207 204 206 194 195 201 199 192 181 168 171 183 192 205 220 238 253 255 255 255 255 255 255 255 255 255 255 255 255 255 255 255 255 255 255 255 255 255 255 255 255 255 255 255 255 255 255 255 255 255 255
255 255 255 255 255 255 255 255 255 255 255 255 255 255 255 255 255 255 255 255 255 255 255 255 255 255 255 255 243 214 199 184 172 174 188 198 205 205 209 209 207 211 208 212 214 214 212 214 213 214 214 210 213 213 211 212 212 209 210 212 206 205 208 203 196 195 198 188 175 168 174 185 197 211 230 249 255 255 255 255 255 255 255 255 255 255 255 255 255 255 255 255 255 255 255 255 255 255 255 255 255 255 255 255 255 255 255 255 255
255 255 255 255 255 255 255 255 255 255 255 255 255 255 255 255 255 255 255 255 255 255 255 255 255 255 255 250 225 200 184 170 176 188 198 200 206 211 209 214 211 214 211 214 218 214 214 217 215 213 216 210 214 212 215 216 209 212 209 211 208 208 206 203 203 198 201 195 190 187 176 169 179 193 206 222 242 254 255 255 255 255 255 255 255 255 255 255 255 255 255 255 255 255 255 255 255 255 255 255 255 255 255 255 255 255 255 255 255
255 255 255 255 255 255 255 255 255 255 255 255 255 255 255 255 255 255 255 255 255 255 255 255 255 255 255 237 206 183 165 167 184 193 202 202 207 208 211 210 212 214 213 210 217 216 218 214 217 217 214 217 212 218 216 213 210 211 215 212 212 207 209 208 208 207 205 205 197 197 187 174 173 173 183 199 219 240 253 255 255 255 255 255 255 255 255 255 255 255 255 255 255 255 255 255 255 255 255 255 255 255 255 255 255 255 255 255 255
255 255 255 255 255 255 255 255 255 255 255 255 255 255 255 255 255 255 255 255 255 255 255 255 255 255 248 215 191 176 165 173 194 201 205 210 207 212 213 211 213 214 213 216 215 215 214 218 215 217 215 215 216 216 215 213 217 217 210 214 213 211 213 212 208 208 204 201 197 199 189 190 180 171 166 177 186 212 233 252 255 255 255 255 255 255 255 255 255 255 255 255 255 255 255 255 255 255 255 255 255 255 255 255 255 255 255 255 255
255 255 255 255 255 255 255 255 255 255 255 255 255 255 255 255 255 255 255 255 255 255 255 255 255 255 234 199 179 159 159 185 198 203 204 209 211 213 211 214 215 212 216 218 217 217 212 215 215 218 216 217 218 217 217 215 219 214 216 214 216 208 212 209 211 210 209 206 204 204 205 192 189 179 168 169 176 189 208 229 249 255 255 255 255 255 255 255 255 255 255 255 255 255 255 255 255 255 255 255 255 255 255 255 255 255 255 255 255
255 255 255 255 255 255 255 255 255 255 255 255 255 255 255 255 255 255 255 255 255 255 255 255 255 251 215 186 167 156 167 195 196 208 210 209 210 214 218 217 214 218 215 213 218 218 219 218 219 218 219 218 219 214 218 215 216 213 215 215 213 211 214 212 212 213 207 206 207 205 204 200 192 191 187 171 169 166 187 207 226 248 255 255 255 255 255 255 255 255 255 255 255 255 255 255 255 255 255 255 255 255 255 255 255 255 255 255 255
255 255 255 255 255 255 255 255 255 255 255 255 255 255 255 255 255 255 255 255 255 255 255 255 255 238 199 172 154 154 182 203 203 206 210 211 213 213 221 217 216 217 218 216 218 219 216 219 220 217 219 219 215 218 217 217 214 219 215 214 215 213 212 213 214 211 213 214 211 205 203 204 201 201 196 192 176 166 168 180 201 226 248 255 255 255 255 255 255 255 255 255 255 255 255 255 255 255 255 255 255 255 255 255 255 255 255 255 255
255 255 255 255 255 255 255 255 255 255 255 255 255 255 255 255 255 255 255 255 255 255 255 255 254 222 191 163 154 164 193 207 210 210 213 210 215 213 215 214 218 217 216 218 216 219 219 218 220 215 221 218 222 217 220 216 216 218 217 216 217 216 215 213 214 214 213 213 212 209 208 208 205 202 198 196 189 174 168 167 178 200 224 248 255 255 255 255 255 255 255 255 255 255 255 255 255 255 255 255 255 255 255 255 255 255 255 255 255
255 255 255 255 255 255 255 255 255 255 255 255 255 255 255 255 255 255 255 255 255 255 255 255 247 208 177 157 152 176 197 205 210 210 210 210 213 214 217 216 220 222 220 217 217 221 219 219 222 220 219 220 219 223 216 221 215 218 220 218 218 219 218 216 216 213 212 213 213 210 210 208 208 205 201 198 195 191 177 170 167 179 199 222 250 255 255 255 255 255 255 255 255 255 255 255 255 255 255 255 255 255 255 255 255 255 255 255 255
255 255 255 255 255 255 255 255 255 255 255 255 255 255 255 255 255 255 255 255 255 255 255 255 238 190 166 153 158 188 198 207 212 213 215 217 215 219 219 217 219 217 219 221 219 221 216 219 218 219 220 218 220 219 220 216 216 215 215 216 213 217 218 217 212 218 211 214 213 213 210 209 209 205 204 203 201 198 190 176 165 170 177 200 231 251 255 255 255 255 255 255 255 255 255 255 255 255 255 255 255 255 255 255 255 255 255 255 255
255 255 255 255 255 255 255 255 255 255 255 255 255 255 255 255 255 255 255 255 255 255 255 254 219 178 160 147 158 200 204 206 212 214 215 211 215 215 218 218 220 218 219 221 217 219 219 218 220 221 221 219 222 219 216 216 218 218 216 216 220 219 217 217 216 212 214 217 212 213 211 207 212 210 207 204 202 199 195 189 177 162 169 179 201 228 252 255 255 255 255 255 255 255 255 255 255 255 255 255 255 255 255 255 255 255 255 255 255
255 255 255 255 255 255 255 255 255 255 255 255 255 255 255 255 255 255 255 255 255 255 255 251 210 172 154 142 169 198 202 208 213 213 210 218 218 219 219 220 219 218 220 218 220 219 220 219 220 221 219 220 218 218 216 219 219 219 218 219 217 218 217 214 217 218 216 215 213 214 214 210 210 207 207 207 204 199 198 192 191 179 168 166 183 205 235 254 255 255 255 255 255 255 255 255 255 255 255 255 255 255 255 255 255 255 255 255 255
255 255 255 255 255 255 255 255 255 255 255 255 255 255 255 255 255 255 255 255 255 255 255 245 199 164 148 141 183 200 204 209 213 213 216 219 218 217 218 220 221 219 219 221 219 221 216 219 218 219 219 221 218 220 217 222 219 216 216 217 218 218 216 215 217 216 215 216 212 211 212 212 213 209 208 203 207 209 206 198 194 186 174 164 170 187 212 239 255 255 255 255 255 255 255 255 255 255 255 255 255 255 255 255 255 255 255 255 255
255 255 255 255 255 255 255 255 255 255 255 255 255 255 255 255 255 255 255 255 255 255 255 236 184 161 148 155 196 203 209 211 213 215 212 220 219 215 219 220 218 221 220 219 219 222 221 221 219 217 218 218 220 220 220 218 221 219 219 218 220 216 219 217 217 215 216 212 215 213 217 215 211 213 210 211 210 206 206 203 198 196 185 173 156 173 185 217 247 255 255 255 255 255 255 255 255 255 255 255 255 255 255 255 255 255 255 255 255
255 255 255 255 255 255 255 255 255 255 255 255 255 255 255 255 255 255 255 255 255 255 255 225 179 158 140 160 195 205 210 211 215 212 217 216 220 216 219 219 219 219 220 219 220 220 222 219 219 223 220 223 218 219 218 217 219 219 217 218 218 219 221 217 215 214 217 215 215 215 216 211 212 212 212 211 210 208 205 205 197 199 191 182 166 163 174 200 226 251 255 255 255 255 255 255 255 255 255 255 255 255 255 255 255 255 255 255 255
255 255 255 255 255 255 255 255 255 255 255 255 255 255 255 255 255 255 255 255 255 255 254 214 171 153 140 168 200 207 209 210 218 216 218 218 218 221 218 220 219 219 220 222 219 217 221 220 221 217 215 220 220 218 213 219 219 219 221 216 220 217 220 218 219 220 220 216 216 216 213 215 214 215 215 209 212 208 205 204 205 202 194 192 180 165 166 176 204 235 254 255 255 255 255 255 255 255 255 255 255 255 255 255 255 255 255 255 255
255 255 255 255 255 255 255 255 255 255 255 255 255 255 255 255 255 255 255 255 255 255 250 210 169 150 142 178 198 204 209 212 212 213 214 219 216 218 217 217 219 218 221 220 222 223 220 218 219 220 218 216 219 218 219 215 217 219 219 218 219 220 218 220 218 218 217 216 213 216 214 214 211 212 213 213 215 207 208 208 205 205 205 195 191 177 161 173 185 213 242 255 255 255 255 255 255 255 255 255 255 255 255 255 255 255 255 255 255
255 255 255 255 255 255 255 255 255 255 255 255 255 255 255 255 255 255 255 255 255 255 247 200 164 152 144 184 201 210 214 214 216 219 218 215 217 219 219 222 219 220 222 219 222 219 219 223 221 220 222 217 219 220 218 219 222 216 219 218 218 216 220 217 218 218 214 216 217 216 216 213 219 216 213 213 210 213 212 211 204 208 198 199 193 187 174 160 175 197 226 251 255 255 255 255 255 255 255 255 255 255 255 255 255 255 255 255 255
255 255 255 255 255 255 255 255 255 255 255 255 255 255 255 255 255 255 255 255 255 255 242 191 164 156 148 183 205 207 209 211 215 216 219 216 217 222 221 220 223 219 221 220 222 221 222 218 221 221 221 220 220 221 220 219 221 218 218 219 216 220 219 218 217 220 219 215 219 216 219 213 214 213 217 215 213 213 212 207 209 209 202 202 200 195 183 161 159 179 204 234 254 255 255 255 255 255 255 255 255 255 255 255 255 255 255 255 255
255 255 255 255 255 255 255 255 255 255 255 255 255 255 255 255 255 255 255 255 255 255 239 190 156 143 156 191 200 211 211 215 218 216 217 216 217 216 218 221 222 220 223 222 220 218 223 222 216 220 224 222 222 223 215 220 220 218 219 220 218 219 222 220 217 215 218 215 218 215 219 216 217 215 218 217 217 213 214 208 206 210 205 205 199 202 191 178 163 171 185 213 246 255 255 255 255 255 255 255 255 255 255 255 255 255 255 255 255
255 255 255 255 255 255 255 255 255 255 255 255 255 255 255 255 255 255 255 255 255 255 233 184 159 140 159 196 204 208 211 214 219 220 219 220 220 219 221 218 220 223 219 218 222 219 221 223 221 219 218 219 219 221 219 216 220 218 222 220 218 221 218 221 217 219 218 213 220 219 217 216 215 215 213 216 214 210 218 209 210 208 208 207 202 199 196 189 180 162 176 198 228 253 255 255 255 255 255 255 255 255 255 255 255 255 255 255 255
255 255 255 255 255 255 255 255 255 255 255 255 255 255 255 255 255 255 255 255 255 255 229 183 147 141 162 195 204 209 212 212 216 215 214 219 219 222 221 220 221 218 223 220 220 220 218 218 222 223 221 220 218 219 219 218 219 221 221 220 219 216 218 219 218 216 219 217 219 217 218 218 219 216 217 216 212 214 210 212 212 212 209 207 204 200 198 193 183 161 167 185 208 243 255 255 255 255 255 255 255 255 255 255 255 255 255 255 255
255 255 255 255 255 255 255 255 255 255 255 255 255 255 255 255 255 255 255 255 255 255 227 182 158 142 161 194 204 207 208 212 219 215 216 219 218 218 220 219 221 220 220 219 222 218 221 221 220 218 223 220 219 219 219 218 221 221 222 220 220 219 223 223 219 219 219 221 217 218 216 217 218 221 214 216 212 217 217 214 213 214 211 207 206 206 196 195 192 174 163 174 196 227 252 255 255 255 255 255 255 255 255 255 255 255 255 255 255
255 255 255 255 255 255 255 255 255 255 255 255 255 255 255 255 255 255 255 255 255 255 226 183 153 142 157 197 205 208 210 214 218 216 215 219 220 218 218 220 218 220 221 222 220 219 219 222 223 222 220 219 219 223 221 221 218 219 216 221 218 218 218 219 221 218 215 219 218 217 219 217 216 215 215 214 217 214 215 210 213 212 209 209 207 207 204 198 193 185 165 164 181 209 243 255 255 255 255 255 255 255 255 255 255 255 255 255 255
255 255 255 255 255 255 255 255 255 255 255 255 255 255 255 255 255 255 255 255 255 255 226 178 152 147 159 194 204 210 211 216 215 217 215 220 220 216 219 218 219 218 218 219 217 220 218 220 219 223 221 223 217 217 221 221 218 219 220 220 221 220 221 217 220 215 221 214 219 217 220 220 218 217 217 214 215 214 214 215 215 214 212 208 207 205 202 203 199 188 176 166 171 195 229 252 255 255 255 255 255 255 255 255 255 255 255 255 255
255 255 255 255 255 255 255 255 255 255 255 255 255 255 255 255 255 255 255 255 255 255 226 178 148 141 165 198 202 211 212 215 216 217 219 217 220 219 222 219 220 220 220 221 222 219 221 222 219 222 220 222 221 219 221 221 222 221 219 216 219 220 221 218 217 220 220 217 216 221 217 218 218 218 217 216 216 211 213 210 214 210 215 210 205 207 206 205 205 195 184 166 164 185 210 243 255 255 255 255 255 255 255 255 255 255 255 255 255
255 255 255 255 255 255 255 255 255 255 255 255 255 255 255 255 255 255 255 255 255 255 226 181 152 140 159 199 208 214 212 215 215 219 216 220 217 218 219 218 222 222 220 222 220 219 221 221 220 220 220 218 220 219 220 221 218 218 223 220 219 218 219 217 216 216 220 218 219 217 216 217 217 217 218 217 215 219 213 209 211 211 211 211 207 209 206 206 199 199 192 175 158 174 195 231 254 255 255 255 255 255 255 255 255 255 255 255 255
255 255 255 255 255 255 255 255 255 255 255 255 255 255 255 255 255 255 255 255 255 255 226 178 151 143 161 197 209 206 214 211 218 215 219 220 220 217 216 219 219 220 220 218 219 216 221 222 219 223 221 220 220 219 220 220 218 217 219 217 218 219 221 218 220 219 219 217 218 219 219 217 216 219 216 216 220 215 213 218 211 215 213 211 211 209 209 208 199 203 193 183 164 167 188 216 246 255 255 255 255 255 255 255 255 255 255 255 255
255 255 255 255 255 255 255 255 255 255 255 255 255 255 255 255 255 255 255 255 255 255 230 183 151 144 156 196 205 213 213 216 216 214 217 219 216 219 222 222 219 225 221 220 220 220 221 220 223 221 221 220 222 219 219 220 219 219 222 218 221 222 218 218 220 218 221 219 218 221 220 217 215 214 218 214 216 216 214 215 215 212 215 214 213 208 209 212 201 203 200 189 171 158 179 202 235 255 255 255 255 255 255 255 255 255 255 255 255
255 255 255 255 255 255 255 255 255 255 255 255 255 255 255 255 255 255 255 255 255 255 233 181 154 142 158 195 204 209 215 214 216 215 216 219 218 220 219 222 221 218 218 221 219 218 220 220 219 221 220 223 224 222 219 221 221 217 222 218 222 219 221 216 218 216 217 218 220 220 217 220 219 220 218 215 216 214 216 217 217 218 208 212 214 215 210 206 205 203 196 196 186 163 167 194 224 252 255 255 255 255 255 255 255 255 255 255 255
255 255 255 255 255 255 255 255 255 255 255 255 255 255 255 255 255 255 255 255 255 255 235 186 160 141 155 192 208 212 209 216 214 217 221 218 221 219 218 221 217 220 222 221 220 220 223 223 221 221 222 223 221 219 224 217 219 217 221 221 220 221 219 217 219 219 218 218 220 217 215 220 214 219 215 219 215 218 216 216 218 213 215 212 214 211 210 212 206 203 198 196 187 169 171 182 208 242 255 255 255 255 255 255 255 255 255 255 255
255 255 255 255 255 255 255 255 255 255 255 255 255 255 255 255 255 255 255 255 255 255 240 192 157 139 148 187 205 212 210 214 214 216 218 218 220 220 219 217 225 221 221 220 221 220 220 223 221 222 221 219 220 219 221 219 221 220 220 222 218 220 219 219 218 219 220 220 219 220 215 220 218 215 217 217 215 216 216 217 215 217 214 212 210 210 210 212 208 207 202 199 191 180 159 176 204 231 254 255 255 255 255 255 255 255 255 255 255
255 255 255 255 255 255 255 255 255 255 255 255 255 255 255 255 255 255 255 255 255 255 246 192 164 144 144 183 205 208 213 214 213 218 219 219 218 219 219 217 218 217 219 221 222 222 223 216 223 221 223 219 220 220 221 217 221 220 223 222 218 221 217 222 219 218 222 219 217 216 218 223 217 217 218 218 218 216 218 218 216 216 213 215 212 213 213 211 208 209 204 204 195 185 170 176 191 223 251 255 255 255 255 255 255 255 255 255 255
255 255 255 255 255 255 255 255 255 255 255 255 255 255 255 255 255 255 255 255 255 255 248 203 165 145 143 172 202 210 212 212 214 217 215 218 219 217 219 217 219 221 221 217 219 223 221 221 221 221 220 220 219 218 222 218 221 219 222 219 220 219 221 219 215 220 220 221 216 217 220 220 219 221 220 218 219 216 215 214 215 214 216 214 214 214 213 213 213 208 204 200 199 190 176 171 187 211 246 255 255 255 255 255 255 255 255 255 255
255 255 255 255 255 255 255 255 255 255 255 255 255 255 255 255 255 255 255 255 255 255 253 210 172 145 136 167 201 204 209 212 214 218 214 217 219 221 222 219 221 220 222 219 221 223 223 222 222 222 220 222 220 219 222 217 222 223 221 220 223 216 222 217 219 221 218 219 221 220 217 216 220 215 217 216 217 216 218 216 217 216 214 214 213 212 215 210 214 208 207 204 196 191 179 173 176 203 237 255 255 255 255 255 255 255 255 255 255
255 255 255 255 255 255 255 255 255 255 255 255 255 255 255 255 255 255 255 255 255 255 255 221 177 146 142 161 195 207 208 214 212 217 216 219 220 220 220 220 221 220 220 218 218 221 219 221 218 217 221 221 220 219 223 219 219 219 222 220 217 218 220 220 221 221 216 221 218 218 220 220 218 217 218 215 220 219 220 217 215 216 216 217 215 215 213 211 211 210 205 204 202 198 185 171 173 193 226 253 255 255 255 255 255 255 255 255 255
255 255 255 255 255 255 255 255 255 255 255 255 255 255 255 255 255 255 255 255 255 255 255 232 181 150 140 156 192 202 205 213 217 217 218 219 218 217 217 217 216 221 223 220 220 218 221 225 219 223 219 219 220 218 219 218 221 220 218 223 225 220 221 218 223 223 219 218 221 221 220 219 215 214 215 215 217 218 212 216 216 218 212 217 216 214 213 213 207 211 207 204 204 200 186 170 172 192 219 249 255 255 255 255 255 255 255 255 255
255 255 255 255 255 255 255 255 255 255 255 255 255 255 255 255 255 255 255 255 255 255 255 242 192 160 139 145 185 205 208 209 215 217 213 220 219 217 220 221 216 221 218 218 222 217 219 220 221 220 222 222 219 219 217 220 222 220 220 219 219 220 221 218 218 223 222 219 219 222 219 219 221 216 217 219 215 217 215 217 217 218 216 214 214 213 214 212 210 212 206 208 203 202 192 182 168 179 214 244 255 255 255 255 255 255 255 255 255
255 255 255 255 255 255 255 255 255 255 255 255 255 255 255 255 255 255 255 255 255 255 255 248 203 163 140 141 175 199 204 210 211 215 215 216 218 220 218 219 219 218 222 219 222 216 220 219 224 223 220 220 219 222 222 224 224 220 223 223 222 223 219 221 220 221 219 220 218 220 217 216 218 221 219 221 220 220 218 215 216 218 219 219 216 214 216 215 213 212 208 208 209 198 196 184 166 185 205 237 255 255 255 255 255 255 255 255 255
255 255 255 255 255 255 255 255 255 255 255 255 255 255 255 255 255 255 255 255 255 255 255 253 214 172 151 146 160 197 207 210 213 211 215 219 218 220 221 218 220 220 221 217 219 218 220 222 219 221 219 222 223 221 221 222 221 223 220 221 219 218 218 220 221 219 217 222 219 217 218 221 217 220 221 222 219 217 215 218 219 215 216 214 216 213 214 214 215 211 209 205 204 202 199 190 171 180 197 228 254 255 255 255 255 255 255 255 255
255 255 255 255 255 255 255 255 255 255 255 255 255 255 255 255 255 255 255 255 255 255 255 255 229 182 150 139 150 192 205 209 210 215 215 218 213 218 216 218 219 218 222 219 221 221 222 221 221 220 223 222 218 221 220 222 219 221 219 218 221 221 220 219 218 220 220 219 220 220 220 218 216 222 220 215 219 221 220 218 218 214 219 215 216 214 217 215 215 212 209 209 206 205 197 189 171 176 192 226 251 255 255 255 255 255 255 255 255
255 255 255 255 255 255 255 255 255 255 255 255 255 255 255 255 255 255 255 255 255 255 255 255 242 198 162 145 147 183 201 205 210 214 215 214 217 218 220 219 217 221 218 220 220 220 220 220 218 220 220 222 221 219 221 221 219 221 219 222 220 217 220 219 224 219 221 221 219 219 220 222 219 219 220 220 214 219 216 217 219 220 219 217 217 215 217 213 215 212 209 209 206 204 204 195 174 171 192 219 249 255 255 255 255 255 255 255 255
255 255 255 255 255 255 255 255 255 255 255 255 255 255 255 255 255 255 255 255 255 255 255 255 252 210 164 147 140 170 196 202 209 214 212 215 217 217 218 219 218 219 219 221 219 219 220 221 220 220 219 219 219 219 223 221 219 220 221 219 221 217 221 221 221 217 218 220 220 221 221 219 220 221 218 218 222 216 217 220 219 219 218 216 214 216 217 215 213 210 211 207 208 204 202 191 179 170 190 219 246 255 255 255 255 255 255 255 255
255 255 255 255 255 255 255 255 255 255 255 255 255 255 255 255 255 255 255 255 255 255 255 255 255 228 179 157 139 150 187 203 207 212 212 215 216 216 216 221 218 220 223 222 220 218 220 218 220 221 221 219 222 221 220 220 220 220 218 217 221 219 223 224 219 219 220 220 222 217 218 219 222 221 220 221 219 219 219 216 221 219 219 216 216 219 214 215 211 214 210 210 211 204 199 193 185 174 187 211 241 255 255 255 255 255 255 255 255
255 255 255 255 255 255 255 255 255 255 255 255 255 255 255 255 255 255 255 255 255 255 255 255 255 241 195 161 143 141 179 201 206 209 214 213 216 218 217 218 218 217 221 216 217 217 219 223 219 218 222 220 219 217 221 220 221 224 219 218 219 219 222 220 222 223 224 222 219 219 215 222 216 215 222 218 222 217 217 220 217 220 220 218 216 215 216 214 213 212 211 208 210 206 203 197 183 174 180 210 240 255 255 255 255 255 255 255 255
255 255 255 255 255 255 255 255 255 255 255 255 255 255 255 255 255 255 255 255 255 255 255 255 255 252 211 169 157 137 161 196 201 209 210 212 213 218 218 220 218 215 217 220 219 220 220 221 222 218 221 220 218 221 221 221 221 220 221 221 221 222 220 219 218 222 218 223 223 221 218 222 218 224 220 220 222 220 220 218 218 218 220 215 214 218 216 217 218 212 214 213 205 206 201 195 190 176 182 206 235 255 255 255 255 255 255 255 255
255 255 255 255 255 255 255 255 255 255 255 255 255 255 255 255 255 255 255 255 255 255 255 255 255 255 233 185 151 142 147 187 202 208 210 212 213 217 216 218 215 216 222 220 214 219 220 221 219 220 217 222 220 219 220 221 221 219 218 219 222 223 218 219 220 220 219 221 222 221 222 221 219 222 221 222 220 218 216 220 219 217 219 215 217 213 217 217 213 214 208 210 210 203 204 197 193 178 182 202 234 254 255 255 255 255 255 255 255
255 255 255 255 255 255 255 255 255 255 255 255 255 255 255 255 255 255 255 255 255 255 255 255 255 255 247 204 164 141 140 163 196 205 210 212 214 212 215 219 217 216 217 219 219 218 222 222 222 219 220 222 218 219 219 219 219 220 223 221 221 220 222 222 221 220 221 221 222 220 222 223 220 220 223 218 221 219 218 220 218 215 218 218 214 219 215 217 215 211 214 214 205 205 205 197 192 177 182 204 233 254 255 255 255 255 255 255 255
255 255 255 255 255 255 255 255 255 255 255 255 255 255 255 255 255 255 255 255 255 255 255 255 255 255 255 228 184 156 140 151 186 206 203 209 212 210 219 216 217 218 216 218 220 220 219 216 220 220 216 223 219 219 218 221 222 219 223 221 219 220 219 219 226 217 221 222 220 221 221 223 219 220 223 221 218 224 219 218 221 216 218 216 219 218 217 216 214 214 210 210 209 204 205 199 193 179 184 201 232 254 255 255 255 255 255 255 255
255 255 255 255 255 255 255 255 255 255 255 255 255 255 255 255 255 255 255 255 255 255 255 255 255 255 255 244 198 161 148 145 165 194 205 207 210 212 213 216 216 217 220 217 216 216 221 219 222 218 222 221 221 219 218 218 219 222 220 218 218 221 220 219 220 219 222 219 221 218 220 219 219 220 218 219 222 220 218 222 219 219 220 218 218 217 217 216 213 214 213 211 210 207 203 198 190 174 178 203 231 254 255 255 255 255 255 255 255
255 255 255 255 255 255 255 255 255 255 255 255 255 255 255 255 255 255 255 255 255 255 255 255 255 255 255 254 226 182 156 141 145 180 199 204 206 211 210 213 214 217 218 219 216 222 218 223 222 219 220 222 222 220 221 219 220 222 221 222 220 219 221 222 222 219 222 221 219 218 219 219 218 221 220 218 218 218 218 221 221 219 219 217 219 217 219 214 214 215 214 213 208 209 207 201 198 183 182 204 231 253 255 255 255 255 255 255 255
255 255 255 255 255 255 255 255 255 255 255 255 255 255 255 255 255 255 255 255 255 255 255 255 255 255 255 255 246 204 170 145 138 159 194 203 206 214 216 217 217 216 218 218 217 219 219 220 220 216 219 220 220 221 219 219 218 218 221 218 222 218 218 221 222 220 225 219 224 219 219 222 219 222 219 218 219 221 220 218 216 220 220 216 219 215 216 215 213 217 212 214 208 208 206 200 187 177 182 200 232 253 255 255 255 255 255 255 255
255 255 255 255 255 255 255 255 255 255 255 255 255 255 255 255 255 255 255 255 255 255 255 255 255 255 255 255 254 230 183 152 140 136 171 199 208 209 212 212 218 217 219 216 217 217 219 220 221 220 219 222 222 219 219 220 218 222 221 219 219 220 221 223 218 222 223 218 219 219 221 219 221 218 218 216 222 218 218 218 220 217 221 219 218 219 217 218 212 215 213 211 209 212 203 198 189 179 185 207 235 254 255 255 255 255 255 255 255
255 255 255 255 255 255 255 255 255 255 255 255 255 255 255 255 255 255 255 255 255 255 255 255 255 255 255 255 255 249 210 174 151 139 150 185 202 206 206 212 215 217 213 221 216 219 221 219 219 219 217 220 218 223 221 222 220 222 218 222 221 222 221 220 220 220 222 223 222 218 220 221 220 220 222 220 221 221 217 216 217 216 218 221 218 214 217 216 217 215 212 211 209 203 206 195 193 176 186 207 233 254 255 255 255 255 255 255 255
255 255 255 255 255 255 255 255 255 255 255 255 255 255 255 255 255 255 255 255 255 255 255 255 255 255 255 255 255 255 238 191 162 140 141 158 194 206 208 213 210 211 214 217 216 218 217 215 216 221 216 220 219 218 222 218 222 221 218 221 220 220 218 225 220 218 223 224 219 223 220 222 221 223 222 218 222 220 219 219 218 220 221 216 217 214 218 219 214 215 210 214 213 205 204 200 189 179 189 207 238 254 255 255 255 255 255 255 255
255 255 255 255 255 255 255 255 255 255 255 255 255 255 255 255 255 255 255 255 255 255 255 255 255 255 255 255 255 255 253 218 184 145 144 149 169 193 209 209 210 213 213 215 215 222 219 216 217 219 216 218 220 218 220 220 218 221 221 218 220 222 221 220 223 220 223 221 220 220 221 220 221 219 222 218 222 221 222 222 220 220 219 219 216 219 217 218 214 216 213 211 207 210 201 203 188 183 187 213 239 255 255 255 255 255 255 255 255
255 255 255 255 255 255 255 255 255 255 255 255 255 255 255 255 255 255 255 255 255 255 255 255 255 255 255 255 255 255 255 245 205 171 154 140 147 173 201 206 206 211 214 214 215 215 217 217 219 217 218 221 220 216 223 219 222 220 219 219 220 220 219 221 221 217 222 223 222 223 223 223 219 219 220 221 220 220 220 219 219 222 219 218 219 216 218 215 212 214 216 210 210 207 203 195 191 181 193 218 243 255 255 255 255 255 255 255 255
255 255 255 255 255 255 255 255 255 255 255 255 255 255 255 255 255 255 255 255 255 255 255 255 255 255 255 255 255 255 255 255 237 192 164 149 142 153 184 200 208 211 210 212 213 216 217 216 216 214 217 215 217 219 221 222 220 223 218 219 220 217 218 220 220 222 221 219 222 219 221 218 222 223 217 218 219 222 218 216 222 218 218 223 217 217 215 216 215 212 214 211 208 204 205 200 188 178 194 221 246 255 255 255 255 255 255 255 255
255 255 255 255 255 255 255 255 255 255 255 255 255 255 255 255 255 255 255 255 255 255 255 255 255 255 255 255 255 255 255 255 254 229 185 162 144 142 161 184 206 206 206 210 212 215 213 215 218 216 218 218 218 221 222 217 218 220 218 222 221 220 220 221 221 222 221 221 221 220 221 221 222 222 218 223 219 220 215 221 218 214 219 218 218 215 218 216 213 217 213 210 207 206 201 202 184 182 199 225 249 255 255 255 255 255 255 255 255
255 255 255 255 255 255 255 255 255 255 255 255 255 255 255 255 255 255 255 255 255 255 255 255 255 255 255 255 255 255 255 255 255 251 215 183 159 143 143 161 189 202 207 207 214 208 215 214 213 216 215 220 217 220 220 222 217 221 219 222 222 220 219 220 224 221 221 219 221 219 219 222 221 223 222 222 222 219 218 221 220 218 219 217 216 219 218 218 217 211 211 203 205 202 199 198 180 185 205 231 251 255 255 255 255 255 255 255 255
255 255 255 255 255 255 255 255 255 255 255 255 255 255 255 255 255 255 255 255 255 255 255 255 255 255 255 255 255 255 255 255 255 255 247 211 177 156 141 141 163 192 205 206 209 212 213 213 216 217 216 215 221 220 220 220 219 220 219 220 220 221 219 218 222 218 219 221 220 217 223 222 222 223 220 219 220 220 219 218 215 216 220 219 218 217 216 213 214 211 213 211 206 200 202 188 185 186 210 235 253 255 255 255 255 255 255 255 255
255 255 255 255 255 255 255 255 255 255 255 255 255 255 255 255 255 255 255 255 255 255 255 255 255 255 255 255 255 255 255 255 255 255 255 244 207 172 145 146 141 162 191 207 208 209 210 210 209 213 215 216 214 217 218 221 218 218 219 219 222 221 219 218 222 218 221 220 218 221 219 221 221 220 221 218 218 218 220 219 219 222 218 217 218 216 214 214 213 212 211 210 205 202 198 188 181 191 215 239 254 255 255 255 255 255 255 255 255
255 255 255 255 255 255 255 255 255 255 255 255 255 255 255 255 255 255 255 255 255 255 255 255 255 255 255 255 255 255 255 255 255 255 255 255 240 201 170 155 147 145 160 187 202 206 208 207 215 215 214 217 216 215 218 216 215 217 217 218 217 220 219 221 219 220 217 222 220 221 220 219 221 221 218 219 220 219 223 219 219 220 216 215 217 219 213 213 213 212 209 203 210 200 196 186 179 193 226 247 255 255 255 255 255 255 255 255 255
255 255 255 255 255 255 255 255 255 255 255 255 255 255 255 255 255 255 255 255 255 255 255 255 255 255 255 255 255 255 255 255 255 255 255 255 254 238 201 169 153 143 141 147 184 201 205 206 209 211 213 214 215 214 217 214 220 219 216 219 217 218 217 218 219 221 221 222 218 219 219 217 217 219 220 219 222 219 218 218 216 214 218 217 216 216 215 215 207 212 209 206 208 197 194 184 182 210 230 251 255 255 255 255 255 255 255 255 255
255 255 255 255 255 255 255 255 255 255 255 255 255 255 255 255 255 255 255 255 255 255 255 255 255 255 255 255 255 255 255 255 255 255 255 255 255 255 238 201 170 154 139 141 152 178 196 200 205 208 214 214 213 211 215 216 218 216 215 221 218 219 217 218 218 222 216 217 220 218 218 220 218 219 217 221 217 218 217 219 215 217 218 216 216 217 212 215 207 212 204 204 200 200 190 178 193 211 237 254 255 255 255 255 255 255 255 255 255
255 255 255 255 255 255 255 255 255 255 255 255 255 255 255 255 255 255 255 255 255 255 255 255 255 255 255 255 255 255 255 255 255 255 255 255 255 255 255 238 206 177 155 147 139 147 174 197 205 207 209 213 207 215 212 212 213 216 213 212 218 216 216 215 220 220 217 217 219 218 219 222 219 221 218 219 220 216 215 217 220 214 220 217 215 217 212 211 209 211 202 206 200 193 177 181 199 220 246 255 255 255 255 255 255 255 255 255 255
255 255 255 255 255 255 255 255 255 255 255 255 255 255 255 255 255 255 255 255 255 255 255 255 255 255 255 255 255 255 255 255 255 255 255 255 255 255 255 255 245 209 173 161 141 139 145 166 184 201 206 205 204 209 213 214 213 216 212 213 212 217 217 217 217 220 219 219 219 219 216 217 220 220 217 220 217 217 218 215 217 220 214 217 213 210 216 210 210 207 205 201 195 188 179 188 203 231 252 255 255 255 255 255 255 255 255 255 255
255 255 255 255 255 255 255 255 255 255 255 255 255 255 255 255 255 255 255 255 255 255 255 255 255 255 255 255 255 255 255 255 255 255 255 255 255 255 255 255 255 246 213 187 162 147 141 147 155 175 198 202 207 210 207 209 212 215 214 217 215 214 215 218 216 215 217 215 217 220 216 216 218 217 217 217 217 216 216 219 217 217 218 217 216 214 211 209 207 206 205 201 191 180 181 198 220 244 255 255 255 255 255 255 255 255 255 255 255
255 255 255 255 255 255 255 255 255 255 255 255 255 255 255 255 255 255 255 255 255 255 255 255 255 255 255 255 255 255 255 255 255 255 255 255 255 255 255 255 255 255 251 224 194 173 154 144 135 143 166 188 200 204 207 209 208 208 211 212 216 216 214 215 213 215 216 216 215 218 218 217 216 217 218 215 217 215 216 215 218 214 217 214 212 212 207 210 202 199 204 194 184 182 185 209 231 250 255 255 255 255 255 255 255 255 255 255 255
255 255 255 255 255 255 255 255 255 255 255 255 255 255 255 255 255 255 255 255 255 255 255 255 255 255 255 255 255 255 255 255 255 255 255 255 255 255 255 255 255 255 255 253 237 204 177 163 152 145 137 150 165 191 201 205 208 207 211 207 210 212 213 211 210 214 213 211 218 216 213 214 218 214 211 217 217 213 214 216 214 214 211 215 212 213 207 206 202 199 191 187 180 186 202 221 243 255 255 255 255 255 255 255 255 255 255 255 255
255 255 255 255 255 255 255 255 255 255 255 255 255 255 255 255 255 255 255 255 255 255 255 255 255 255 255 255 255 255 255 255 255 255 255 255 255 255 255 255 255 255 255 255 255 243 219 191 172 156 142 146 141 155 171 188 201 205 206 207 208 210 212 208 210 216 212 215 211 218 211 213 216 215 213 216 212 214 214 214 214 210 208 213 209 206 204 205 201 195 188 180 185 199 222 238 253 255 255 255 255 255 255 255 255 255 255 255 255
255 255 255 255 255 255 255 255 255 255 255 255 255 255 255 255 255 255 255 255 255 255 255 255 255 255 255 255 255 255 255 255 255 255 255 255 255 255 255 255 255 255 255 255 255 255 251 231 205 179 166 155 144 145 147 153 166 186 199 202 204 209 205 207 206 209 210 207 212 211 214 211 215 212 215 214 213 212 209 214 208 210 208 204 208 204 201 199 194 185 175 184 196 217 232 250 255 255 255 255 255 255 255 255 255 255 255 255 255
255 255 255 255 255 255 255 255 255 255 255 255 255 255 255 255 255 255 255 255 255 255 255 255 255 255 255 255 255 255 255 255 255 255 255 255 255 255 255 255 255 255 255 255 255 255 255 255 246 218 197 178 157 150 138 143 139 149 159 178 193 201 201 204 204 209 209 209 211 209 209 209 211 210 212 210 209 208 209 210 207 210 204 204 203 198 194 185 182 187 186 196 212 229 247 255 255 255 255 255 255 255 255 255 255 255 255 255 255
255 255 255 255 255 255 255 255 255 255 255 255 255 255 255 255 255 255 255 255 255 255 255 255 255 255 255 255 255 255 255 255 255 255 255 255 255 255 255 255 255 255 255 255 255 255 255 255 255 253 241 213 192 175 159 153 145 141 144 141 150 171 184 190 197 200 201 205 204 209 203 203 208 207 204 209 206 204 207 203 206 202 203 201 196 191 181 182 173 185 198 214 229 244 255 255 255 255 255 255 255 255 255 255 255 255 255 255 255
255 255 255 255 255 255 255 255 255 255 255 255 255 255 255 255 255 255 255 255 255 255 255 255 255 255 255 255 255 255 255 255 255 255 255 255 255 255 255 255 255 255 255 255 255 255 255 255 255 255 255 252 237 217 196 180 160 154 147 146 143 143 152 153 162 174 186 190 198 197 201 199 201 203 203 198 198 199 202 201 195 194 192 184 181 179 175 180 184 198 215 230 247 255 255 255 255 255 255 255 255 255 255 255 255 255 255 255 255
255 255 255 255 255 255 255 255 255 255 255 255 255 255 255 255 255 255 255 255 255 255 255 255 255 255 255 255 255 255 255 255 255 255 255 255 255 255 255 255 255 255 255 255 255 255 255 255 255 255 255 255 255 251 239 217 198 184 170 160 154 150 143 140 147 145 151 156 161 170 172 179 182 186 185 189 192 187 187 184 182 184 178 170 172 174 180 195 206 215 234 248 255 255 255 255 255 255 255 255 255 255 255 255 255 255 255 255 255
255 255 255 255 255 255 255 255 255 255 255 255 255 255 255 255 255 255 255 255 255 255 255 255 255 255 255 255 255 255 255 255 255 255 255 255 255 255 255 255 255 255 255 255 255 255 255 255 255 255 255 255 255 255 255 254 244 228 207 193 178 174 160 155 153 148 142 144 142 141 143 144 152 150 148 155 155 158 161 161 160 166 169 171 177 191 203 211 224 240 250 255 255 255 255 255 255 255 255 255 255 255 255 255 255 255 255 255 255
255 255 255 255 255 255 255 255 255 255 255 255 255 255 255 255 255 255 255 255 255 255 255 255 255 255 255 255 255 255 255 255 255 255 255 255 255 255 255 255 255 255 255 255 255 255 255 255 255 255 255 255 255 255 255 255 255 255 249 238 226 204 196 181 173 167 160 161 147 157 150 143 146 148 144 152 153 157 164 168 165 177 183 192 196 207 224 235 248 254 255 255 255 255 255 255 255 255 255 255 255 255 255 255 255 255 255 255 255
255 255 255 255 255 255 255 255 255 255 255 255 255 255 255 255 255 255 255 255 255 255 255 255 255 255 255 255 255 255 255 255 255 255 255 255 255 255 255 255 255 255 255 255 255 255 255 255 255 255 255 255 255 255 255 255 255 255 255 255 254 250 241 228 217 206 195 188 180 176 168 165 162 168 163 163 170 172 175 187 191 195 204 214 223 236 246 253 255 255 255 255 255 255 255 255 255 255 255 255 255 255 255 255 255 255 255 255 255
255 255 255 255 255 255 255 255 255 255 255 255 255 255 255 255 255 255 255 255 255 255 255 255 255 255 255 255 255 255 255 255 255 255 255 255 255 255 255 255 255 255 255 255 255 255 255 255 255 255 255 255 255 255 255 255 255 255 255 255 255 255 255 255 252 249 242 233 225 216 211 200 201 197 197 199 202 203 207 217 216 227 235 240 249 254 255 255 255 255 255 255 255 255 255 255 255 255 255 255 255 255 255 255 255 255 255 255 255
255 255 255 255 255 255 255 255 255 255 255 255 255 255 255 255 255 255 255 255 255 255 255 255 255 255 255 255 255 255 255 255 255 255 255 255 255 255 255 255 255 255 255 255 255 255 255 255 255 255 255 255 255 255 255 255 255 255 255 255 255 255 255 255 255 255 255 255 255 254 252 249 246 244 242 243 240 243 246 249 251 254 255 255 255 255 255 255 255 255 255 255 255 255 255 255 255 255 255 255 255 255 255 255 255 255 255 255 255
255 255 255 255 255 255 255 255 255 255 255 255 255 255 255 255 255 255 255 255 255 255 255 255 255 255 255 255 255 255 255 255 255 255 255 255 255 255 255 255 255 255 255 255 255 255 255 255 255 255 255 255 255 255 255 255 255 255 255 255 255 255 255 255 255 255 255 255 255 255 255 255 255 255 255 255 255 255 255 255 255 255 255 255 255 255 255 255 255 255 255 255 255 255 255 255 255 255 255 255 255 255 255 255 255 255 255 255 255
255 255 255 255 255 255 255 255 255 255 255 255 255 255 255 255 255 255 255 255 255 255 255 255 255 255 255 255 255 255 255 255 255 255 255 255 255 255 255 255 255 255 255 255 255 255 255 255 255 255 255 255 255 255 255 255 255 255 255 255 255 255 255 255 255 255 255 255 255 255 255 255 255 255 255 255 255 255 255 255 255 255 255 255 255 255 255 255 255 255 255 255 255 255 255 255 255 255 255 255 255 255 255 255 255 255 255 255 255
255 255 255 255 255 255 255 255 255 255 255 255 255 255 255 255 255 255 255 255 255 255 255 255 255 255 255 255 255 255 255 255 255 255 255 255 255 255 255 255 255 255 255 255 255 255 255 255 255 255 255 255 255 255 255 255 255 255 255 255 255 255 255 255 255 255 255 255 255 255 255 255 255 255 255 255 255 255 255 255 255 255 255 255 255 255 255 255 255 255 255 255 255 255 255 255 255 255 255 255 255 255 255 255 255 255 255 255 255
255 255 255 255 255 255 255 255 255 255 255 255 255 255 255 255 255 255 255 255 255 255 255 255 255 255 255 255 255 255 255 255 255 255 255 255 255 255 255 255 255 255 255 255 255 255 255 255 255 255 255 255 255 255 255 255 255 255 255 255 255 255 255 255 255 255 255 255 255 255 255 255 255 255 255 255 255 255 255 255 255 255 255 255 255 255 255 255 255 255 255 255 255 255 255 255 255 255 255 255 255 255 255 255 255 255 255 255 255
255 255 255 255 255 255 255 255 255 255 255 255 255 255 255 255 255 255 255 255 255 255 255 255 255 255 255 255 255 255 255 255 255 255 255 255 255 255 255 255 255 255 255 255 255 255 255 255 255 255 255 255 255 255 255 255 255 255 255 255 255 255 255 255 255 255 255 255 255 255 255 255 255 255 255 255 255 255 255 255 255 255 255 255 255 255 255 255 255 255 255 255 255 255 255 255 255 255 255 255 255 255 255 255 255 255 255 255 255
255 255 255 255 255 255 255 255 255 255 255 255 255 255 255 255 255 255 255 255 255 255 255 255 255 255 255 255 255 255 255 255 255 255 255 255 255 255 255 255 255 255 255 255 255 255 255 255 255 255 255 255 255 255 255 255 255 255 255 255 255 255 255 255 255 255 255 255 255 255 255 255 255 255 255 255 255 255 255 255 255 255 255 255 255 255 255 255 255 255 255 255 255 255 255 255 255 255 255 255 255 255 255 255 255 255 255 255 255
255 255 255 255 255 255 255 255 255 255 255 255 255 255 255 255 255 255 255 255 255 255 255 255 255 255 255 255 255 255 255 255 255 255 255 255 255 255 255 255 255 255 255 255 255 255 255 255 255 255 255 255 255 255 255 255 255 255 255 255 255 255 255 255 255 255 255 255 255 255 255 255 255 255 255 255 255 255 255 255 255 255 255 255 255 255 255 255 255 255 255 255 255 255 255 255 255 255 255 255 255 255 255 255 255 255 255 255 255
255 255 255 255 255 255 255 255 255 255 255 255 255 255 255 255 255 255 255 255 255 255 255 255 255 255 255 255 255 255 255 255 255 255 255 255 255 255 255 255 255 255 255 255 255 255 255 255 255 255 255 255 255 255 255 255 255 255 255 255 255 255 255 255 255 255 255 255 255 255 255 255 255 255 255 255 255 255 255 255 255 255 255 255 255 255 255 255 255 255 255 255 255 255 255 255 255 255 255 255 255 255 255 255 255 255 255 255 255
255 255 255 255 255 255 255 255 255 255 255 255 255 255 255 255 255 255 255 255 255 255 255 255 255 255 255 255 255 255 255 255 255 255 255 255 255 255 255 255 255 255 255 255 255 255 255 255 255 255 255 255 255 255 255 255 255 255 255 255 255 255 255 255 255 255 255 255 255 255 255 255 255 255 255 255 255 255 255 255 255 255 255 255 255 255 255 255 255 255 255 255 255 255 255 255 255 255 255 255 255 255 255 255 255 255 255 255 255
255 255 255 255 255 255 255 255 255 255 255 255 255 255 255 255 255 255 255 255 255 255 255 255 255 255 255 255 255 255 255 255 255 255 255 255 255 255 255 255 255 255 255 255 255 255 255 255 255 255 255 255 255 255 255 255 255 255 255 255 255 255 255 255 255 255 255 255 255 255 255 255 255 255 255 255 255 255 255 255 255 255 255 255 255 255 255 255 255 255 255 255 255 255 255 255 255 255 255 255 255 255 255 255 255 255 255 255 255
255 255 255 255 255 255 255 255 255 255 255 255 255 255 255 255 255 255 255 255 255 255 255 255 255 255 255 255 255 255 255 255 255 255 255 255 255 255 255 255 255 255 255 255 255 255 255 255 255 255 255 255 255 255 255 255 255 255 255 255 255 255 255 255 255 255 255 255 255 255 255 255 255 255 255 255 255 255 255 255 255 255 255 255 255 255 255 255 255 255 255 255 255 255 255 255 255 255 255 255 255 255 255 255 255 255 255 255 255
255 255 255 255 255 255 255 255 255 255 255 255 255 255 255 255 255 255 255 255 255 255 255 255 255 255 255 255 255 255 255 255 255 255 255 255 255 255 255 255 255 255 255 255 255 255 255 255 255 255 255 255 255 255 255 255 255 255 255 255 255 255 255 255 255 255 255 255 255 255 255 255 255 255 255 255 255 255 255 255 255 255 255 255 255 255 255 255 255 255 255 255 255 255 255 255 255 255 255 255 255 255 255 255 255 255 255 255 255
255 255 255 255 255 255 255 255 255 255 255 255 255 255 255 255 255 255 255 255 255 255 255 255 255 255 255 255 255 255 255 255 255 255 255 255 255 255 255 255 255 255 255 255 255 255 255 255 255 255 255 255 255 255 255 255 255 255 255 255 255 255 255 255 255 255 255 255 255 255 255 255 255 255 255 255 255 255 255 255 255 255 255 255 255 255 255 255 255 255 255 255 255 255 255 255 255 255 255 255 255 255 255 255 255 255 255 255 255
