P2
92 92
255
255 255 255 255 255 255 255 255 255 255 255 255 255 255 255 255 255 255 255 255 255 255 255 255 255 255 255 255 255 255 255 255 255 255 255 255 255 255 255 255 255 255 255 255 255 255 255 255 255 255 255 255 255 255 255 255 255 255 255 255 255 255 255 255 255 255 255 255 255 255 255 255 255 255 255 255 255 255 255 255 255 255 255 255 255 255 255 255 255 255 255 255
255 255 255 255 255 255 255 255 255 255 255 255 255 255 255 255 255 255 255 255 255 255 255 255 255 255 255 255 255 255 255 255 255 255 255 255 255 255 255 255 255 255 255 255 255 255 255 255 255 255 255 255 255 255 255 255 255 255 255 255 255 255 255 255 255 255 255 255 255 255 255 255 255 255 255 255 255 255 255 255 255 255 255 255 255 255 255 255 255 255 255 255
255 255 255 255 255 255 255 255 255 255 255 255 255 255 255 255 255 255 255 255 255 255 255 255 255 255 255 255 255 255 255 255 255 255 255 255 255 255 255 255 255 255 255 255 255 255 255 255 255 255 255 255 255 255 255 255 255 255 255 255 255 255 255 255 255 255 255 255 255 255 255 255 255 255 255 255 255 255 255 255 255 255 255 255 255 255 255 255 255 255 255 255
255 255 255 255 255 255 255 255 255 255 255 255 255 255 255 255 255 255 255 255 255 255 255 255 255 255 255 255 255 255 255 255 255 255 255 255 255 255 255 255 255 255 255 255 255 255 255 255 255 255 255 255 255 255 255 255 255 255 255 255 255 255 255 255 255 255 255 255 255 255 255 255 255 255 255 255 255 255 255 255 255 255 255 255 255 255 255 255 255 255 255 255
255 255 255 255 255 255 255 255 255 255 255 255 255 255 255 255 255 255 255 255 255 255 255 255 255 255 255 255 255 255 255 255 255 254 252 252 251 250 249 248 249 248 249 249 250 252 253 254 255 255 255 255 255 255 255 255 255 255 255 255 255 255 255 255 255 255 255 255 255 255 255 255 255 255 255 255 255 255 255 255 255 255 255 255 255 255 255 255 255 255 255 255
255 255 255 255 255 255 255 255 255 255 255 255 255 255 255 255 255 255 255 255 255 255 255 255 255 255 255 255 255 255 252 249 245 243 239 237 236 234 232 231 231 231 230 233 232 238 240 243 245 248 251 254 255 255 255 255 255 255 255 255 255 255 255 255 255 255 255 255 255 255 255 255 255 255 255 255 255 255 255 255 255 255 255 255 255 255 255 255 255 255 255 255
255 255 255 255 255 255 255 255 255 255 255 255 255 255 255 255 255 255 255 255 255 255 255 255 255 255 255 252 247 243 238 233 228 225 221 216 218 216 212 213 210 212 215 216 215 217 221 226 225 231 238 241 244 249 253 255 255 255 255 255 255 255 255 255 255 255 255 255 255 255 255 255 255 255 255 255 255 255 255 255 255 255 255 255 255 255 255 255 255 255 255 255
255 255 255 255 255 255 255 255 255 255 255 255 255 255 255 255 255 255 255 255 255 255 255 255 254 251 246 238 231 224 219 212 209 203 200 200 197 195 198 192 195 195 196 195 196 204 202 203 208 213 215 223 228 234 239 244 249 254 255 255 255 255 255 255 255 255 255 255 255 255 255 255 255 255 255 255 255 255 255 255 255 255 255 255 255 255 255 255 255 255 255 255
255 255 255 255 255 255 255 255 255 255 255 255 255 255 255 255 255 255 255 255 255 255 255 251 243 233 225 217 209 201 202 197 191 188 187 184 183 180 180 179 182 179 180 183 184 181 184 189 191 193 199 204 208 216 221 227 232 244 250 253 255 255 255 255 255 255 255 255 255 255 255 255 255 255 255 255 255 255 255 255 255 255 255 255 255 255 255 255 255 255 255 255
255 255 255 255 255 255 255 255 255 255 255 255 255 255 255 255 255 255 255 255 255 252 242 233 225 216 208 198 195 189 184 180 179 174 174 176 176 172 173 174 172 175 176 175 177 171 179 175 176 182 184 185 189 194 205 211 217 223 233 241 247 253 255 255 255 255 255 255 255 255 255 255 255 255 255 255 255 255 255 255 255 255 255 255 255 255 255 255 255 255 255 255
255 255 255 255 255 255 255 255 255 255 255 255 255 255 255 255 255 255 255 255 248 239 227 217 203 199 192 185 176 170 173 170 173 175 177 179 180 181 177 181 180 178 180 177 179 178 179 177 176 174 173 179 178 181 190 192 200 206 212 221 232 241 247 254 255 255 255 255 255 255 255 255 255 255 255 255 255 255 255 255 255 255 255 255 255 255 255 255 255 255 255 255
255 255 255 255 255 255 255 255 255 255 255 255 255 255 255 255 255 255 253 243 231 219 203 198 187 180 176 172 170 168 172 171 173 178 181 182 182 186 182 184 183 184 184 181 191 183 182 181 183 179 178 178 180 171 173 178 183 190 195 208 215 224 233 244 251 255 255 255 255 255 255 255 255 255 255 255 255 255 255 255 255 255 255 255 255 255 255 255 255 255 255 255
255 255 255 255 255 255 255 255 255 255 255 255 255 255 255 255 255 251 241 226 211 199 188 178 170 169 164 169 170 180 179 183 181 186 186 186 191 187 185 184 191 188 190 187 184 185 185 184 187 183 183 180 180 179 181 176 172 178 185 189 200 207 215 227 239 248 254 255 255 255 255 255 255 255 255 255 255 255 255 255 255 255 255 255 255 255 255 255 255 255 255 255
255 255 255 255 255 255 255 255 255 255 255 255 255 255 255 255 252 237 221 208 192 185 172 166 162 164 174 176 181 183 184 186 182 187 187 188 188 185 190 189 191 189 187 190 189 189 190 186 189 189 184 186 183 181 181 180 178 176 177 173 184 190 202 211 223 231 243 253 255 255 255 255 255 255 255 255 255 255 255 255 255 255 255 255 255 255 255 255 255 255 255 255
255 255 255 255 255 255 255 255 255 255 255 255 255 255 255 252 236 219 201 191 174 168 159 161 165 168 176 178 180 185 188 189 187 192 188 190 190 190 189 187 191 191 191 190 193 193 193 191 187 190 185 189 186 185 184 186 178 179 176 176 173 179 185 193 207 215 226 239 250 255 255 255 255 255 255 255 255 255 255 255 255 255 255 255 255 255 255 255 255 255 255 255
255 255 255 255 255 255 255 255 255 255 255 255 255 255 253 239 218 198 182 176 165 159 159 170 172 180 181 185 186 190 188 188 189 191 195 192 194 192 190 193 193 189 191 193 195 190 193 189 189 192 190 190 190 185 185 187 186 179 182 177 175 172 175 181 188 198 212 228 236 248 254 255 255 255 255 255 255 255 255 255 255 255 255 255 255 255 255 255 255 255 255 255
255 255 255 255 255 255 255 255 255 255 255 255 255 255 242 221 201 186 173 162 152 159 168 172 179 186 188 188 188 191 188 191 191 191 195 191 191 195 193 194 192 192 194 192 189 192 189 192 192 191 190 190 192 189 188 189 187 187 184 180 179 179 175 175 178 185 196 209 220 235 247 254 255 255 255 255 255 255 255 255 255 255 255 255 255 255 255 255 255 255 255 255
255 255 255 255 255 255 255 255 255 255 255 255 255 247 226 207 189 169 162 151 153 165 174 178 184 189 190 190 193 189 192 192 193 195 195 190 193 195 194 195 196 193 193 195 195 193 194 190 194 190 193 192 191 189 192 191 188 186 189 183 181 181 181 176 172 172 185 194 206 221 231 245 253 255 255 255 255 255 255 255 255 255 255 255 255 255 255 255 255 255 255 255
255 255 255 255 255 255 255 255 255 255 255 255 251 233 209 191 171 156 153 150 163 176 178 186 186 187 187 192 194 192 194 191 196 194 195 191 194 196 191 195 198 196 192 191 195 193 193 193 192 194 195 190 189 192 192 189 189 189 190 188 185 181 183 179 180 172 175 181 191 204 216 232 244 254 255 255 255 255 255 255 255 255 255 255 255 255 255 255 255 255 255 255
255 255 255 255 255 255 255 255 255 255 255 255 241 216 194 177 163 153 146 165 174 183 182 184 189 187 190 191 190 192 192 195 194 196 195 195 196 192 197 196 197 191 192 194 198 196 194 192 193 195 191 193 193 194 194 190 190 189 185 188 187 186 185 184 178 175 170 174 177 187 202 218 232 245 254 255 255 255 255 255 255 255 255 255 255 255 255 255 255 255 255 255
255 255 255 255 255 255 255 255 255 255 255 247 222 200 177 159 151 151 158 171 177 182 190 188 191 191 189 194 190 193 195 200 193 195 196 195 196 195 192 196 197 195 196 195 194 192 195 194 193 195 195 194 193 189 193 188 191 189 190 187 189 191 185 181 183 178 175 171 173 178 193 201 217 232 247 254 255 255 255 255 255 255 255 255 255 255 255 255 255 255 255 255
255 255 255 255 255 255 255 255 255 255 254 236 212 189 169 154 146 153 168 177 183 183 189 188 189 198 192 190 192 195 193 197 197 195 194 198 198 194 195 196 199 198 196 195 197 195 196 198 195 194 191 194 192 194 191 194 193 193 192 192 187 191 187 187 180 185 182 177 176 175 181 190 202 215 235 248 255 255 255 255 255 255 255 255 255 255 255 255 255 255 255 255
255 255 255 255 255 255 255 255 255 255 246 220 196 175 156 146 141 157 176 184 184 190 195 193 193 193 194 192 195 194 194 193 197 194 194 197 195 194 196 194 196 195 197 196 196 195 192 194 197 198 192 192 194 194 196 192 192 191 192 188 193 188 188 189 187 184 184 180 180 173 174 180 193 205 220 237 249 255 255 255 255 255 255 255 255 255 255 255 255 255 255 255
255 255 255 255 255 255 255 255 255 255 235 208 185 163 144 141 149 169 176 181 186 189 190 190 190 197 193 192 194 195 196 199 197 200 196 193 198 198 196 195 196 198 194 194 194 196 194 194 193 197 194 194 192 195 191 191 193 192 191 194 191 191 189 188 193 184 187 185 179 177 179 171 177 191 207 224 239 252 255 255 255 255 255 255 255 255 255 255 255 255 255 255
255 255 255 255 255 255 255 255 255 249 222 196 174 150 144 143 156 173 181 184 187 190 192 192 192 193 195 199 195 198 194 193 199 198 196 199 193 197 194 200 198 195 197 195 195 194 197 195 192 194 195 196 193 195 191 193 192 190 192 189 192 192 191 195 191 188 183 185 186 180 180 173 174 180 197 212 227 243 254 255 255 255 255 255 255 255 255 255 255 255 255 255
255 255 255 255 255 255 255 255 255 239 208 181 156 145 144 143 168 178 181 188 187 186 187 193 194 194 193 193 194 194 198 196 196 198 195 196 195 195 197 196 194 195 197 196 192 196 191 193 195 196 192 197 195 195 195 192 194 190 191 190 193 192 194 193 192 191 187 186 184 185 179 177 169 174 182 199 217 232 245 255 255 255 255 255 255 255 255 255 255 255 255 255
255 255 255 255 255 255 255 255 254 226 200 173 151 138 138 156 171 182 181 189 186 189 192 193 192 197 192 197 196 199 194 195 191 196 197 194 195 198 194 195 196 192 193 196 195 194 194 195 196 196 194 194 194 193 194 194 192 192 195 192 190 192 192 193 190 189 187 187 186 183 182 180 176 172 173 190 203 221 236 251 255 255 255 255 255 255 255 255 255 255 255 255
255 255 255 255 255 255 255 255 247 213 185 161 142 135 138 166 174 180 186 190 188 192 195 191 194 195 196 197 192 194 197 196 193 193 196 197 192 198 194 195 194 193 198 197 195 195 195 194 197 192 194 194 194 197 194 191 190 193 194 195 192 193 190 192 192 191 190 185 187 184 184 182 178 174 176 180 191 210 228 243 254 255 255 255 255 255 255 255 255 255 255 255
255 255 255 255 255 255 255 255 239 207 180 151 141 133 147 169 181 186 187 190 192 193 192 193 193 197 196 196 197 197 197 198 199 197 197 196 194 194 195 197 198 196 195 195 194 196 195 196 195 195 195 190 193 193 195 193 194 196 192 193 193 193 192 192 192 194 193 192 188 187 186 185 183 179 173 174 183 202 214 234 249 255 255 255 255 255 255 255 255 255 255 255
255 255 255 255 255 255 255 255 223 194 165 146 133 132 149 175 180 181 188 188 191 195 195 196 195 192 195 194 198 193 194 198 195 195 197 196 197 196 197 196 196 193 197 194 192 194 193 194 197 195 191 198 195 193 192 196 190 197 195 191 194 193 196 193 193 191 192 189 187 188 190 186 185 179 175 169 179 191 204 224 242 253 255 255 255 255 255 255 255 255 255 255
255 255 255 255 255 255 255 252 218 187 160 137 131 135 161 175 178 183 192 190 191 194 194 196 194 194 195 196 194 193 197 196 196 195 196 194 197 197 194 195 196 196 196 195 193 194 198 198 193 194 195 197 193 192 192 193 194 194 191 195 192 194 192 193 192 193 191 192 193 189 188 186 186 181 178 176 172 182 199 217 231 247 255 255 255 255 255 255 255 255 255 255
255 255 255 255 255 255 255 246 208 175 151 133 127 135 163 179 183 186 191 192 191 195 191 196 196 198 194 196 195 193 194 195 196 196 194 195 196 197 193 194 192 194 192 191 196 195 192 194 196 193 194 195 192 191 193 192 195 192 193 193 194 192 191 194 191 189 187 193 191 190 188 187 185 184 181 177 172 178 186 203 221 240 253 255 255 255 255 255 255 255 255 255
255 255 255 255 255 255 255 240 202 168 146 134 123 141 169 181 184 186 189 188 191 194 193 195 195 193 196 196 195 196 195 194 195 195 197 196 194 195 195 196 194 194 191 196 191 193 193 191 191 198 187 193 193 193 195 193 192 193 192 196 191 192 192 192 193 191 192 190 190 189 188 187 190 181 179 180 176 172 180 198 212 232 248 255 255 255 255 255 255 255 255 255
255 255 255 255 255 255 255 232 191 161 145 125 123 145 170 181 184 190 189 191 191 194 194 194 195 196 195 196 197 193 197 194 194 196 193 197 198 193 194 194 193 193 195 194 192 193 193 193 193 191 193 191 191 193 194 193 197 195 190 195 191 195 193 195 194 198 191 189 188 194 189 189 190 185 186 182 174 173 175 187 204 224 240 254 255 255 255 255 255 255 255 255
255 255 255 255 255 255 255 227 187 158 137 122 124 154 174 181 185 187 191 190 193 193 196 197 196 197 196 194 195 196 192 196 195 197 194 195 194 196 191 197 193 195 189 194 193 195 194 192 196 196 192 190 192 195 195 193 189 195 195 193 191 189 190 194 193 194 190 192 190 191 190 188 188 185 186 185 178 174 173 182 196 214 233 248 255 255 255 255 255 255 255 255
255 255 255 255 255 255 255 220 181 153 129 124 126 156 175 185 186 190 191 190 195 194 196 195 194 196 197 194 197 195 196 199 195 194 194 193 194 195 193 192 194 195 195 194 193 195 192 193 193 192 192 196 197 190 192 195 193 192 193 193 193 199 192 194 193 193 193 192 192 191 190 189 189 189 188 184 180 175 174 178 189 210 226 243 255 255 255 255 255 255 255 255
255 255 255 255 255 255 254 217 182 150 129 116 128 160 174 179 185 188 189 191 192 192 194 191 194 196 196 198 196 195 196 195 194 194 195 193 193 190 193 193 195 192 193 196 194 191 192 194 191 193 191 191 192 192 193 193 194 192 192 194 192 192 192 194 195 188 192 194 190 194 192 190 188 187 185 185 186 179 174 175 183 199 219 236 253 255 255 255 255 255 255 255
255 255 255 255 255 255 252 212 175 143 127 119 123 166 181 182 189 187 189 191 193 193 195 198 196 194 198 195 199 195 195 193 195 198 196 194 192 193 192 194 190 197 191 191 191 193 189 193 193 193 191 190 192 192 192 190 193 194 195 198 191 194 196 191 191 190 192 189 191 186 191 189 191 188 187 190 183 182 178 173 180 191 213 231 248 255 255 255 255 255 255 255
255 255 255 255 255 255 250 209 171 140 123 113 125 163 177 181 188 190 192 189 192 192 196 195 198 195 192 194 195 198 193 196 195 195 192 199 195 194 196 192 192 194 190 190 193 192 193 190 193 193 190 191 193 193 192 195 194 192 196 194 195 191 193 193 194 193 194 191 195 194 190 191 189 193 188 188 184 181 184 171 180 186 204 224 241 254 255 255 255 255 255 255
255 255 255 255 255 255 251 212 171 142 125 114 126 165 178 185 188 189 188 195 191 193 193 191 196 197 192 194 195 197 197 194 196 193 192 194 191 194 193 189 189 188 192 194 192 190 194 190 188 192 191 192 193 191 193 192 190 196 194 193 192 195 194 191 196 192 192 193 190 189 191 191 190 191 192 190 182 182 179 176 173 187 200 217 237 253 255 255 255 255 255 255
255 255 255 255 255 255 251 209 170 145 124 112 128 164 178 183 186 191 192 192 193 191 195 195 195 195 194 195 193 195 193 195 196 193 194 194 194 194 193 194 193 190 189 193 191 189 195 192 193 194 189 191 191 193 190 190 194 190 193 190 193 196 191 195 192 193 193 192 191 191 194 190 191 189 190 188 184 186 181 182 171 177 196 215 234 249 255 255 255 255 255 255
255 255 255 255 255 255 251 209 169 137 122 112 125 168 176 179 187 189 191 192 194 193 191 194 195 197 196 190 195 193 194 193 194 193 195 193 193 194 189 193 193 190 193 195 196 190 194 191 192 190 192 191 190 190 190 193 192 191 194 195 191 193 192 192 194 192 194 196 191 194 193 192 194 193 191 189 189 188 181 179 174 178 190 210 227 246 255 255 255 255 255 255
255 255 255 255 255 255 252 212 171 142 124 118 124 160 175 180 187 190 188 192 194 195 193 193 196 197 191 196 195 199 195 196 196 194 192 195 190 194 191 192 192 193 190 195 193 189 196 194 191 191 191 191 194 194 191 190 194 196 192 190 197 193 193 193 195 194 193 194 194 194 192 192 191 189 192 190 190 186 185 183 173 177 184 204 225 243 254 255 255 255 255 255
255 255 255 255 255 255 254 215 175 146 125 112 122 160 173 185 186 189 188 192 191 194 193 195 195 195 195 195 196 195 192 193 192 193 196 192 195 195 191 194 191 192 189 191 192 193 193 193 190 192 195 192 188 194 194 195 192 194 191 190 192 196 192 195 192 190 192 195 193 193 192 194 193 192 189 189 185 187 183 180 178 171 186 203 218 237 253 255 255 255 255 255
255 255 255 255 255 255 254 214 178 150 128 114 113 160 174 183 184 187 190 189 193 194 191 194 194 192 195 193 199 194 196 194 195 193 195 194 196 195 190 193 194 194 193 190 189 192 193 192 192 188 193 189 190 192 192 193 194 191 193 192 195 194 193 195 194 191 195 194 195 190 192 195 192 189 189 186 192 187 188 183 178 170 183 193 217 236 251 255 255 255 255 255
255 255 255 255 255 255 255 223 181 152 128 118 115 150 170 177 185 189 188 191 191 190 194 194 192 193 193 193 197 194 192 193 194 193 193 192 195 196 193 191 193 190 193 192 191 191 191 189 192 192 194 194 191 191 194 191 194 193 194 194 193 193 196 194 191 192 191 192 192 192 191 193 193 193 192 189 187 185 184 182 177 177 180 197 212 229 250 255 255 255 255 255
255 255 255 255 255 255 255 231 186 146 128 115 114 141 171 181 183 188 186 190 190 195 193 195 196 194 195 195 194 195 196 194 195 193 193 193 190 191 192 192 187 192 192 191 188 193 191 189 191 190 191 196 193 192 192 194 195 195 194 194 194 194 195 193 194 196 191 194 195 195 194 192 194 192 191 193 191 188 187 182 178 174 175 192 209 230 247 255 255 255 255 255
255 255 255 255 255 255 255 236 189 157 133 118 112 133 169 178 184 189 189 192 192 192 194 193 194 191 198 192 193 192 194 194 194 193 192 194 191 194 193 190 192 193 194 192 191 193 192 189 191 190 194 191 191 192 192 190 193 194 192 197 191 193 189 195 196 195 196 198 193 192 194 191 193 193 194 190 190 186 188 186 178 178 178 191 208 230 246 255 255 255 255 255
255 255 255 255 255 255 255 244 197 160 134 120 109 119 167 177 180 185 188 189 192 191 194 192 195 192 190 194 194 196 196 194 192 194 192 193 192 193 194 193 192 192 195 194 188 192 189 192 191 190 192 192 192 189 193 192 191 195 191 191 197 190 193 195 192 191 197 196 193 193 195 195 195 195 190 193 190 190 184 183 181 177 179 189 206 224 242 254 255 255 255 255
255 255 255 255 255 255 255 250 204 166 141 118 110 117 159 175 180 185 188 187 190 191 192 193 197 193 193 193 194 195 192 192 190 195 189 192 194 192 191 192 191 189 190 195 193 192 187 190 191 192 194 192 191 191 191 193 192 194 191 196 192 197 194 195 193 194 195 195 193 196 193 194 191 195 187 191 192 189 189 189 182 176 174 187 204 225 245 254 255 255 255 255
255 255 255 255 255 255 255 253 216 177 142 125 111 112 150 172 178 185 186 189 190 195 192 194 194 191 194 192 196 196 194 194 195 197 196 194 191 193 192 193 192 194 188 191 191 191 189 193 190 191 194 193 193 193 195 194 193 192 194 195 196 193 191 194 195 193 195 195 196 193 197 191 192 193 192 192 194 190 192 185 177 178 174 186 203 223 242 255 255 255 255 255
255 255 255 255 255 255 255 255 226 181 147 126 112 108 135 172 176 182 182 189 189 192 193 193 193 192 196 191 194 195 198 196 193 196 194 195 192 194 192 195 191 192 194 192 193 195 194 190 190 193 190 192 193 192 190 192 191 192 194 192 195 194 191 191 198 193 195 196 192 194 193 194 195 194 194 191 194 191 190 186 182 175 173 187 202 221 242 254 255 255 255 255
255 255 255 255 255 255 255 255 240 191 161 131 111 111 120 166 175 180 186 187 190 190 189 193 195 193 194 195 192 192 193 193 194 192 192 196 193 194 192 194 194 194 194 193 191 193 189 192 191 191 195 192 190 194 194 191 193 190 194 194 197 195 192 196 194 191 194 193 193 194 197 194 195 195 191 191 193 189 189 186 181 175 175 184 201 223 242 254 255 255 255 255
255 255 255 255 255 255 255 255 249 204 164 140 118 105 111 154 176 182 185 186 190 190 189 192 191 193 195 194 192 195 193 193 193 196 194 190 193 191 194 193 191 195 195 194 193 192 190 191 195 198 189 192 191 194 192 191 191 195 194 193 193 195 195 196 192 194 191 193 196 192 193 193 197 197 195 192 193 190 185 186 182 174 176 190 203 222 241 254 255 255 255 255
255 255 255 255 255 255 255 255 254 220 175 151 123 109 112 139 171 178 182 185 189 188 187 193 193 192 196 195 194 191 196 196 192 196 192 195 196 191 194 195 192 192 192 192 187 195 192 192 190 191 189 194 192 193 195 193 196 193 191 194 196 194 193 196 193 195 194 194 196 196 194 195 193 193 192 193 192 190 190 186 183 176 176 186 205 225 243 254 255 255 255 255
255 255 255 255 255 255 255 255 255 238 192 154 131 116 103 124 161 174 176 182 186 188 187 193 193 192 193 195 194 192 193 193 196 192 190 193 193 193 192 193 195 194 191 189 195 192 191 194 193 194 193 193 194 192 195 194 196 195 197 196 193 195 197 196 197 197 197 193 197 196 194 194 194 191 190 191 193 194 188 181 181 176 175 191 206 227 243 255 255 255 255 255
255 255 255 255 255 255 255 255 255 249 205 168 134 118 109 112 142 175 178 182 185 189 191 191 192 193 192 196 192 193 193 196 195 194 192 194 194 192 191 191 191 195 192 193 194 195 194 193 192 193 194 194 193 193 194 194 193 193 194 194 193 192 195 193 195 195 194 197 196 196 193 195 195 193 191 192 190 187 187 184 182 175 180 190 207 227 244 255 255 255 255 255
255 255 255 255 255 255 255 255 255 255 223 181 153 124 111 108 127 163 176 179 186 185 188 192 192 191 191 193 191 197 193 196 194 193 192 196 191 196 193 190 192 194 197 192 193 193 192 194 193 191 194 193 197 194 194 195 195 196 191 195 195 193 194 193 193 196 202 194 196 194 196 194 191 194 194 191 194 192 184 185 184 173 175 191 210 228 247 255 255 255 255 255
255 255 255 255 255 255 255 255 255 255 242 193 163 136 119 109 110 146 172 179 179 184 187 192 189 189 192 193 192 194 194 195 197 194 194 191 193 194 194 193 190 194 195 193 193 193 193 194 190 194 192 196 196 191 189 196 199 197 191 195 193 195 195 195 197 196 195 196 192 194 195 194 195 194 194 191 192 190 187 183 180 174 181 193 212 234 249 255 255 255 255 255
255 255 255 255 255 255 255 255 255 255 253 216 176 144 126 106 102 127 167 174 182 183 186 188 187 190 193 192 195 194 192 193 192 195 196 193 193 191 194 197 194 191 194 194 193 193 191 193 191 191 192 191 196 196 195 195 194 197 194 194 194 194 193 198 196 195 195 199 196 195 197 194 194 192 194 192 190 191 188 183 182 174 183 200 218 236 251 255 255 255 255 255
255 255 255 255 255 255 255 255 255 255 255 237 189 159 131 118 107 114 147 169 180 183 187 188 189 188 190 192 193 193 193 192 196 193 192 194 197 194 193 197 198 194 190 196 194 195 196 192 191 197 196 191 196 196 196 194 195 191 197 200 194 198 196 196 196 197 199 199 193 199 196 192 194 194 193 190 191 189 188 187 175 171 184 201 220 238 252 255 255 255 255 255
255 255 255 255 255 255 255 255 255 255 255 252 214 177 144 122 104 104 125 164 177 180 183 187 188 190 190 189 193 194 194 193 192 194 194 194 195 193 195 194 198 195 196 195 194 193 194 195 195 195 193 193 195 193 195 197 194 194 193 197 196 193 193 200 196 196 198 196 191 197 196 195 196 193 193 192 188 189 186 183 179 178 188 204 225 241 254 255 255 255 255 255
255 255 255 255 255 255 255 255 255 255 255 255 237 191 159 137 117 108 110 136 171 179 182 185 185 187 192 191 188 190 192 191 192 193 193 195 192 191 190 198 192 192 193 192 196 198 190 195 195 196 200 192 195 193 194 195 195 197 194 195 196 196 193 196 195 197 196 194 196 194 195 194 193 192 190 192 189 185 182 180 176 181 191 211 227 246 255 255 255 255 255 255
255 255 255 255 255 255 255 255 255 255 255 255 253 216 176 146 122 110 102 116 150 176 179 182 187 187 187 191 192 191 189 189 192 194 194 197 197 193 196 193 199 197 197 195 193 193 196 194 193 194 195 198 194 198 198 194 195 194 195 194 196 194 195 194 198 195 195 198 193 196 195 194 194 191 192 190 189 188 183 179 175 185 196 211 233 248 255 255 255 255 255 255
255 255 255 255 255 255 255 255 255 255 255 255 255 242 198 164 142 119 114 105 124 160 174 179 184 188 190 187 189 192 192 191 192 193 193 193 195 194 194 198 198 195 193 195 196 192 192 191 196 196 195 193 196 195 196 197 198 198 194 196 193 195 197 195 199 195 198 196 196 196 196 193 192 191 194 189 190 184 182 174 178 186 202 221 238 252 255 255 255 255 255 255
255 255 255 255 255 255 255 255 255 255 255 255 255 254 226 183 153 128 112 102 105 134 162 176 181 182 186 189 188 193 190 190 193 195 193 192 196 191 195 191 194 195 194 194 192 196 190 193 194 192 192 194 195 197 193 195 198 197 198 198 196 195 196 197 198 194 194 194 193 193 193 191 195 192 190 187 185 179 181 174 178 193 209 228 244 254 255 255 255 255 255 255
255 255 255 255 255 255 255 255 255 255 255 255 255 255 249 208 172 147 128 111 100 113 145 170 178 183 183 182 186 188 191 187 189 195 190 193 195 196 197 192 192 196 193 193 193 193 195 195 196 196 197 193 195 199 193 196 196 196 195 196 195 199 195 198 196 194 194 193 196 195 196 192 191 190 189 188 187 181 178 175 182 199 215 231 248 255 255 255 255 255 255 255
255 255 255 255 255 255 255 255 255 255 255 255 255 255 255 238 197 164 139 117 110 107 115 148 168 179 182 182 187 187 192 188 188 191 192 194 192 194 195 194 193 194 194 193 196 196 193 193 197 196 195 194 196 195 197 196 199 198 196 198 196 200 198 194 199 196 195 194 196 191 196 190 192 187 189 184 184 178 175 174 186 202 221 240 253 255 255 255 255 255 255 255
255 255 255 255 255 255 255 255 255 255 255 255 255 255 255 254 224 187 156 132 116 112 101 119 154 175 180 178 185 181 187 189 189 191 190 193 194 192 195 191 196 192 193 196 196 194 194 195 195 195 192 195 197 194 196 197 193 200 192 194 195 197 197 198 195 193 193 193 193 193 191 190 193 187 186 186 180 176 174 182 193 212 230 246 255 255 255 255 255 255 255 255
255 255 255 255 255 255 255 255 255 255 255 255 255 255 255 255 251 216 179 153 133 113 110 108 124 151 168 179 180 184 189 190 191 190 192 190 193 191 191 191 194 192 196 197 192 193 195 196 194 196 193 197 195 194 196 195 197 198 200 197 200 193 199 197 194 192 194 189 196 192 194 190 191 187 184 180 178 174 178 185 203 221 237 252 255 255 255 255 255 255 255 255
255 255 255 255 255 255 255 255 255 255 255 255 255 255 255 255 255 246 207 171 146 127 116 109 107 120 151 169 178 179 180 185 189 189 190 191 189 190 192 195 194 194 194 193 191 198 197 195 196 193 195 195 197 197 197 197 196 190 195 194 197 196 196 197 194 198 194 194 192 190 190 189 188 186 182 178 172 170 181 194 210 228 245 255 255 255 255 255 255 255 255 255
255 255 255 255 255 255 255 255 255 255 255 255 255 255 255 255 255 255 240 201 169 149 122 115 110 108 121 153 169 177 182 185 182 187 188 191 187 189 191 190 187 191 193 190 192 194 192 195 196 194 195 198 197 200 190 194 196 197 194 192 192 195 194 194 196 194 194 196 191 193 190 188 186 184 181 176 166 175 185 203 219 236 251 255 255 255 255 255 255 255 255 255
255 255 255 255 255 255 255 255 255 255 255 255 255 255 255 255 255 255 255 237 199 168 144 129 112 108 105 121 147 167 178 180 184 187 189 189 190 187 186 190 190 192 192 194 189 193 194 193 196 195 194 191 194 194 195 195 192 195 198 195 195 192 197 194 194 193 191 190 192 190 188 187 181 177 177 172 171 180 196 211 231 246 255 255 255 255 255 255 255 255 255 255
255 255 255 255 255 255 255 255 255 255 255 255 255 255 255 255 255 255 255 255 235 200 167 144 125 119 106 108 123 141 168 176 178 179 183 186 187 187 188 187 191 191 191 189 192 191 194 194 195 196 193 197 195 194 195 195 190 193 190 195 191 195 189 190 191 191 190 187 189 188 184 187 180 176 174 171 177 192 206 223 241 252 255 255 255 255 255 255 255 255 255 255
255 255 255 255 255 255 255 255 255 255 255 255 255 255 255 255 255 255 255 255 255 234 196 168 148 130 120 111 106 112 132 159 170 172 176 181 184 184 189 188 189 189 189 192 192 192 194 194 192 195 192 192 194 191 194 194 194 194 193 198 190 193 193 193 192 192 191 189 186 185 181 179 176 172 170 176 187 202 219 235 249 255 255 255 255 255 255 255 255 255 255 255
255 255 255 255 255 255 255 255 255 255 255 255 255 255 255 255 255 255 255 255 255 255 237 202 170 151 134 125 110 110 115 122 151 164 172 177 182 181 185 185 188 186 187 188 188 190 192 189 190 192 190 191 191 191 191 191 191 193 194 193 190 193 189 193 191 189 192 186 183 181 182 176 170 163 172 181 196 213 232 245 255 255 255 255 255 255 255 255 255 255 255 255
255 255 255 255 255 255 255 255 255 255 255 255 255 255 255 255 255 255 255 255 255 255 255 240 204 175 157 137 125 115 114 114 118 134 154 169 174 178 178 185 184 187 186 186 186 187 191 189 188 191 190 188 193 189 191 189 190 192 189 190 186 192 188 188 187 187 180 179 179 176 171 166 161 172 182 196 211 225 242 253 255 255 255 255 255 255 255 255 255 255 255 255
255 255 255 255 255 255 255 255 255 255 255 255 255 255 255 255 255 255 255 255 255 255 255 255 244 213 183 164 146 133 119 112 105 112 120 140 158 167 173 176 180 180 182 182 182 186 185 187 189 187 189 189 188 188 190 188 190 193 189 191 187 183 186 185 182 183 183 178 173 170 158 162 172 182 194 208 223 239 251 255 255 255 255 255 255 255 255 255 255 255 255 255
255 255 255 255 255 255 255 255 255 255 255 255 255 255 255 255 255 255 255 255 255 255 255 255 255 249 222 195 171 152 137 128 119 115 107 113 121 138 157 168 178 175 174 179 180 185 181 184 188 191 189 185 185 186 185 182 184 185 187 184 182 182 183 181 179 180 176 170 164 158 160 166 179 189 209 222 236 250 255 255 255 255 255 255 255 255 255 255 255 255 255 255
255 255 255 255 255 255 255 255 255 255 255 255 255 255 255 255 255 255 255 255 255 255 255 255 255 255 253 232 199 181 164 143 135 127 120 115 108 112 121 137 150 161 175 177 174 181 177 180 179 182 182 183 183 184 180 186 185 183 180 180 182 182 176 175 171 168 165 160 153 158 169 179 193 207 220 237 250 255 255 255 255 255 255 255 255 255 255 255 255 255 255 255
255 255 255 255 255 255 255 255 255 255 255 255 255 255 255 255 255 255 255 255 255 255 255 255 255 255 255 255 245 219 192 169 158 142 130 125 124 112 112 117 123 127 142 152 165 167 175 172 176 178 176 177 181 180 184 176 176 174 175 175 172 170 170 164 157 154 152 154 159 168 177 196 210 223 237 250 255 255 255 255 255 255 255 255 255 255 255 255 255 255 255 255
255 255 255 255 255 255 255 255 255 255 255 255 255 255 255 255 255 255 255 255 255 255 255 255 255 255 255 255 255 253 235 207 188 168 156 142 139 127 121 117 114 111 112 119 123 135 143 154 156 162 167 169 168 164 169 167 169 167 161 165 158 151 148 150 152 153 157 165 174 185 199 211 225 240 252 255 255 255 255 255 255 255 255 255 255 255 255 255 255 255 255 255
255 255 255 255 255 255 255 255 255 255 255 255 255 255 255 255 255 255 255 255 255 255 255 255 255 255 255 255 255 255 255 249 230 204 184 169 157 145 138 128 127 120 118 113 114 117 119 121 125 126 133 131 143 143 141 143 143 144 138 141 145 145 150 146 154 161 171 181 191 205 218 230 243 253 255 255 255 255 255 255 255 255 255 255 255 255 255 255 255 255 255 255
255 255 255 255 255 255 255 255 255 255 255 255 255 255 255 255 255 255 255 255 255 255 255 255 255 255 255 255 255 255 255 255 255 247 229 206 187 176 163 152 145 139 127 125 123 126 117 121 124 119 123 129 127 130 132 135 133 139 143 145 150 154 157 161 169 178 191 197 210 223 237 249 255 255 255 255 255 255 255 255 255 255 255 255 255 255 255 255 255 255 255 255
255 255 255 255 255 255 255 255 255 255 255 255 255 255 255 255 255 255 255 255 255 255 255 255 255 255 255 255 255 255 255 255 255 255 255 248 232 211 199 183 175 164 156 149 148 141 139 132 135 134 134 132 135 141 142 144 150 149 154 159 162 169 177 179 190 199 212 223 233 244 254 255 255 255 255 255 255 255 255 255 255 255 255 255 255 255 255 255 255 255 255 255
255 255 255 255 255 255 255 255 255 255 255 255 255 255 255 255 255 255 255 255 255 255 255 255 255 255 255 255 255 255 255 255 255 255 255 255 255 252 242 224 212 195 184 178 170 166 160 160 156 152 155 160 157 156 161 163 162 169 175 180 185 191 198 208 216 225 235 245 252 255 255 255 255 255 255 255 255 255 255 255 255 255 255 255 255 255 255 255 255 255 255 255
255 255 255 255 255 255 255 255 255 255 255 255 255 255 255 255 255 255 255 255 255 255 255 255 255 255 255 255 255 255 255 255 255 255 255 255 255 255 255 255 250 240 227 216 206 200 193 190 181 179 180 178 179 181 185 183 191 196 197 204 210 216 226 232 242 250 254 255 255 255 255 255 255 255 255 255 255 255 255 255 255 255 255 255 255 255 255 255 255 255 255 255
255 255 255 255 255 255 255 255 255 255 255 255 255 255 255 255 255 255 255 255 255 255 255 255 255 255 255 255 255 255 255 255 255 255 255 255 255 255 255 255 255 255 255 253 248 240 234 228 223 217 210 213 213 212 214 219 221 222 229 235 240 246 250 254 255 255 255 255 255 255 255 255 255 255 255 255 255 255 255 255 255 255 255 255 255 255 255 255 255 255 255 255
255 255 255 255 255 255 255 255 255 255 255 255 255 255 255 255 255 255 255 255 255 255 255 255 255 255 255 255 255 255 255 255 255 255 255 255 255 255 255 255 255 255 255 255 255 255 255 255 254 253 250 249 248 248 248 249 251 253 254 255 255 255 255 255 255 255 255 255 255 255 255 255 255 255 255 255 255 255 255 255 255 255 255 255 255 255 255 255 255 255 255 255
255 255 255 255 255 255 255 255 255 255 255 255 255 255 255 255 255 255 255 255 255 255 255 255 255 255 255 255 255 255 255 255 255 255 255 255 255 255 255 255 255 255 255 255 255 255 255 255 255 255 255 255 255 255 255 255 255 255 255 255 255 255 255 255 255 255 255 255 255 255 255 255 255 255 255 255 255 255 255 255 255 255 255 255 255 255 255 255 255 255 255 255
255 255 255 255 255 255 255 255 255 255 255 255 255 255 255 255 255 255 255 255 255 255 255 255 255 255 255 255 255 255 255 255 255 255 255 255 255 255 255 255 255 255 255 255 255 255 255 255 255 255 255 255 255 255 255 255 255 255 255 255 255 255 255 255 255 255 255 255 255 255 255 255 255 255 255 255 255 255 255 255 255 255 255 255 255 255 255 255 255 255 255 255
255 255 255 255 255 255 255 255 255 255 255 255 255 255 255 255 255 255 255 255 255 255 255 255 255 255 255 255 255 255 255 255 255 255 255 255 255 255 255 255 255 255 255 255 255 255 255 255 255 255 255 255 255 255 255 255 255 255 255 255 255 255 255 255 255 255 255 255 255 255 255 255 255 255 255 255 255 255 255 255 255 255 255 255 255 255 255 255 255 255 255 255
