P2
109 109
255
255 255 255 255 255 255 255 255 255 255 255 255 255 255 255 255 255 255 255 255 255 255 255 255 255 255 255 255 255 255 255 255 255 255 255 255 255 255 255 255 255 255 255 255 255 255 255 255 255 255 255 255 255 255 255 255 255 255 255 255 255 255 255 255 255 255 255 255 255 255 255 255 255 255 255 255 255 255 255 255 255 255 255 255 255 255 255 255 255 255 255 255 255 255 255 255 255 255 255 255 255 255 255 255 255 255 255 255 255
255 255 255 255 255 255 255 255 255 255 255 255 255 255 255 255 255 255 255 255 255 255 255 255 255 255 255 255 255 255 255 255 255 255 255 255 255 255 255 255 255 255 255 255 255 255 255 255 255 255 255 255 255 255 255 255 255 255 255 255 255 255 255 255 255 255 255 255 255 255 255 255 255 255 255 255 255 255 255 255 255 255 255 255 255 255 255 255 255 255 255 255 255 255 255 255 255 255 255 255 255 255 255 255 255 255 255 255 255
255 255 255 255 255 255 255 255 255 255 255 255 255 255 255 255 255 255 255 255 255 255 255 255 255 255 255 255 255 255 255 255 255 255 255 255 255 255 255 255 255 255 255 255 255 255 255 255 255 255 255 255 255 255 255 255 255 255 255 255 255 255 255 255 255 255 255 255 255 255 255 255 255 255 255 255 255 255 255 255 255 255 255 255 255 255 255 255 255 255 255 255 255 255 255 255 255 255 255 255 255 255 255 255 255 255 255 255 255
255 255 255 255 255 255 255 255 255 255 255 255 255 255 255 255 255 255 255 255 255 255 255 255 255 255 255 255 255 255 255 255 255 255 255 255 255 255 255 255 255 255 255 255 255 255 255 255 255 255 255 255 255 255 255 255 255 255 255 255 255 255 255 255 255 255 255 255 255 255 255 255 255 255 255 255 255 255 255 255 255 255 255 255 255 255 255 255 255 255 255 255 255 255 255 255 255 255 255 255 255 255 255 255 255 255 255 255 255
255 255 255 255 255 255 255 255 255 255 255 255 255 255 255 255 255 255 255 255 255 255 255 255 255 255 255 255 255 255 255 255 255 255 255 255 255 255 255 255 255 255 255 255 255 255 255 255 255 255 255 255 255 255 255 255 255 255 255 255 255 255 255 255 255 255 255 255 255 255 255 255 255 255 255 255 255 255 255 255 255 255 255 255 255 255 255 255 255 255 255 255 255 255 255 255 255 255 255 255 255 255 255 255 255 255 255 255 255
255 255 255 255 255 255 255 255 255 255 255 255 255 255 255 255 255 255 255 255 255 255 255 255 255 255 255 255 255 255 255 255 255 255 255 255 255 255 255 255 255 255 255 255 255 255 255 255 255 255 255 255 255 255 255 255 255 255 255 255 255 255 255 255 255 255 255 255 255 255 255 255 255 255 255 255 255 255 255 255 255 255 255 255 255 255 255 255 255 255 255 255 255 255 255 255 255 255 255 255 255 255 255 255 255 255 255 255 255
255 255 255 255 255 255 255 255 255 255 255 255 255 255 255 255 255 255 255 255 255 255 255 255 255 255 255 255 255 255 255 255 255 255 255 255 255 255 255 255 255 255 255 255 255 255 255 255 255 255 255 255 255 255 255 255 255 255 255 255 255 255 255 255 255 255 255 255 255 255 255 255 255 255 255 255 255 255 255 255 255 255 255 255 255 255 255 255 255 255 255 255 255 255 255 255 255 255 255 255 255 255 255 255 255 255 255 255 255
255 255 255 255 255 255 255 255 255 255 255 255 255 255 255 255 255 255 255 255 255 255 255 255 255 255 255 255 255 255 255 255 255 255 255 255 255 255 255 255 255 255 255 255 255 255 255 255 255 255 255 255 255 255 255 255 255 255 255 255 255 255 255 255 255 255 255 255 255 255 255 255 255 255 255 255 255 255 255 255 255 255 255 255 255 255 255 255 255 255 255 255 255 255 255 255 255 255 255 255 255 255 255 255 255 255 255 255 255
255 255 255 255 255 255 255 255 255 255 255 255 255 255 255 255 255 255 255 255 255 255 255 255 255 255 255 255 255 255 255 255 255 255 255 255 255 255 255 255 255 255 255 255 255 255 255 255 255 255 255 255 255 255 255 255 255 255 255 255 255 255 255 255 255 255 255 255 255 255 255 255 255 255 255 255 255 255 255 255 255 255 255 255 255 255 255 255 255 255 255 255 255 255 255 255 255 255 255 255 255 255 255 255 255 255 255 255 255
255 255 255 255 255 255 255 255 255 255 255 255 255 255 255 255 255 255 255 255 255 255 255 255 255 255 255 255 255 255 255 255 255 255 255 255 255 255 255 255 255 255 255 255 255 255 255 255 255 255 255 255 255 255 255 255 255 255 255 255 255 255 255 255 255 255 255 255 255 255 255 255 255 255 255 255 255 255 255 255 255 255 255 255 255 255 255 255 255 255 255 255 255 255 255 255 255 255 255 255 255 255 255 255 255 255 255 255 255
255 255 255 255 255 255 255 255 255 255 255 255 255 255 255 255 255 255 255 255 255 255 255 255 255 255 255 255 255 255 255 255 255 255 255 255 255 255 255 255 255 255 255 255 255 255 255 255 255 255 255 255 255 255 255 255 255 255 255 255 255 255 255 255 255 255 255 255 255 255 255 255 255 255 255 255 255 255 255 255 255 255 255 255 255 255 255 255 255 255 255 255 255 255 255 255 255 255 255 255 255 255 255 255 255 255 255 255 255
255 255 255 255 255 255 255 255 255 255 255 255 255 255 255 255 255 255 255 255 255 255 255 255 255 255 255 255 255 255 255 255 255 255 255 255 255 255 255 255 255 255 255 255 255 255 255 255 255 255 255 255 255 255 255 255 255 255 255 255 255 255 255 255 255 255 255 255 255 255 255 255 255 255 255 255 255 255 255 255 255 255 255 255 255 255 255 255 255 255 255 255 255 255 255 255 255 255 255 255 255 255 255 255 255 255 255 255 255
255 255 255 255 255 255 255 255 255 255 255 255 255 255 255 255 255 255 255 255 255 255 255 255 255 255 255 255 255 255 255 255 255 255 255 255 255 255 255 255 255 255 255 255 255 255 255 255 255 255 255 255 255 255 255 255 255 255 255 255 255 255 255 255 255 255 255 255 255 255 255 255 255 255 255 255 255 255 255 255 255 255 255 255 255 255 255 255 255 255 255 255 255 255 255 255 255 255 255 255 255 255 255 255 255 255 255 255 255
255 255 255 255 255 255 255 255 255 255 255 255 255 255 255 255 255 255 255 255 255 255 255 255 255 255 255 255 255 255 255 255 255 255 255 255 255 255 255 255 255 255 255 255 255 255 255 255 255 255 255 255 255 255 255 255 255 255 255 255 255 255 255 255 255 255 255 255 255 255 255 255 255 255 255 255 255 255 255 255 255 255 255 255 255 255 255 255 255 255 255 255 255 255 255 255 255 255 255 255 255 255 255 255 255 255 255 255 255
255 255 255 255 255 255 255 255 255 255 255 255 255 255 255 255 255 255 255 255 255 255 255 255 255 255 255 255 255 255 255 255 255 255 255 255 255 255 255 255 255 255 255 255 255 255 255 255 255 255 255 255 255 255 255 255 255 255 255 255 255 255 255 255 255 255 255 255 255 255 255 255 255 255 255 255 255 255 255 255 255 255 255 255 255 255 255 255 255 255 255 255 255 255 255 255 255 255 255 255 255 255 255 255 255 255 255 255 255
255 255 255 255 255 255 255 255 255 255 255 255 255 255 255 255 255 255 255 255 255 255 255 255 255 255 255 255 255 255 255 255 255 255 255 255 255 255 255 255 255 255 255 255 255 255 255 255 255 255 255 255 255 255 255 255 255 255 255 255 255 255 255 255 255 255 255 255 255 255 255 255 255 255 255 255 255 255 255 255 255 255 255 255 255 255 255 255 255 255 255 255 255 255 255 255 255 255 255 255 255 255 255 255 255 255 255 255 255
255 255 255 255 255 255 255 255 255 255 255 255 255 255 255 255 255 255 255 255 255 255 255 255 255 255 255 255 255 255 255 255 255 255 255 252 251 250 248 250 252 253 255 255 255 255 255 255 255 255 255 255 255 255 255 255 255 255 255 255 255 255 255 255 255 255 255 255 255 255 255 255 255 255 255 255 255 255 255 255 255 255 255 255 255 255 255 255 255 255 255 255 255 255 255 255 255 255 255 255 255 255 255 255 255 255 255 255 255
255 255 255 255 255 255 255 255 255 255 255 255 255 255 255 255 255 255 255 255 255 255 255 255 255 255 255 255 255 255 255 255 250 233 219 213 205 204 205 210 211 219 223 232 240 248 253 255 255 255 255 255 255 255 255 255 255 255 255 255 255 255 255 255 255 255 255 255 255 255 255 255 255 255 255 255 255 255 255 255 255 255 255 255 255 255 255 255 255 255 255 255 255 255 255 255 255 255 255 255 255 255 255 255 255 255 255 255 255
255 255 255 255 255 255 255 255 255 255 255 255 255 255 255 255 255 255 255 255 255 255 255 255 255 255 255 255 255 255 253 227 197 179 168 162 160 159 162 170 170 172 186 191 199 208 220 230 243 251 255 255 255 255 255 255 255 255 255 255 255 255 255 255 255 255 255 255 255 255 255 255 255 255 255 255 255 255 255 255 255 255 255 255 255 255 255 255 255 255 255 255 255 255 255 255 255 255 255 255 255 255 255 255 255 255 255 255 255
255 255 255 255 255 255 255 255 255 255 255 255 255 255 255 255 255 255 255 255 255 255 255 255 255 255 255 255 255 248 206 171 144 133 125 137 129 137 139 140 151 155 157 156 166 172 182 188 198 209 229 245 252 255 255 255 255 255 255 255 255 255 255 255 255 255 255 255 255 255 255 255 255 255 255 255 255 255 255 255 255 255 255 255 255 255 255 255 255 255 255 255 255 255 255 255 255 255 255 255 255 255 255 255 255 255 255 255 255
255 255 255 255 255 255 255 255 255 255 255 255 255 255 255 255 255 255 255 255 255 255 255 255 255 255 255 255 250 203 159 126 110 97 106 121 134 137 141 144 148 152 146 146 147 150 159 164 168 175 191 203 222 234 250 255 255 255 255 255 255 255 255 255 255 255 255 255 255 255 255 255 255 255 255 255 255 255 255 255 255 255 255 255 255 255 255 255 255 255 255 255 255 255 255 255 255 255 255 255 255 255 255 255 255 255 255 255 255
255 255 255 255 255 255 255 255 255 255 255 255 255 255 255 255 255 255 255 255 255 255 255 255 255 255 255 252 212 159 126 98 93 108 136 165 166 174 176 175 179 174 175 171 166 154 152 149 152 152 161 165 177 194 211 229 247 255 255 255 255 255 255 255 255 255 255 255 255 255 255 255 255 255 255 255 255 255 255 255 255 255 255 255 255 255 255 255 255 255 255 255 255 255 255 255 255 255 255 255 255 255 255 255 255 255 255 255 255
255 255 255 255 255 255 255 255 255 255 255 255 255 255 255 255 255 255 255 255 255 255 255 255 255 255 255 229 174 135 102 94 105 143 175 186 181 190 194 189 191 194 187 184 190 181 180 169 155 150 149 148 153 162 176 189 209 229 248 255 255 255 255 255 255 255 255 255 255 255 255 255 255 255 255 255 255 255 255 255 255 255 255 255 255 255 255 255 255 255 255 255 255 255 255 255 255 255 255 255 255 255 255 255 255 255 255 255 255
255 255 255 255 255 255 255 255 255 255 255 255 255 255 255 255 255 255 255 255 255 255 255 255 255 255 244 196 143 124 104 110 154 183 188 191 194 196 194 195 198 199 195 201 191 193 190 190 186 182 164 154 147 151 150 158 174 186 205 231 251 255 255 255 255 255 255 255 255 255 255 255 255 255 255 255 255 255 255 255 255 255 255 255 255 255 255 255 255 255 255 255 255 255 255 255 255 255 255 255 255 255 255 255 255 255 255 255 255
255 255 255 255 255 255 255 255 255 255 255 255 255 255 255 255 255 255 255 255 255 255 255 255 255 253 218 171 141 119 120 155 185 190 192 195 197 198 199 205 201 203 200 201 198 198 197 202 197 192 184 186 176 158 144 141 152 161 174 195 213 241 254 255 255 255 255 255 255 255 255 255 255 255 255 255 255 255 255 255 255 255 255 255 255 255 255 255 255 255 255 255 255 255 255 255 255 255 255 255 255 255 255 255 255 255 255 255 255
255 255 255 255 255 255 255 255 255 255 255 255 255 255 255 255 255 255 255 255 255 255 255 255 255 241 194 163 132 125 146 182 190 192 198 202 202 201 205 206 205 206 206 208 204 200 202 199 203 200 196 195 191 186 173 161 142 143 154 164 177 196 221 248 255 255 255 255 255 255 255 255 255 255 255 255 255 255 255 255 255 255 255 255 255 255 255 255 255 255 255 255 255 255 255 255 255 255 255 255 255 255 255 255 255 255 255 255 255
255 255 255 255 255 255 255 255 255 255 255 255 255 255 255 255 255 255 255 255 255 255 255 255 254 222 180 148 128 136 174 192 196 196 205 204 209 206 205 207 207 210 207 207 204 204 210 205 207 203 202 198 195 194 189 186 172 156 138 145 143 164 188 206 238 254 255 255 255 255 255 255 255 255 255 255 255 255 255 255 255 255 255 255 255 255 255 255 255 255 255 255 255 255 255 255 255 255 255 255 255 255 255 255 255 255 255 255 255
255 255 255 255 255 255 255 255 255 255 255 255 255 255 255 255 255 255 255 255 255 255 255 255 246 203 170 142 137 165 191 194 202 202 203 206 209 205 209 211 210 210 210 207 208 210 210 208 209 207 204 205 200 198 199 196 188 181 169 149 142 144 155 173 192 227 250 255 255 255 255 255 255 255 255 255 255 255 255 255 255 255 255 255 255 255 255 255 255 255 255 255 255 255 255 255 255 255 255 255 255 255 255 255 255 255 255 255 255
255 255 255 255 255 255 255 255 255 255 255 255 255 255 255 255 255 255 255 255 255 255 255 255 231 187 158 137 143 185 195 197 203 208 204 212 211 209 210 210 212 212 212 212 214 212 209 210 209 208 209 206 203 201 203 200 199 193 187 178 162 143 131 147 164 186 215 246 255 255 255 255 255 255 255 255 255 255 255 255 255 255 255 255 255 255 255 255 255 255 255 255 255 255 255 255 255 255 255 255 255 255 255 255 255 255 255 255 255
255 255 255 255 255 255 255 255 255 255 255 255 255 255 255 255 255 255 255 255 255 255 255 252 213 175 154 143 159 196 201 202 202 207 210 215 212 210 214 213 213 218 211 216 212 215 208 210 209 209 209 210 205 205 206 204 202 194 192 191 184 177 150 140 141 156 176 206 241 255 255 255 255 255 255 255 255 255 255 255 255 255 255 255 255 255 255 255 255 255 255 255 255 255 255 255 255 255 255 255 255 255 255 255 255 255 255 255 255
255 255 255 255 255 255 255 255 255 255 255 255 255 255 255 255 255 255 255 255 255 255 255 242 203 169 150 153 178 194 198 206 208 210 213 209 216 212 213 215 209 213 212 215 215 215 216 212 210 210 213 211 211 211 205 205 207 201 200 202 188 186 175 156 134 141 147 173 201 234 254 255 255 255 255 255 255 255 255 255 255 255 255 255 255 255 255 255 255 255 255 255 255 255 255 255 255 255 255 255 255 255 255 255 255 255 255 255 255
255 255 255 255 255 255 255 255 255 255 255 255 255 255 255 255 255 255 255 255 255 255 255 232 190 167 152 165 188 197 206 203 211 214 211 210 213 213 217 216 214 211 216 215 215 219 214 215 211 214 217 214 211 209 209 209 203 202 205 200 199 194 186 180 165 139 133 149 165 198 231 254 255 255 255 255 255 255 255 255 255 255 255 255 255 255 255 255 255 255 255 255 255 255 255 255 255 255 255 255 255 255 255 255 255 255 255 255 255
255 255 255 255 255 255 255 255 255 255 255 255 255 255 255 255 255 255 255 255 255 255 252 218 186 164 156 177 195 203 209 206 210 213 211 213 216 214 218 215 215 218 214 213 214 219 217 216 210 215 214 210 211 212 211 209 208 210 205 202 204 201 196 190 184 165 138 135 146 164 193 232 253 255 255 255 255 255 255 255 255 255 255 255 255 255 255 255 255 255 255 255 255 255 255 255 255 255 255 255 255 255 255 255 255 255 255 255 255
255 255 255 255 255 255 255 255 255 255 255 255 255 255 255 255 255 255 255 255 255 255 247 207 178 159 152 180 196 204 210 212 209 212 214 213 213 217 216 215 216 214 216 213 219 217 219 216 217 218 212 214 215 216 212 209 208 209 207 206 204 201 200 196 194 182 174 142 135 145 163 190 232 254 255 255 255 255 255 255 255 255 255 255 255 255 255 255 255 255 255 255 255 255 255 255 255 255 255 255 255 255 255 255 255 255 255 255 255
255 255 255 255 255 255 255 255 255 255 255 255 255 255 255 255 255 255 255 255 255 255 239 203 176 161 163 188 201 207 208 213 214 216 213 214 214 217 218 216 221 216 215 215 215 217 219 219 214 216 217 217 218 214 211 214 213 209 209 208 208 203 206 198 199 193 183 171 141 137 142 164 192 234 255 255 255 255 255 255 255 255 255 255 255 255 255 255 255 255 255 255 255 255 255 255 255 255 255 255 255 255 255 255 255 255 255 255 255
255 255 255 255 255 255 255 255 255 255 255 255 255 255 255 255 255 255 255 255 255 255 231 196 175 157 170 194 206 209 211 209 215 211 218 218 219 216 213 218 218 215 219 218 220 213 217 216 221 219 218 216 218 216 215 215 215 210 210 209 206 207 205 204 199 198 190 186 174 142 137 141 167 197 239 255 255 255 255 255 255 255 255 255 255 255 255 255 255 255 255 255 255 255 255 255 255 255 255 255 255 255 255 255 255 255 255 255 255
255 255 255 255 255 255 255 255 255 255 255 255 255 255 255 255 255 255 255 255 255 254 225 191 171 162 181 201 206 205 210 211 212 214 211 217 219 217 219 221 218 220 219 220 217 217 216 217 217 217 218 215 217 216 211 211 214 214 213 212 208 208 206 204 202 199 201 195 185 171 136 130 142 172 204 246 255 255 255 255 255 255 255 255 255 255 255 255 255 255 255 255 255 255 255 255 255 255 255 255 255 255 255 255 255 255 255 255 255
255 255 255 255 255 255 255 255 255 255 255 255 255 255 255 255 255 255 255 255 255 252 217 192 170 160 184 200 207 211 210 214 214 215 219 217 217 217 215 217 222 219 222 218 220 217 223 218 222 214 213 216 217 215 216 217 215 216 209 213 212 207 209 208 203 203 199 195 193 183 168 141 135 151 174 211 250 255 255 255 255 255 255 255 255 255 255 255 255 255 255 255 255 255 255 255 255 255 255 255 255 255 255 255 255 255 255 255 255
255 255 255 255 255 255 255 255 255 255 255 255 255 255 255 255 255 255 255 255 255 248 217 186 169 165 189 205 207 209 213 213 215 216 220 216 216 216 214 216 220 219 219 220 218 222 222 218 220 219 218 216 218 218 214 215 217 215 215 214 214 214 212 210 207 205 199 200 196 188 185 169 138 137 152 181 225 253 255 255 255 255 255 255 255 255 255 255 255 255 255 255 255 255 255 255 255 255 255 255 255 255 255 255 255 255 255 255 255
255 255 255 255 255 255 255 255 255 255 255 255 255 255 255 255 255 255 255 255 255 243 211 185 168 171 192 207 209 209 215 216 216 216 217 221 216 219 219 218 217 221 219 220 220 218 218 216 218 215 218 217 218 217 217 218 217 216 217 211 213 213 212 211 209 206 202 205 201 198 189 184 153 130 133 156 191 236 255 255 255 255 255 255 255 255 255 255 255 255 255 255 255 255 255 255 255 255 255 255 255 255 255 255 255 255 255 255 255
255 255 255 255 255 255 255 255 255 255 255 255 255 255 255 255 255 255 255 255 255 241 208 186 173 175 195 203 212 214 216 216 216 217 220 219 219 219 220 221 219 218 219 220 216 218 223 219 218 217 217 218 222 218 220 219 216 216 212 213 213 212 207 212 210 210 206 203 199 199 194 190 179 151 134 141 167 204 247 255 255 255 255 255 255 255 255 255 255 255 255 255 255 255 255 255 255 255 255 255 255 255 255 255 255 255 255 255 255
255 255 255 255 255 255 255 255 255 255 255 255 255 255 255 255 255 255 255 255 255 241 207 184 169 177 195 206 210 212 216 215 215 221 219 220 219 220 219 219 218 221 219 221 220 222 221 224 217 217 217 220 217 218 220 221 216 217 216 216 216 216 216 210 210 211 211 208 208 201 198 196 189 170 141 137 147 180 218 254 255 255 255 255 255 255 255 255 255 255 255 255 255 255 255 255 255 255 255 255 255 255 255 255 255 255 255 255 255
255 255 255 255 255 255 255 255 255 255 255 255 255 255 255 255 255 255 255 255 255 237 209 181 168 180 202 203 209 212 211 218 216 220 216 218 222 222 220 221 217 221 222 222 220 218 218 220 218 220 219 221 218 219 222 215 217 216 217 217 218 211 217 214 211 213 208 203 204 204 203 198 191 181 161 135 134 156 195 241 255 255 255 255 255 255 255 255 255 255 255 255 255 255 255 255 255 255 255 255 255 255 255 255 255 255 255 255 255
255 255 255 255 255 255 255 255 255 255 255 255 255 255 255 255 255 255 255 255 255 237 208 183 175 177 201 208 211 216 213 216 218 220 220 217 218 219 220 221 219 221 221 221 222 219 220 220 218 217 217 221 217 218 220 215 218 219 219 216 217 214 216 215 213 214 211 207 208 205 203 202 192 188 182 149 135 145 173 211 252 255 255 255 255 255 255 255 255 255 255 255 255 255 255 255 255 255 255 255 255 255 255 255 255 255 255 255 255
255 255 255 255 255 255 255 255 255 255 255 255 255 255 255 255 255 255 255 255 255 238 205 184 174 189 199 211 210 212 214 218 217 218 218 219 221 221 221 221 221 218 220 220 219 221 219 222 223 221 222 217 223 220 220 220 216 220 216 218 215 215 215 211 210 210 211 210 210 210 206 201 199 194 185 174 141 133 158 190 236 255 255 255 255 255 255 255 255 255 255 255 255 255 255 255 255 255 255 255 255 255 255 255 255 255 255 255 255
255 255 255 255 255 255 255 255 255 255 255 255 255 255 255 255 255 255 255 255 255 234 208 185 173 186 202 207 214 213 214 218 218 220 221 218 221 222 221 222 223 220 221 223 220 223 218 222 220 221 218 216 220 223 219 218 218 218 216 219 218 216 215 215 212 213 214 213 209 206 207 204 200 190 188 186 161 135 141 170 211 252 255 255 255 255 255 255 255 255 255 255 255 255 255 255 255 255 255 255 255 255 255 255 255 255 255 255 255
255 255 255 255 255 255 255 255 255 255 255 255 255 255 255 255 255 255 255 255 255 235 209 189 176 189 201 210 213 213 213 217 217 218 217 218 218 220 218 220 223 223 219 223 219 221 222 219 219 224 225 223 220 221 221 218 218 219 219 220 219 216 214 212 215 214 212 212 208 209 206 204 205 200 197 191 178 141 130 154 187 234 255 255 255 255 255 255 255 255 255 255 255 255 255 255 255 255 255 255 255 255 255 255 255 255 255 255 255
255 255 255 255 255 255 255 255 255 255 255 255 255 255 255 255 255 255 255 255 255 236 206 189 182 192 204 206 210 215 214 218 222 222 219 219 223 218 222 221 222 224 222 224 222 224 222 223 222 221 223 223 221 221 221 221 219 218 220 219 217 218 220 217 216 216 217 216 211 213 210 208 207 201 196 189 180 161 131 145 174 213 253 255 255 255 255 255 255 255 255 255 255 255 255 255 255 255 255 255 255 255 255 255 255 255 255 255 255
255 255 255 255 255 255 255 255 255 255 255 255 255 255 255 255 255 255 255 255 255 239 210 192 178 190 200 207 212 213 214 222 220 217 222 220 221 223 222 220 220 221 221 224 224 223 220 220 222 221 221 221 219 220 222 220 219 221 219 222 217 219 219 221 218 216 213 212 206 212 212 207 205 203 199 189 189 180 140 132 160 194 240 255 255 255 255 255 255 255 255 255 255 255 255 255 255 255 255 255 255 255 255 255 255 255 255 255 255
255 255 255 255 255 255 255 255 255 255 255 255 255 255 255 255 255 255 255 255 255 240 211 193 183 188 201 207 208 214 214 216 217 220 220 221 221 221 220 221 222 222 222 221 221 222 222 226 221 220 223 221 221 223 219 221 221 219 223 218 219 213 215 214 216 217 214 213 214 212 210 208 206 206 202 197 192 186 155 130 146 173 219 254 255 255 255 255 255 255 255 255 255 255 255 255 255 255 255 255 255 255 255 255 255 255 255 255 255
255 255 255 255 255 255 255 255 255 255 255 255 255 255 255 255 255 255 255 255 255 242 216 195 186 189 202 207 214 219 216 216 217 221 219 222 219 220 221 222 222 225 220 220 219 219 222 223 225 223 221 221 223 221 223 222 219 220 223 220 218 221 219 218 216 216 215 218 215 213 210 209 209 205 203 199 189 185 173 138 139 163 201 249 255 255 255 255 255 255 255 255 255 255 255 255 255 255 255 255 255 255 255 255 255 255 255 255 255
255 255 255 255 255 255 255 255 255 255 255 255 255 255 255 255 255 255 255 255 255 246 220 194 186 186 201 205 211 212 213 217 219 218 218 219 222 223 219 223 220 221 223 219 223 219 220 219 222 222 221 224 221 224 222 224 219 220 218 219 221 218 218 219 217 212 215 217 217 211 209 211 210 206 205 198 198 193 182 154 132 152 183 234 255 255 255 255 255 255 255 255 255 255 255 255 255 255 255 255 255 255 255 255 255 255 255 255 255
255 255 255 255 255 255 255 255 255 255 255 255 255 255 255 255 255 255 255 255 255 246 220 197 184 188 198 208 212 217 213 218 218 218 218 217 221 218 218 222 220 221 221 222 223 223 219 224 224 221 222 219 224 221 222 220 222 221 218 219 222 220 218 215 216 218 216 217 214 216 213 212 211 210 208 202 199 194 187 168 139 149 170 218 254 255 255 255 255 255 255 255 255 255 255 255 255 255 255 255 255 255 255 255 255 255 255 255 255
255 255 255 255 255 255 255 255 255 255 255 255 255 255 255 255 255 255 255 255 255 252 228 203 188 183 198 204 214 214 213 215 219 216 219 219 222 222 223 220 221 224 220 224 220 221 222 222 222 224 222 224 223 222 221 224 219 223 220 220 218 221 220 219 217 217 218 214 212 217 214 214 209 207 209 202 202 197 187 177 142 142 166 198 249 255 255 255 255 255 255 255 255 255 255 255 255 255 255 255 255 255 255 255 255 255 255 255 255
255 255 255 255 255 255 255 255 255 255 255 255 255 255 255 255 255 255 255 255 255 252 230 210 193 190 196 204 210 212 215 212 217 219 221 217 220 222 221 221 221 223 221 222 224 225 221 223 222 224 224 223 219 226 224 221 220 221 219 221 217 217 220 219 216 216 215 215 210 214 212 213 211 209 207 206 204 200 196 184 154 139 158 186 238 255 255 255 255 255 255 255 255 255 255 255 255 255 255 255 255 255 255 255 255 255 255 255 255
255 255 255 255 255 255 255 255 255 255 255 255 255 255 255 255 255 255 255 255 255 254 236 214 198 186 196 208 210 216 212 218 216 217 220 219 221 220 224 223 221 224 221 222 223 221 222 222 224 223 224 226 222 222 221 220 219 219 223 218 221 217 221 217 219 214 218 215 214 215 215 212 211 212 207 204 203 200 191 185 169 138 144 180 224 255 255 255 255 255 255 255 255 255 255 255 255 255 255 255 255 255 255 255 255 255 255 255 255
255 255 255 255 255 255 255 255 255 255 255 255 255 255 255 255 255 255 255 255 255 255 243 216 198 187 191 202 209 214 219 215 215 216 220 220 219 219 223 222 223 223 227 222 223 221 220 223 223 224 222 222 224 221 224 222 225 220 223 221 220 220 218 220 218 215 215 215 217 216 214 211 213 210 211 210 203 202 200 192 180 145 145 164 210 252 255 255 255 255 255 255 255 255 255 255 255 255 255 255 255 255 255 255 255 255 255 255 255
255 255 255 255 255 255 255 255 255 255 255 255 255 255 255 255 255 255 255 255 255 255 249 222 202 190 189 198 206 213 213 214 220 221 218 219 222 222 220 222 222 221 224 221 222 221 218 224 222 221 223 223 221 223 224 222 218 220 222 221 220 223 221 220 215 219 220 217 216 218 211 214 214 212 212 208 204 203 194 196 179 150 141 165 198 245 255 255 255 255 255 255 255 255 255 255 255 255 255 255 255 255 255 255 255 255 255 255 255
255 255 255 255 255 255 255 255 255 255 255 255 255 255 255 255 255 255 255 255 255 255 252 229 210 193 187 196 207 212 210 213 214 217 220 221 220 221 222 222 223 224 223 222 221 223 222 224 224 222 223 220 221 220 220 223 221 220 221 220 223 220 216 216 218 220 218 218 215 216 215 211 211 212 211 211 207 201 200 192 189 158 137 152 189 236 255 255 255 255 255 255 255 255 255 255 255 255 255 255 255 255 255 255 255 255 255 255 255
255 255 255 255 255 255 255 255 255 255 255 255 255 255 255 255 255 255 255 255 255 255 254 237 216 197 191 192 204 211 209 214 216 217 216 219 220 222 219 221 221 217 223 222 222 223 220 221 222 222 222 226 222 222 222 223 220 217 222 220 219 223 218 218 218 221 218 216 218 219 215 217 215 213 212 211 208 202 200 196 187 171 140 149 178 229 255 255 255 255 255 255 255 255 255 255 255 255 255 255 255 255 255 255 255 255 255 255 255
255 255 255 255 255 255 255 255 255 255 255 255 255 255 255 255 255 255 255 255 255 255 255 244 224 208 192 186 197 205 214 214 214 218 214 219 222 222 221 220 220 220 222 223 224 226 221 218 222 222 225 222 224 224 224 223 220 218 222 222 221 222 219 221 219 217 218 217 214 219 219 215 212 211 211 212 208 205 201 194 187 174 145 154 178 220 255 255 255 255 255 255 255 255 255 255 255 255 255 255 255 255 255 255 255 255 255 255 255
255 255 255 255 255 255 255 255 255 255 255 255 255 255 255 255 255 255 255 255 255 255 255 250 231 208 193 186 201 204 208 214 217 216 218 219 218 221 218 222 222 223 222 224 223 222 219 222 223 222 224 222 222 221 222 221 223 221 220 218 220 222 221 220 220 218 221 218 217 218 215 216 212 212 211 209 210 206 205 201 190 177 151 146 170 208 252 255 255 255 255 255 255 255 255 255 255 255 255 255 255 255 255 255 255 255 255 255 255
255 255 255 255 255 255 255 255 255 255 255 255 255 255 255 255 255 255 255 255 255 255 255 254 238 217 197 193 193 204 212 209 216 214 213 219 219 219 221 225 223 221 220 224 225 220 223 225 219 222 221 224 224 224 222 221 224 221 221 223 221 220 221 221 221 217 220 222 221 216 219 216 215 216 216 208 210 209 202 199 191 183 152 146 168 204 249 255 255 255 255 255 255 255 255 255 255 255 255 255 255 255 255 255 255 255 255 255 255
255 255 255 255 255 255 255 255 255 255 255 255 255 255 255 255 255 255 255 255 255 255 255 255 246 226 204 193 192 200 208 210 211 216 215 220 218 220 221 222 223 222 219 222 223 221 221 222 221 224 224 222 225 223 219 221 222 221 222 221 219 221 222 220 221 217 218 215 218 216 212 217 215 216 211 213 210 208 201 202 193 179 156 140 169 195 244 255 255 255 255 255 255 255 255 255 255 255 255 255 255 255 255 255 255 255 255 255 255
255 255 255 255 255 255 255 255 255 255 255 255 255 255 255 255 255 255 255 255 255 255 255 255 251 232 216 197 189 200 205 208 210 212 215 216 217 219 218 221 219 221 222 222 224 221 223 223 224 222 222 222 224 223 224 220 223 224 223 223 221 221 219 224 220 220 217 220 215 217 218 216 217 212 218 213 210 203 203 201 193 187 155 142 158 198 242 255 255 255 255 255 255 255 255 255 255 255 255 255 255 255 255 255 255 255 255 255 255
255 255 255 255 255 255 255 255 255 255 255 255 255 255 255 255 255 255 255 255 255 255 255 255 255 241 224 207 191 192 202 209 214 212 214 219 219 218 218 220 220 221 223 225 220 221 219 224 223 224 222 223 222 221 223 220 224 223 220 220 219 222 218 220 222 218 220 218 219 216 214 218 215 215 215 215 208 205 204 199 197 185 166 143 160 195 240 255 255 255 255 255 255 255 255 255 255 255 255 255 255 255 255 255 255 255 255 255 255
255 255 255 255 255 255 255 255 255 255 255 255 255 255 255 255 255 255 255 255 255 255 255 255 255 250 231 214 200 193 196 206 209 212 212 214 217 218 221 216 220 218 220 220 219 223 220 221 219 226 222 224 222 220 219 223 222 225 222 220 224 222 221 222 220 217 219 219 217 216 215 215 216 217 214 213 208 209 204 206 195 186 165 144 158 188 238 255 255 255 255 255 255 255 255 255 255 255 255 255 255 255 255 255 255 255 255 255 255
255 255 255 255 255 255 255 255 255 255 255 255 255 255 255 255 255 255 255 255 255 255 255 255 255 254 242 222 209 194 191 207 204 209 217 213 217 218 216 222 220 217 221 222 221 221 221 220 221 224 221 222 220 224 225 224 219 221 220 221 221 222 221 220 221 224 219 220 220 218 216 216 214 216 215 212 211 205 210 201 196 190 168 144 154 184 232 255 255 255 255 255 255 255 255 255 255 255 255 255 255 255 255 255 255 255 255 255 255
255 255 255 255 255 255 255 255 255 255 255 255 255 255 255 255 255 255 255 255 255 255 255 255 255 255 250 231 213 201 191 197 203 212 214 213 216 219 217 220 223 219 219 223 225 220 224 222 220 222 224 221 221 223 220 222 223 222 222 222 222 220 220 220 218 220 217 221 217 220 219 218 215 214 212 212 211 209 203 203 197 184 173 149 155 192 229 255 255 255 255 255 255 255 255 255 255 255 255 255 255 255 255 255 255 255 255 255 255
255 255 255 255 255 255 255 255 255 255 255 255 255 255 255 255 255 255 255 255 255 255 255 255 255 255 255 243 223 207 197 193 198 208 209 210 216 216 217 217 220 218 220 219 219 220 224 218 222 223 225 222 220 222 222 220 217 223 221 220 219 223 221 220 222 218 221 221 219 220 215 218 216 212 212 210 209 213 207 203 199 191 173 144 156 183 230 255 255 255 255 255 255 255 255 255 255 255 255 255 255 255 255 255 255 255 255 255 255
255 255 255 255 255 255 255 255 255 255 255 255 255 255 255 255 255 255 255 255 255 255 255 255 255 255 255 251 235 218 203 187 193 202 209 214 213 212 212 215 218 218 220 223 223 222 219 222 224 222 220 222 219 220 224 222 219 222 217 221 222 222 220 221 218 221 220 221 217 219 214 220 215 215 211 211 210 206 206 197 197 194 170 145 157 182 230 255 255 255 255 255 255 255 255 255 255 255 255 255 255 255 255 255 255 255 255 255 255
255 255 255 255 255 255 255 255 255 255 255 255 255 255 255 255 255 255 255 255 255 255 255 255 255 255 255 255 244 230 211 199 193 197 204 209 213 213 211 218 217 218 220 221 219 220 221 220 223 223 224 222 222 220 223 222 223 220 220 219 221 222 217 225 222 220 221 219 216 214 215 219 216 216 211 211 208 207 204 206 197 189 176 148 158 186 231 255 255 255 255 255 255 255 255 255 255 255 255 255 255 255 255 255 255 255 255 255 255
255 255 255 255 255 255 255 255 255 255 255 255 255 255 255 255 255 255 255 255 255 255 255 255 255 255 255 255 254 239 224 207 197 190 197 209 210 215 217 215 213 217 220 217 220 219 219 218 222 216 222 220 221 223 222 220 222 219 220 221 220 219 220 221 221 220 217 219 220 215 216 215 217 215 215 213 213 210 205 203 198 189 174 149 156 186 232 255 255 255 255 255 255 255 255 255 255 255 255 255 255 255 255 255 255 255 255 255 255
255 255 255 255 255 255 255 255 255 255 255 255 255 255 255 255 255 255 255 255 255 255 255 255 255 255 255 255 255 250 233 217 202 197 193 201 207 214 210 215 216 215 213 218 218 222 219 219 220 219 219 220 221 222 224 223 221 220 222 218 222 221 221 224 221 218 218 217 219 218 216 217 214 215 212 212 208 208 208 202 197 189 168 146 161 191 235 255 255 255 255 255 255 255 255 255 255 255 255 255 255 255 255 255 255 255 255 255 255
255 255 255 255 255 255 255 255 255 255 255 255 255 255 255 255 255 255 255 255 255 255 255 255 255 255 255 255 255 255 246 228 213 206 193 191 202 210 206 213 214 214 217 215 222 219 218 219 222 222 221 219 220 220 221 218 222 221 221 221 219 218 223 219 221 219 220 218 220 218 215 213 211 214 214 211 210 208 202 200 198 188 169 145 162 195 238 255 255 255 255 255 255 255 255 255 255 255 255 255 255 255 255 255 255 255 255 255 255
255 255 255 255 255 255 255 255 255 255 255 255 255 255 255 255 255 255 255 255 255 255 255 255 255 255 255 255 255 255 254 244 226 209 196 190 195 201 207 209 212 210 215 213 218 217 218 216 220 218 219 222 220 219 220 217 218 222 222 218 220 218 221 221 218 218 218 216 217 216 219 213 216 214 213 209 207 210 203 202 194 187 170 149 165 201 242 255 255 255 255 255 255 255 255 255 255 255 255 255 255 255 255 255 255 255 255 255 255
255 255 255 255 255 255 255 255 255 255 255 255 255 255 255 255 255 255 255 255 255 255 255 255 255 255 255 255 255 255 255 253 241 223 208 201 188 192 203 205 211 211 211 216 213 217 218 218 220 221 217 219 219 221 216 219 216 223 219 221 220 219 221 222 219 219 219 218 216 215 217 213 209 212 216 211 209 208 206 200 198 186 166 147 170 203 246 255 255 255 255 255 255 255 255 255 255 255 255 255 255 255 255 255 255 255 255 255 255
255 255 255 255 255 255 255 255 255 255 255 255 255 255 255 255 255 255 255 255 255 255 255 255 255 255 255 255 255 255 255 255 251 236 222 208 194 191 195 203 206 207 213 211 211 218 217 216 218 218 218 221 220 221 220 223 220 222 219 219 219 220 218 219 217 217 216 216 214 214 218 217 213 212 211 208 211 207 201 203 188 182 158 147 166 205 248 255 255 255 255 255 255 255 255 255 255 255 255 255 255 255 255 255 255 255 255 255 255
255 255 255 255 255 255 255 255 255 255 255 255 255 255 255 255 255 255 255 255 255 255 255 255 255 255 255 255 255 255 255 255 255 251 233 220 207 195 188 192 204 208 207 213 211 214 213 213 214 217 217 219 216 217 220 216 215 218 219 219 220 216 220 217 220 216 217 216 219 216 213 216 216 211 213 211 208 209 204 201 192 181 153 153 175 215 252 255 255 255 255 255 255 255 255 255 255 255 255 255 255 255 255 255 255 255 255 255 255
255 255 255 255 255 255 255 255 255 255 255 255 255 255 255 255 255 255 255 255 255 255 255 255 255 255 255 255 255 255 255 255 255 255 249 235 215 208 194 194 193 198 203 207 211 212 214 211 215 217 214 219 215 214 218 218 222 219 219 220 221 218 220 218 221 218 218 217 214 212 216 216 211 213 211 208 204 204 202 196 191 180 143 155 184 218 254 255 255 255 255 255 255 255 255 255 255 255 255 255 255 255 255 255 255 255 255 255 255
255 255 255 255 255 255 255 255 255 255 255 255 255 255 255 255 255 255 255 255 255 255 255 255 255 255 255 255 255 255 255 255 255 255 255 250 233 218 205 198 186 184 196 199 207 210 206 213 213 213 215 216 215 216 217 221 214 220 220 214 218 217 219 218 216 216 215 218 214 213 213 214 210 214 211 212 203 205 196 195 192 168 146 164 190 230 255 255 255 255 255 255 255 255 255 255 255 255 255 255 255 255 255 255 255 255 255 255 255
255 255 255 255 255 255 255 255 255 255 255 255 255 255 255 255 255 255 255 255 255 255 255 255 255 255 255 255 255 255 255 255 255 255 255 255 251 235 222 210 194 190 187 195 200 203 205 210 211 212 210 211 214 214 214 215 218 218 215 218 218 218 219 217 215 216 213 213 216 214 211 211 212 211 210 208 207 201 196 192 186 159 145 161 197 238 255 255 255 255 255 255 255 255 255 255 255 255 255 255 255 255 255 255 255 255 255 255 255
255 255 255 255 255 255 255 255 255 255 255 255 255 255 255 255 255 255 255 255 255 255 255 255 255 255 255 255 255 255 255 255 255 255 255 255 255 252 239 223 210 198 193 187 188 197 205 206 211 210 208 214 213 217 216 211 214 216 215 216 217 215 214 216 216 213 213 213 212 213 212 211 212 206 206 204 201 199 197 187 179 149 146 166 207 248 255 255 255 255 255 255 255 255 255 255 255 255 255 255 255 255 255 255 255 255 255 255 255
255 255 255 255 255 255 255 255 255 255 255 255 255 255 255 255 255 255 255 255 255 255 255 255 255 255 255 255 255 255 255 255 255 255 255 255 255 255 253 242 231 213 200 194 184 186 188 199 201 207 209 207 210 211 212 214 212 214 211 213 211 212 217 212 213 214 212 214 211 213 207 215 207 205 205 204 201 198 194 187 166 140 146 182 222 254 255 255 255 255 255 255 255 255 255 255 255 255 255 255 255 255 255 255 255 255 255 255 255
255 255 255 255 255 255 255 255 255 255 255 255 255 255 255 255 255 255 255 255 255 255 255 255 255 255 255 255 255 255 255 255 255 255 255 255 255 255 255 254 247 233 219 207 198 183 180 186 192 197 204 202 205 208 210 207 210 212 209 213 209 216 210 213 209 214 211 212 213 209 212 209 210 207 205 203 195 196 188 181 152 143 161 193 234 255 255 255 255 255 255 255 255 255 255 255 255 255 255 255 255 255 255 255 255 255 255 255 255
255 255 255 255 255 255 255 255 255 255 255 255 255 255 255 255 255 255 255 255 255 255 255 255 255 255 255 255 255 255 255 255 255 255 255 255 255 255 255 255 255 249 235 224 212 199 192 183 181 183 190 196 201 203 202 206 207 208 209 210 211 208 209 210 206 211 209 205 209 207 206 206 205 206 201 196 193 185 180 164 133 139 170 208 247 255 255 255 255 255 255 255 255 255 255 255 255 255 255 255 255 255 255 255 255 255 255 255 255
255 255 255 255 255 255 255 255 255 255 255 255 255 255 255 255 255 255 255 255 255 255 255 255 255 255 255 255 255 255 255 255 255 255 255 255 255 255 255 255 255 255 254 245 231 213 203 196 187 184 180 182 189 190 199 204 201 202 203 205 208 207 204 207 209 204 209 207 211 206 203 203 196 200 196 195 186 180 169 137 121 146 183 225 254 255 255 255 255 255 255 255 255 255 255 255 255 255 255 255 255 255 255 255 255 255 255 255 255
255 255 255 255 255 255 255 255 255 255 255 255 255 255 255 255 255 255 255 255 255 255 255 255 255 255 255 255 255 255 255 255 255 255 255 255 255 255 255 255 255 255 255 255 252 240 228 210 206 194 184 178 179 175 181 185 191 197 201 200 201 202 203 204 203 202 202 204 206 206 201 196 196 196 192 186 173 163 120 111 125 153 203 245 255 255 255 255 255 255 255 255 255 255 255 255 255 255 255 255 255 255 255 255 255 255 255 255 255
255 255 255 255 255 255 255 255 255 255 255 255 255 255 255 255 255 255 255 255 255 255 255 255 255 255 255 255 255 255 255 255 255 255 255 255 255 255 255 255 255 255 255 255 255 255 249 237 223 218 204 193 185 176 175 175 169 173 179 185 191 194 193 197 201 200 196 196 197 192 195 188 195 180 182 165 132 103 99 116 144 183 227 254 255 255 255 255 255 255 255 255 255 255 255 255 255 255 255 255 255 255 255 255 255 255 255 255 255
255 255 255 255 255 255 255 255 255 255 255 255 255 255 255 255 255 255 255 255 255 255 255 255 255 255 255 255 255 255 255 255 255 255 255 255 255 255 255 255 255 255 255 255 255 255 255 254 248 237 223 211 203 193 183 179 178 171 165 164 165 161 171 175 172 178 174 179 179 175 179 167 161 143 135 108 96 96 104 124 166 211 251 255 255 255 255 255 255 255 255 255 255 255 255 255 255 255 255 255 255 255 255 255 255 255 255 255 255
255 255 255 255 255 255 255 255 255 255 255 255 255 255 255 255 255 255 255 255 255 255 255 255 255 255 255 255 255 255 255 255 255 255 255 255 255 255 255 255 255 255 255 255 255 255 255 255 255 255 250 242 230 215 206 196 189 184 182 174 168 158 151 153 153 151 147 149 143 137 137 129 129 122 113 103 99 110 135 158 205 246 255 255 255 255 255 255 255 255 255 255 255 255 255 255 255 255 255 255 255 255 255 255 255 255 255 255 255
255 255 255 255 255 255 255 255 255 255 255 255 255 255 255 255 255 255 255 255 255 255 255 255 255 255 255 255 255 255 255 255 255 255 255 255 255 255 255 255 255 255 255 255 255 255 255 255 255 255 255 255 253 247 237 229 219 205 201 188 184 179 177 172 160 157 154 150 143 141 140 137 138 131 131 129 137 144 177 219 250 255 255 255 255 255 255 255 255 255 255 255 255 255 255 255 255 255 255 255 255 255 255 255 255 255 255 255 255
255 255 255 255 255 255 255 255 255 255 255 255 255 255 255 255 255 255 255 255 255 255 255 255 255 255 255 255 255 255 255 255 255 255 255 255 255 255 255 255 255 255 255 255 255 255 255 255 255 255 255 255 255 255 255 253 247 239 231 222 215 202 191 194 186 180 183 173 167 165 162 159 164 165 165 170 183 209 243 254 255 255 255 255 255 255 255 255 255 255 255 255 255 255 255 255 255 255 255 255 255 255 255 255 255 255 255 255 255
255 255 255 255 255 255 255 255 255 255 255 255 255 255 255 255 255 255 255 255 255 255 255 255 255 255 255 255 255 255 255 255 255 255 255 255 255 255 255 255 255 255 255 255 255 255 255 255 255 255 255 255 255 255 255 255 255 255 255 253 248 243 236 230 225 216 212 211 210 201 200 203 212 213 228 238 250 255 255 255 255 255 255 255 255 255 255 255 255 255 255 255 255 255 255 255 255 255 255 255 255 255 255 255 255 255 255 255 255
255 255 255 255 255 255 255 255 255 255 255 255 255 255 255 255 255 255 255 255 255 255 255 255 255 255 255 255 255 255 255 255 255 255 255 255 255 255 255 255 255 255 255 255 255 255 255 255 255 255 255 255 255 255 255 255 255 255 255 255 255 255 255 255 255 253 252 251 250 250 251 252 254 255 255 255 255 255 255 255 255 255 255 255 255 255 255 255 255 255 255 255 255 255 255 255 255 255 255 255 255 255 255 255 255 255 255 255 255
255 255 255 255 255 255 255 255 255 255 255 255 255 255 255 255 255 255 255 255 255 255 255 255 255 255 255 255 255 255 255 255 255 255 255 255 255 255 255 255 255 255 255 255 255 255 255 255 255 255 255 255 255 255 255 255 255 255 255 255 255 255 255 255 255 255 255 255 255 255 255 255 255 255 255 255 255 255 255 255 255 255 255 255 255 255 255 255 255 255 255 255 255 255 255 255 255 255 255 255 255 255 255 255 255 255 255 255 255
255 255 255 255 255 255 255 255 255 255 255 255 255 255 255 255 255 255 255 255 255 255 255 255 255 255 255 255 255 255 255 255 255 255 255 255 255 255 255 255 255 255 255 255 255 255 255 255 255 255 255 255 255 255 255 255 255 255 255 255 255 255 255 255 255 255 255 255 255 255 255 255 255 255 255 255 255 255 255 255 255 255 255 255 255 255 255 255 255 255 255 255 255 255 255 255 255 255 255 255 255 255 255 255 255 255 255 255 255
255 255 255 255 255 255 255 255 255 255 255 255 255 255 255 255 255 255 255 255 255 255 255 255 255 255 255 255 255 255 255 255 255 255 255 255 255 255 255 255 255 255 255 255 255 255 255 255 255 255 255 255 255 255 255 255 255 255 255 255 255 255 255 255 255 255 255 255 255 255 255 255 255 255 255 255 255 255 255 255 255 255 255 255 255 255 255 255 255 255 255 255 255 255 255 255 255 255 255 255 255 255 255 255 255 255 255 255 255
255 255 255 255 255 255 255 255 255 255 255 255 255 255 255 255 255 255 255 255 255 255 255 255 255 255 255 255 255 255 255 255 255 255 255 255 255 255 255 255 255 255 255 255 255 255 255 255 255 255 255 255 255 255 255 255 255 255 255 255 255 255 255 255 255 255 255 255 255 255 255 255 255 255 255 255 255 255 255 255 255 255 255 255 255 255 255 255 255 255 255 255 255 255 255 255 255 255 255 255 255 255 255 255 255 255 255 255 255
255 255 255 255 255 255 255 255 255 255 255 255 255 255 255 255 255 255 255 255 255 255 255 255 255 255 255 255 255 255 255 255 255 255 255 255 255 255 255 255 255 255 255 255 255 255 255 255 255 255 255 255 255 255 255 255 255 255 255 255 255 255 255 255 255 255 255 255 255 255 255 255 255 255 255 255 255 255 255 255 255 255 255 255 255 255 255 255 255 255 255 255 255 255 255 255 255 255 255 255 255 255 255 255 255 255 255 255 255
255 255 255 255 255 255 255 255 255 255 255 255 255 255 255 255 255 255 255 255 255 255 255 255 255 255 255 255 255 255 255 255 255 255 255 255 255 255 255 255 255 255 255 255 255 255 255 255 255 255 255 255 255 255 255 255 255 255 255 255 255 255 255 255 255 255 255 255 255 255 255 255 255 255 255 255 255 255 255 255 255 255 255 255 255 255 255 255 255 255 255 255 255 255 255 255 255 255 255 255 255 255 255 255 255 255 255 255 255
255 255 255 255 255 255 255 255 255 255 255 255 255 255 255 255 255 255 255 255 255 255 255 255 255 255 255 255 255 255 255 255 255 255 255 255 255 255 255 255 255 255 255 255 255 255 255 255 255 255 255 255 255 255 255 255 255 255 255 255 255 255 255 255 255 255 255 255 255 255 255 255 255 255 255 255 255 255 255 255 255 255 255 255 255 255 255 255 255 255 255 255 255 255 255 255 255 255 255 255 255 255 255 255 255 255 255 255 255
255 255 255 255 255 255 255 255 255 255 255 255 255 255 255 255 255 255 255 255 255 255 255 255 255 255 255 255 255 255 255 255 255 255 255 255 255 255 255 255 255 255 255 255 255 255 255 255 255 255 255 255 255 255 255 255 255 255 255 255 255 255 255 255 255 255 255 255 255 255 255 255 255 255 255 255 255 255 255 255 255 255 255 255 255 255 255 255 255 255 255 255 255 255 255 255 255 255 255 255 255 255 255 255 255 255 255 255 255
255 255 255 255 255 255 255 255 255 255 255 255 255 255 255 255 255 255 255 255 255 255 255 255 255 255 255 255 255 255 255 255 255 255 255 255 255 255 255 255 255 255 255 255 255 255 255 255 255 255 255 255 255 255 255 255 255 255 255 255 255 255 255 255 255 255 255 255 255 255 255 255 255 255 255 255 255 255 255 255 255 255 255 255 255 255 255 255 255 255 255 255 255 255 255 255 255 255 255 255 255 255 255 255 255 255 255 255 255
255 255 255 255 255 255 255 255 255 255 255 255 255 255 255 255 255 255 255 255 255 255 255 255 255 255 255 255 255 255 255 255 255 255 255 255 255 255 255 255 255 255 255 255 255 255 255 255 255 255 255 255 255 255 255 255 255 255 255 255 255 255 255 255 255 255 255 255 255 255 255 255 255 255 255 255 255 255 255 255 255 255 255 255 255 255 255 255 255 255 255 255 255 255 255 255 255 255 255 255 255 255 255 255 255 255 255 255 255
255 255 255 255 255 255 255 255 255 255 255 255 255 255 255 255 255 255 255 255 255 255 255 255 255 255 255 255 255 255 255 255 255 255 255 255 255 255 255 255 255 255 255 255 255 255 255 255 255 255 255 255 255 255 255 255 255 255 255 255 255 255 255 255 255 255 255 255 255 255 255 255 255 255 255 255 255 255 255 255 255 255 255 255 255 255 255 255 255 255 255 255 255 255 255 255 255 255 255 255 255 255 255 255 255 255 255 255 255
255 255 255 255 255 255 255 255 255 255 255 255 255 255 255 255 255 255 255 255 255 255 255 255 255 255 255 255 255 255 255 255 255 255 255 255 255 255 255 255 255 255 255 255 255 255 255 255 255 255 255 255 255 255 255 255 255 255 255 255 255 255 255 255 255 255 255 255 255 255 255 255 255 255 255 255 255 255 255 255 255 255 255 255 255 255 255 255 255 255 255 255 255 255 255 255 255 255 255 255 255 255 255 255 255 255 255 255 255
255 255 255 255 255 255 255 255 255 255 255 255 255 255 255 255 255 255 255 255 255 255 255 255 255 255 255 255 255 255 255 255 255 255 255 255 255 255 255 255 255 255 255 255 255 255 255 255 255 255 255 255 255 255 255 255 255 255 255 255 255 255 255 255 255 255 255 255 255 255 255 255 255 255 255 255 255 255 255 255 255 255 255 255 255 255 255 255 255 255 255 255 255 255 255 255 255 255 255 255 255 255 255 255 255 255 255 255 255
255 255 255 255 255 255 255 255 255 255 255 255 255 255 255 255 255 255 255 255 255 255 255 255 255 255 255 255 255 255 255 255 255 255 255 255 255 255 255 255 255 255 255 255 255 255 255 255 255 255 255 255 255 255 255 255 255 255 255 255 255 255 255 255 255 255 255 255 255 255 255 255 255 255 255 255 255 255 255 255 255 255 255 255 255 255 255 255 255 255 255 255 255 255 255 255 255 255 255 255 255 255 255 255 255 255 255 255 255
