P2
92 92
255
255 255 255 255 255 255 255 255 255 255 255 255 255 255 255 255 255 255 255 255 255 255 255 255 255 255 255 255 255 255 255 255 255 255 255 255 255 255 255 255 255 255 255 255 255 255 255 255 255 255 255 255 255 255 255 255 255 255 255 255 255 255 255 255 255 255 255 255 255 255 255 255 255 255 255 255 255 255 255 255 255 255 255 255 255 255 255 255 255 255 255 255
255 255 255 255 255 255 255 255 255 255 255 255 255 255 255 255 255 255 255 255 255 255 255 255 255 255 255 255 255 255 255 255 255 255 255 255 255 255 255 255 255 255 255 255 255 255 255 255 255 255 255 255 255 255 255 255 255 255 255 255 255 255 255 255 255 255 255 255 255 255 255 255 255 255 255 255 255 255 255 255 255 255 255 255 255 255 255 255 255 255 255 255
255 255 255 255 255 255 255 255 255 255 255 255 255 255 255 255 255 255 255 255 255 255 255 255 255 255 255 255 255 255 255 255 255 255 255 255 255 255 255 255 255 255 255 255 255 255 255 255 255 255 255 255 255 255 255 255 255 255 255 255 255 255 255 255 255 255 255 255 255 255 255 255 255 255 255 255 255 255 255 255 255 255 255 255 255 255 255 255 255 255 255 255
255 255 255 255 255 255 255 255 255 255 255 255 255 255 255 255 255 255 255 255 255 255 255 255 255 255 255 255 255 255 255 255 255 255 255 255 255 255 255 255 255 255 255 255 255 255 255 255 255 255 255 255 255 255 255 255 255 255 255 255 255 255 255 255 255 255 255 255 255 255 255 255 255 255 255 255 255 255 255 255 255 255 255 255 255 255 255 255 255 255 255 255
255 255 255 255 255 255 255 255 255 255 255 255 255 255 255 255 255 255 255 255 255 255 255 255 255 255 255 255 255 255 255 255 255 255 255 255 255 255 255 255 255 255 255 255 255 255 255 255 255 255 255 255 255 255 255 255 255 255 255 255 255 255 255 255 255 255 255 255 255 255 255 255 255 255 255 255 255 255 255 255 255 255 255 255 255 255 255 255 255 255 255 255
255 255 255 255 255 255 255 255 255 255 255 255 255 255 255 255 255 255 255 255 255 255 255 255 255 255 255 255 255 255 255 255 255 255 255 255 255 255 255 255 255 255 255 255 255 255 255 255 255 255 255 255 255 255 255 255 255 255 255 255 255 255 255 255 255 255 255 255 255 255 255 255 255 255 255 255 255 255 255 255 255 255 255 255 255 255 255 255 255 255 255 255
255 255 255 255 255 255 255 255 255 255 255 255 255 255 255 255 255 255 255 255 255 255 255 255 255 255 255 255 255 255 255 255 255 255 255 255 255 255 255 255 255 255 255 255 255 255 255 255 255 255 255 255 255 255 255 255 255 255 255 255 255 255 255 255 255 255 255 255 255 255 255 255 255 255 255 255 255 255 255 255 255 255 255 255 255 255 255 255 255 255 255 255
255 255 255 255 255 255 255 255 255 255 255 255 255 255 255 255 255 255 255 255 255 255 255 255 255 255 255 255 255 255 255 255 255 255 255 255 255 255 255 255 255 255 255 255 255 255 255 255 255 255 255 255 255 255 255 255 255 255 255 255 255 255 255 255 255 255 255 255 255 255 255 255 255 255 255 255 255 255 255 255 255 255 255 255 255 255 255 255 255 255 255 255
255 255 255 255 255 255 255 255 255 255 255 255 255 255 255 255 255 255 255 255 255 255 255 255 255 255 255 255 255 255 255 255 255 255 255 255 255 255 255 255 255 255 255 255 255 255 255 255 255 255 255 255 255 255 255 255 255 255 255 255 255 255 255 255 255 255 255 255 255 255 255 255 255 255 255 255 255 255 255 255 255 255 255 255 255 255 255 255 255 255 255 255
255 255 255 255 255 255 255 255 255 255 255 255 255 255 255 255 255 255 255 255 255 255 255 255 255 255 255 255 255 255 255 255 255 255 255 255 255 255 255 255 255 255 255 255 255 255 255 255 255 255 255 255 255 255 255 255 255 255 255 255 255 255 255 255 255 255 255 255 255 255 255 255 255 255 255 255 255 255 255 255 255 255 255 255 255 255 255 255 255 255 255 255
255 255 255 255 255 255 255 255 255 255 255 255 255 255 255 255 255 255 255 255 255 255 255 255 255 255 255 255 255 255 255 255 255 255 255 255 255 255 255 255 255 255 255 255 255 255 255 255 255 255 255 255 255 255 255 255 255 255 255 255 255 255 255 255 255 255 255 255 255 255 255 255 255 255 255 255 255 255 255 255 255 255 255 255 255 255 255 255 255 255 255 255
255 255 255 255 255 255 255 255 255 255 255 255 255 255 255 255 255 255 255 255 255 255 255 255 255 255 255 255 255 255 255 255 255 255 255 255 255 255 255 255 255 255 255 255 255 255 255 255 255 255 255 255 255 255 255 255 255 255 255 255 255 255 255 255 255 255 255 255 255 255 255 255 255 255 255 255 255 255 255 255 255 255 255 255 255 255 255 255 255 255 255 255
255 255 255 255 255 255 255 255 255 255 255 255 255 255 255 255 255 255 255 255 255 255 255 255 255 255 255 255 255 255 255 255 255 255 255 255 255 255 255 255 255 255 255 255 255 255 255 255 255 255 255 255 255 255 255 255 255 255 255 255 255 255 255 255 255 255 255 255 255 255 255 255 255 255 255 255 255 255 255 255 255 255 255 255 255 255 255 255 255 255 255 255
255 255 255 255 255 255 255 255 255 255 255 255 255 255 255 255 255 255 255 255 255 255 255 255 255 255 255 255 255 253 252 250 250 250 250 252 254 255 255 255 255 255 255 255 255 255 255 255 255 255 255 255 255 255 255 255 255 255 255 255 255 255 255 255 255 255 255 255 255 255 255 255 255 255 255 255 255 255 255 255 255 255 255 255 255 255 255 255 255 255 255 255
255 255 255 255 255 255 255 255 255 255 255 255 255 255 255 255 255 255 255 255 255 255 255 255 255 255 249 239 231 224 222 222 218 222 222 226 229 236 241 245 251 254 255 255 255 255 255 255 255 255 255 255 255 255 255 255 255 255 255 255 255 255 255 255 255 255 255 255 255 255 255 255 255 255 255 255 255 255 255 255 255 255 255 255 255 255 255 255 255 255 255 255
255 255 255 255 255 255 255 255 255 255 255 255 255 255 255 255 255 255 255 255 255 255 255 255 249 230 214 199 192 188 187 185 184 189 189 194 194 199 206 216 220 228 238 247 253 255 255 255 255 255 255 255 255 255 255 255 255 255 255 255 255 255 255 255 255 255 255 255 255 255 255 255 255 255 255 255 255 255 255 255 255 255 255 255 255 255 255 255 255 255 255 255
255 255 255 255 255 255 255 255 255 255 255 255 255 255 255 255 255 255 255 255 255 255 255 243 213 191 171 160 159 151 153 153 152 155 162 161 168 171 175 179 188 194 208 217 229 239 248 254 255 255 255 255 255 255 255 255 255 255 255 255 255 255 255 255 255 255 255 255 255 255 255 255 255 255 255 255 255 255 255 255 255 255 255 255 255 255 255 255 255 255 255 255
255 255 255 255 255 255 255 255 255 255 255 255 255 255 255 255 255 255 255 255 255 255 246 206 173 151 134 124 124 127 131 125 132 135 138 142 145 147 154 155 161 168 175 184 194 204 218 229 244 253 255 255 255 255 255 255 255 255 255 255 255 255 255 255 255 255 255 255 255 255 255 255 255 255 255 255 255 255 255 255 255 255 255 255 255 255 255 255 255 255 255 255
255 255 255 255 255 255 255 255 255 255 255 255 255 255 255 255 255 255 255 255 255 254 210 162 137 111 103 95 103 111 111 124 134 132 128 131 131 127 136 139 141 143 149 159 163 175 189 198 209 227 242 252 255 255 255 255 255 255 255 255 255 255 255 255 255 255 255 255 255 255 255 255 255 255 255 255 255 255 255 255 255 255 255 255 255 255 255 255 255 255 255 255
255 255 255 255 255 255 255 255 255 255 255 255 255 255 255 255 255 255 255 255 255 234 176 137 112 90 80 75 104 128 136 145 146 150 150 148 145 148 140 136 131 134 131 135 142 151 159 166 180 195 212 226 243 254 255 255 255 255 255 255 255 255 255 255 255 255 255 255 255 255 255 255 255 255 255 255 255 255 255 255 255 255 255 255 255 255 255 255 255 255 255 255
255 255 255 255 255 255 255 255 255 255 255 255 255 255 255 255 255 255 255 255 252 203 156 114 91 73 68 91 138 147 154 156 157 159 161 163 160 159 158 151 150 143 133 136 129 133 131 144 151 163 180 196 212 231 249 255 255 255 255 255 255 255 255 255 255 255 255 255 255 255 255 255 255 255 255 255 255 255 255 255 255 255 255 255 255 255 255 255 255 255 255 255
255 255 255 255 255 255 255 255 255 255 255 255 255 255 255 255 255 255 255 255 235 183 133 101 82 72 89 129 152 154 163 172 168 170 170 168 167 167 167 166 163 161 156 149 143 135 122 128 136 142 155 165 182 201 219 239 254 255 255 255 255 255 255 255 255 255 255 255 255 255 255 255 255 255 255 255 255 255 255 255 255 255 255 255 255 255 255 255 255 255 255 255
255 255 255 255 255 255 255 255 255 255 255 255 255 255 255 255 255 255 255 255 213 167 127 95 78 80 117 152 165 167 173 176 175 174 175 172 173 175 178 170 170 168 166 161 156 150 144 127 125 127 134 140 152 171 190 208 229 250 255 255 255 255 255 255 255 255 255 255 255 255 255 255 255 255 255 255 255 255 255 255 255 255 255 255 255 255 255 255 255 255 255 255
255 255 255 255 255 255 255 255 255 255 255 255 255 255 255 255 255 255 255 247 193 153 119 93 84 96 145 160 166 174 172 176 176 176 177 179 175 174 181 176 176 173 174 170 171 159 157 151 143 135 128 129 133 143 161 179 200 220 242 255 255 255 255 255 255 255 255 255 255 255 255 255 255 255 255 255 255 255 255 255 255 255 255 255 255 255 255 255 255 255 255 255
255 255 255 255 255 255 255 255 255 255 255 255 255 255 255 255 255 255 255 234 181 144 114 100 91 128 160 164 172 177 179 180 179 181 186 179 181 181 181 180 181 181 177 176 174 170 167 161 156 151 136 124 124 126 136 157 171 192 215 238 254 255 255 255 255 255 255 255 255 255 255 255 255 255 255 255 255 255 255 255 255 255 255 255 255 255 255 255 255 255 255 255
255 255 255 255 255 255 255 255 255 255 255 255 255 255 255 255 255 255 255 220 171 140 114 96 100 139 166 174 177 177 181 182 184 181 184 185 185 186 184 186 181 179 177 178 177 172 176 169 160 160 152 153 134 125 124 130 146 164 185 210 236 254 255 255 255 255 255 255 255 255 255 255 255 255 255 255 255 255 255 255 255 255 255 255 255 255 255 255 255 255 255 255
255 255 255 255 255 255 255 255 255 255 255 255 255 255 255 255 255 255 252 207 162 133 105 103 119 156 170 177 179 184 185 182 186 181 185 188 186 186 188 186 186 186 183 179 179 180 178 176 171 169 162 154 147 137 125 120 127 142 160 180 203 232 253 255 255 255 255 255 255 255 255 255 255 255 255 255 255 255 255 255 255 255 255 255 255 255 255 255 255 255 255 255
255 255 255 255 255 255 255 255 255 255 255 255 255 255 255 255 255 255 245 197 160 132 113 105 129 163 171 180 181 181 185 185 190 188 191 189 188 189 188 189 188 189 186 184 184 178 178 179 181 178 172 165 158 150 143 126 121 127 140 159 180 202 231 253 255 255 255 255 255 255 255 255 255 255 255 255 255 255 255 255 255 255 255 255 255 255 255 255 255 255 255 255
255 255 255 255 255 255 255 255 255 255 255 255 255 255 255 255 255 255 239 190 156 126 113 114 142 168 178 178 180 183 187 188 187 189 190 191 190 190 190 191 190 185 187 187 186 184 180 184 177 178 178 171 166 159 153 146 128 114 124 136 156 182 204 233 254 255 255 255 255 255 255 255 255 255 255 255 255 255 255 255 255 255 255 255 255 255 255 255 255 255 255 255
255 255 255 255 255 255 255 255 255 255 255 255 255 255 255 255 255 255 230 186 152 129 112 119 150 173 177 181 184 185 189 188 188 189 191 191 193 190 192 189 193 191 190 190 186 187 187 181 183 179 182 175 171 167 166 157 141 134 113 122 135 156 178 208 236 255 255 255 255 255 255 255 255 255 255 255 255 255 255 255 255 255 255 255 255 255 255 255 255 255 255 255
255 255 255 255 255 255 255 255 255 255 255 255 255 255 255 255 255 255 224 184 149 133 113 126 159 174 180 183 188 186 191 193 191 192 191 192 192 195 191 192 189 190 191 193 190 189 187 182 184 184 181 183 177 176 168 165 159 149 129 120 121 133 155 179 213 243 255 255 255 255 255 255 255 255 255 255 255 255 255 255 255 255 255 255 255 255 255 255 255 255 255 255
255 255 255 255 255 255 255 255 255 255 255 255 255 255 255 255 255 254 220 181 158 124 119 135 168 175 179 184 189 188 192 192 191 192 190 195 194 194 194 191 191 192 192 194 192 192 188 189 184 182 182 179 178 177 176 172 167 160 147 130 120 120 136 164 187 219 248 255 255 255 255 255 255 255 255 255 255 255 255 255 255 255 255 255 255 255 255 255 255 255 255 255
255 255 255 255 255 255 255 255 255 255 255 255 255 255 255 255 255 254 215 177 145 126 119 141 167 174 183 184 190 190 192 193 193 194 195 195 193 194 192 195 194 189 194 192 190 192 191 188 190 188 184 181 184 181 177 171 168 163 154 146 130 114 123 139 165 194 226 253 255 255 255 255 255 255 255 255 255 255 255 255 255 255 255 255 255 255 255 255 255 255 255 255
255 255 255 255 255 255 255 255 255 255 255 255 255 255 255 255 255 252 213 174 149 130 123 145 172 179 185 185 186 191 195 194 193 193 192 195 197 195 195 194 195 194 191 196 191 191 191 191 188 189 189 182 185 182 180 182 174 174 164 161 140 126 120 129 147 174 206 236 255 255 255 255 255 255 255 255 255 255 255 255 255 255 255 255 255 255 255 255 255 255 255 255
255 255 255 255 255 255 255 255 255 255 255 255 255 255 255 255 255 252 214 175 153 132 130 142 173 184 183 185 192 192 193 196 194 196 194 195 196 195 198 198 194 197 199 194 192 192 192 191 191 190 187 186 186 185 181 183 178 173 170 161 157 139 122 118 132 153 182 216 246 255 255 255 255 255 255 255 255 255 255 255 255 255 255 255 255 255 255 255 255 255 255 255
255 255 255 255 255 255 255 255 255 255 255 255 255 255 255 255 255 252 213 182 148 133 129 149 170 178 185 187 190 188 194 194 197 195 192 193 196 199 198 195 196 197 194 196 196 195 191 192 190 191 191 190 188 184 183 184 177 177 169 165 162 153 136 117 121 135 163 197 229 253 255 255 255 255 255 255 255 255 255 255 255 255 255 255 255 255 255 255 255 255 255 255
255 255 255 255 255 255 255 255 255 255 255 255 255 255 255 255 255 252 217 179 153 137 133 148 172 179 183 189 193 196 196 194 192 195 198 196 196 196 194 196 198 197 195 197 197 194 196 193 191 192 187 189 188 184 185 181 181 179 173 169 165 161 149 122 119 123 141 171 209 243 255 255 255 255 255 255 255 255 255 255 255 255 255 255 255 255 255 255 255 255 255 255
255 255 255 255 255 255 255 255 255 255 255 255 255 255 255 255 255 251 214 183 157 135 127 152 172 181 187 190 194 196 194 193 197 195 196 196 195 198 194 197 199 198 193 200 196 195 194 193 193 191 191 189 193 189 187 185 177 178 177 172 167 164 162 139 120 120 137 157 190 225 252 255 255 255 255 255 255 255 255 255 255 255 255 255 255 255 255 255 255 255 255 255
255 255 255 255 255 255 255 255 255 255 255 255 255 255 255 255 255 252 217 182 156 141 134 153 173 181 185 186 188 191 195 197 197 194 196 199 199 200 196 198 199 197 197 196 197 199 194 197 192 194 194 189 191 187 191 185 183 182 178 174 172 167 162 152 133 118 129 147 173 206 241 255 255 255 255 255 255 255 255 255 255 255 255 255 255 255 255 255 255 255 255 255
255 255 255 255 255 255 255 255 255 255 255 255 255 255 255 255 255 253 220 189 160 140 133 147 170 180 186 188 192 193 194 193 195 198 198 197 195 199 196 199 196 199 196 197 195 196 198 192 193 190 194 192 191 189 188 186 187 184 183 178 172 172 168 158 149 122 117 130 157 190 226 253 255 255 255 255 255 255 255 255 255 255 255 255 255 255 255 255 255 255 255 255
255 255 255 255 255 255 255 255 255 255 255 255 255 255 255 255 255 254 225 188 165 142 137 149 172 182 184 187 192 194 196 195 198 201 197 196 199 199 195 199 198 198 197 197 195 195 198 195 198 194 192 190 192 189 189 190 189 185 183 179 176 175 167 164 159 135 123 122 150 174 208 243 255 255 255 255 255 255 255 255 255 255 255 255 255 255 255 255 255 255 255 255
255 255 255 255 255 255 255 255 255 255 255 255 255 255 255 255 255 255 230 195 166 150 139 147 170 179 186 191 195 194 196 193 196 197 200 200 199 202 198 198 200 197 196 196 197 196 195 195 195 193 192 191 194 193 189 188 187 185 183 180 181 176 170 165 156 144 124 118 138 162 190 230 254 255 255 255 255 255 255 255 255 255 255 255 255 255 255 255 255 255 255 255
255 255 255 255 255 255 255 255 255 255 255 255 255 255 255 255 255 255 235 201 175 151 138 142 164 178 186 189 194 193 194 196 198 197 196 199 198 199 198 200 198 197 196 197 197 198 199 198 193 196 194 194 192 193 193 191 188 187 184 184 180 177 179 169 165 155 136 115 130 151 181 217 249 255 255 255 255 255 255 255 255 255 255 255 255 255 255 255 255 255 255 255
255 255 255 255 255 255 255 255 255 255 255 255 255 255 255 255 255 255 240 207 177 153 134 143 164 177 181 187 192 192 196 196 195 200 196 200 199 197 196 197 198 200 198 196 197 198 196 200 197 195 194 189 195 194 196 190 188 193 185 184 183 179 177 169 168 160 148 125 122 143 170 204 239 255 255 255 255 255 255 255 255 255 255 255 255 255 255 255 255 255 255 255
255 255 255 255 255 255 255 255 255 255 255 255 255 255 255 255 255 255 247 212 185 159 145 142 163 177 181 187 189 193 194 197 198 197 197 197 197 197 198 198 198 199 198 199 197 200 198 196 198 194 196 197 196 193 190 191 189 187 186 186 183 179 178 174 171 164 149 134 121 140 161 190 228 254 255 255 255 255 255 255 255 255 255 255 255 255 255 255 255 255 255 255
255 255 255 255 255 255 255 255 255 255 255 255 255 255 255 255 255 255 250 219 190 166 146 144 155 172 184 188 190 193 195 195 197 198 196 199 197 199 200 198 201 197 199 201 200 198 198 201 193 197 198 193 197 194 194 193 189 188 187 186 186 186 183 177 176 165 159 138 123 131 151 182 215 249 255 255 255 255 255 255 255 255 255 255 255 255 255 255 255 255 255 255
255 255 255 255 255 255 255 255 255 255 255 255 255 255 255 255 255 255 254 228 197 175 154 143 153 172 178 184 189 194 193 196 196 195 198 197 199 200 197 199 199 199 199 197 198 199 200 196 194 196 196 196 193 191 196 192 191 192 191 190 187 182 179 177 174 166 161 152 127 121 146 175 207 242 255 255 255 255 255 255 255 255 255 255 255 255 255 255 255 255 255 255
255 255 255 255 255 255 255 255 255 255 255 255 255 255 255 255 255 255 255 236 206 181 160 148 143 164 179 184 189 193 194 193 194 196 198 199 197 198 197 196 199 200 197 199 198 201 197 200 198 197 200 194 196 193 194 192 192 190 190 187 188 186 185 176 175 171 163 157 127 125 140 164 195 232 255 255 255 255 255 255 255 255 255 255 255 255 255 255 255 255 255 255
255 255 255 255 255 255 255 255 255 255 255 255 255 255 255 255 255 255 255 245 215 189 165 149 145 161 176 182 185 192 195 194 195 193 199 196 198 198 199 200 198 196 196 200 199 197 198 197 195 197 198 198 195 191 195 195 191 192 193 190 187 186 182 182 176 172 167 154 145 125 134 161 188 223 254 255 255 255 255 255 255 255 255 255 255 255 255 255 255 255 255 255
255 255 255 255 255 255 255 255 255 255 255 255 255 255 255 255 255 255 255 252 225 198 169 156 149 152 170 178 184 188 194 194 198 195 201 198 198 197 198 198 199 197 196 196 199 200 199 195 199 196 200 199 195 194 196 193 192 190 193 194 189 185 185 184 178 176 172 161 150 124 131 152 185 219 250 255 255 255 255 255 255 255 255 255 255 255 255 255 255 255 255 255
255 255 255 255 255 255 255 255 255 255 255 255 255 255 255 255 255 255 255 255 234 206 186 166 150 143 170 176 183 186 187 192 191 196 196 197 199 197 199 199 200 201 201 200 199 200 197 198 199 200 194 195 197 198 196 193 190 191 194 195 191 184 183 184 181 175 170 164 154 128 129 152 175 210 246 255 255 255 255 255 255 255 255 255 255 255 255 255 255 255 255 255
255 255 255 255 255 255 255 255 255 255 255 255 255 255 255 255 255 255 255 255 246 219 192 173 149 148 160 172 179 183 189 191 194 193 195 199 198 195 197 195 198 197 200 201 201 201 200 201 195 198 197 199 195 196 197 195 192 191 191 187 189 186 184 184 182 175 171 164 152 129 128 140 169 203 241 255 255 255 255 255 255 255 255 255 255 255 255 255 255 255 255 255
255 255 255 255 255 255 255 255 255 255 255 255 255 255 255 255 255 255 255 255 253 231 202 178 158 149 150 172 175 183 185 190 191 195 195 198 198 198 199 195 200 199 199 200 201 198 197 200 198 198 199 193 197 194 194 193 195 194 192 190 192 186 188 185 180 180 172 164 159 139 132 142 166 196 237 255 255 255 255 255 255 255 255 255 255 255 255 255 255 255 255 255
255 255 255 255 255 255 255 255 255 255 255 255 255 255 255 255 255 255 255 255 255 242 215 189 165 152 150 159 178 181 188 186 193 193 195 199 199 196 200 198 199 199 196 200 201 199 196 196 199 198 200 199 196 194 195 197 194 191 194 192 193 191 185 186 178 177 174 168 158 145 135 138 166 192 231 254 255 255 255 255 255 255 255 255 255 255 255 255 255 255 255 255
255 255 255 255 255 255 255 255 255 255 255 255 255 255 255 255 255 255 255 255 255 251 226 202 179 162 147 150 165 179 184 188 192 193 194 194 198 196 196 197 198 198 200 199 199 200 198 200 197 195 195 197 196 196 197 194 193 193 193 192 194 191 187 185 187 182 176 169 164 144 131 140 162 193 229 254 255 255 255 255 255 255 255 255 255 255 255 255 255 255 255 255
255 255 255 255 255 255 255 255 255 255 255 255 255 255 255 255 255 255 255 255 255 255 240 214 193 172 158 150 159 174 180 184 188 192 197 194 190 195 197 200 200 199 201 197 197 200 196 201 197 198 198 199 199 196 197 196 192 192 191 194 189 193 188 183 181 180 173 176 164 148 129 139 163 192 225 252 255 255 255 255 255 255 255 255 255 255 255 255 255 255 255 255
255 255 255 255 255 255 255 255 255 255 255 255 255 255 255 255 255 255 255 255 255 255 251 230 204 185 166 149 152 165 173 183 186 190 189 194 196 196 198 196 196 197 199 197 199 201 198 200 200 198 196 198 196 197 197 194 191 192 192 190 193 188 189 186 185 181 176 171 164 153 130 139 159 185 223 252 255 255 255 255 255 255 255 255 255 255 255 255 255 255 255 255
255 255 255 255 255 255 255 255 255 255 255 255 255 255 255 255 255 255 255 255 255 255 255 243 220 192 175 159 153 155 169 179 184 187 189 188 190 196 195 194 195 199 198 198 203 198 196 198 197 198 201 196 198 199 196 195 196 193 190 191 188 189 189 186 183 182 181 174 165 152 134 137 160 184 222 252 255 255 255 255 255 255 255 255 255 255 255 255 255 255 255 255
255 255 255 255 255 255 255 255 255 255 255 255 255 255 255 255 255 255 255 255 255 255 255 254 230 209 190 170 156 149 157 172 178 187 189 187 190 194 195 193 195 194 198 198 198 196 196 200 198 199 196 198 196 198 196 197 194 195 190 195 191 192 185 186 182 182 177 173 164 154 135 138 160 188 220 251 255 255 255 255 255 255 255 255 255 255 255 255 255 255 255 255
255 255 255 255 255 255 255 255 255 255 255 255 255 255 255 255 255 255 255 255 255 255 255 255 248 225 202 179 163 155 155 164 173 183 185 184 190 189 194 191 195 195 196 196 196 200 200 197 196 196 200 199 197 198 195 196 192 192 193 192 191 194 187 185 181 183 178 170 165 154 132 138 157 187 222 251 255 255 255 255 255 255 255 255 255 255 255 255 255 255 255 255
255 255 255 255 255 255 255 255 255 255 255 255 255 255 255 255 255 255 255 255 255 255 255 255 255 241 216 197 177 161 154 149 163 177 184 185 184 189 191 191 192 196 194 196 194 197 196 198 197 198 197 193 199 191 196 195 194 190 191 193 190 189 189 188 186 181 178 171 160 155 132 131 160 191 223 250 255 255 255 255 255 255 255 255 255 255 255 255 255 255 255 255
255 255 255 255 255 255 255 255 255 255 255 255 255 255 255 255 255 255 255 255 255 255 255 255 255 253 234 210 192 174 162 151 147 165 174 178 187 185 192 190 193 192 192 195 194 194 198 197 197 197 195 194 197 196 197 197 193 191 193 193 188 189 184 181 184 177 178 170 164 150 133 137 156 190 222 252 255 255 255 255 255 255 255 255 255 255 255 255 255 255 255 255
255 255 255 255 255 255 255 255 255 255 255 255 255 255 255 255 255 255 255 255 255 255 255 255 255 255 251 230 206 187 171 159 148 149 161 171 181 180 184 190 191 190 192 192 194 192 195 196 196 193 195 196 195 192 197 196 191 192 193 189 189 193 186 183 183 181 178 171 164 152 136 141 163 197 225 253 255 255 255 255 255 255 255 255 255 255 255 255 255 255 255 255
255 255 255 255 255 255 255 255 255 255 255 255 255 255 255 255 255 255 255 255 255 255 255 255 255 255 255 247 226 203 185 169 160 151 148 163 174 182 183 184 189 188 190 190 192 192 195 192 196 195 195 193 194 194 194 192 195 192 196 187 189 190 187 186 184 178 178 169 157 147 136 145 165 197 229 254 255 255 255 255 255 255 255 255 255 255 255 255 255 255 255 255
255 255 255 255 255 255 255 255 255 255 255 255 255 255 255 255 255 255 255 255 255 255 255 255 255 255 255 255 244 223 205 183 167 158 151 148 160 173 176 181 180 186 189 189 191 194 193 194 190 193 193 194 192 191 193 190 193 189 190 188 189 184 187 187 180 177 173 165 160 147 126 145 169 200 234 255 255 255 255 255 255 255 255 255 255 255 255 255 255 255 255 255
255 255 255 255 255 255 255 255 255 255 255 255 255 255 255 255 255 255 255 255 255 255 255 255 255 255 255 255 255 245 222 203 185 169 154 146 144 154 169 175 181 186 187 186 192 188 195 190 191 191 191 191 193 194 191 191 192 188 192 187 187 184 184 182 179 176 172 163 158 140 130 148 176 208 240 255 255 255 255 255 255 255 255 255 255 255 255 255 255 255 255 255
255 255 255 255 255 255 255 255 255 255 255 255 255 255 255 255 255 255 255 255 255 255 255 255 255 255 255 255 255 255 243 223 203 187 168 164 151 143 147 164 172 179 180 184 185 188 187 186 194 189 191 189 191 192 189 192 190 188 188 191 187 182 180 180 179 173 169 161 152 130 132 150 183 212 243 255 255 255 255 255 255 255 255 255 255 255 255 255 255 255 255 255
255 255 255 255 255 255 255 255 255 255 255 255 255 255 255 255 255 255 255 255 255 255 255 255 255 255 255 255 255 255 255 243 223 205 188 174 161 150 149 142 153 167 175 175 181 184 185 184 186 189 185 187 188 190 189 185 189 188 185 190 184 184 180 177 170 175 166 154 143 130 138 159 188 219 250 255 255 255 255 255 255 255 255 255 255 255 255 255 255 255 255 255
255 255 255 255 255 255 255 255 255 255 255 255 255 255 255 255 255 255 255 255 255 255 255 255 255 255 255 255 255 255 255 255 247 227 211 189 178 166 153 145 141 142 156 168 173 172 178 180 180 182 183 183 186 183 187 184 183 185 181 179 184 179 177 177 171 169 161 155 132 121 138 166 194 228 253 255 255 255 255 255 255 255 255 255 255 255 255 255 255 255 255 255
255 255 255 255 255 255 255 255 255 255 255 255 255 255 255 255 255 255 255 255 255 255 255 255 255 255 255 255 255 255 255 255 255 250 233 211 195 179 165 163 153 147 139 143 151 162 170 175 178 181 181 178 183 183 181 183 180 183 180 183 174 177 172 170 168 162 158 135 117 126 145 171 202 236 255 255 255 255 255 255 255 255 255 255 255 255 255 255 255 255 255 255
255 255 255 255 255 255 255 255 255 255 255 255 255 255 255 255 255 255 255 255 255 255 255 255 255 255 255 255 255 255 255 255 255 255 253 241 220 205 188 177 157 151 144 139 137 144 143 151 160 170 172 172 175 175 175 178 174 175 179 171 172 172 168 159 162 153 135 122 112 127 154 181 214 247 255 255 255 255 255 255 255 255 255 255 255 255 255 255 255 255 255 255
255 255 255 255 255 255 255 255 255 255 255 255 255 255 255 255 255 255 255 255 255 255 255 255 255 255 255 255 255 255 255 255 255 255 255 255 247 230 212 197 185 172 163 148 142 142 138 132 135 140 150 155 159 163 168 168 169 169 167 166 166 158 160 154 138 125 105 91 111 130 160 196 228 253 255 255 255 255 255 255 255 255 255 255 255 255 255 255 255 255 255 255
255 255 255 255 255 255 255 255 255 255 255 255 255 255 255 255 255 255 255 255 255 255 255 255 255 255 255 255 255 255 255 255 255 255 255 255 255 253 241 223 206 192 178 167 159 148 141 136 129 135 132 126 125 131 138 142 143 147 147 140 142 129 126 109 90 75 69 86 111 140 177 209 243 255 255 255 255 255 255 255 255 255 255 255 255 255 255 255 255 255 255 255
255 255 255 255 255 255 255 255 255 255 255 255 255 255 255 255 255 255 255 255 255 255 255 255 255 255 255 255 255 255 255 255 255 255 255 255 255 255 255 251 239 221 206 194 184 169 161 150 139 136 133 129 122 123 115 115 116 113 108 104 99 91 87 74 72 70 78 99 123 157 196 231 253 255 255 255 255 255 255 255 255 255 255 255 255 255 255 255 255 255 255 255
255 255 255 255 255 255 255 255 255 255 255 255 255 255 255 255 255 255 255 255 255 255 255 255 255 255 255 255 255 255 255 255 255 255 255 255 255 255 255 255 255 250 238 222 208 197 185 171 164 154 151 138 134 128 125 123 112 106 104 104 101 92 89 86 81 82 98 116 149 184 221 248 255 255 255 255 255 255 255 255 255 255 255 255 255 255 255 255 255 255 255 255
255 255 255 255 255 255 255 255 255 255 255 255 255 255 255 255 255 255 255 255 255 255 255 255 255 255 255 255 255 255 255 255 255 255 255 255 255 255 255 255 255 255 255 252 243 227 214 203 189 183 176 164 156 147 144 136 130 126 123 118 111 112 108 103 104 114 128 151 180 213 246 255 255 255 255 255 255 255 255 255 255 255 255 255 255 255 255 255 255 255 255 255
255 255 255 255 255 255 255 255 255 255 255 255 255 255 255 255 255 255 255 255 255 255 255 255 255 255 255 255 255 255 255 255 255 255 255 255 255 255 255 255 255 255 255 255 255 255 250 240 228 218 205 193 190 179 171 166 162 154 151 147 144 139 140 138 140 155 166 192 226 249 255 255 255 255 255 255 255 255 255 255 255 255 255 255 255 255 255 255 255 255 255 255
255 255 255 255 255 255 255 255 255 255 255 255 255 255 255 255 255 255 255 255 255 255 255 255 255 255 255 255 255 255 255 255 255 255 255 255 255 255 255 255 255 255 255 255 255 255 255 255 255 252 246 238 228 216 206 201 197 191 188 185 185 182 188 189 197 210 229 245 255 255 255 255 255 255 255 255 255 255 255 255 255 255 255 255 255 255 255 255 255 255 255 255
255 255 255 255 255 255 255 255 255 255 255 255 255 255 255 255 255 255 255 255 255 255 255 255 255 255 255 255 255 255 255 255 255 255 255 255 255 255 255 255 255 255 255 255 255 255 255 255 255 255 255 255 255 255 252 249 245 243 241 238 239 239 242 247 252 255 255 255 255 255 255 255 255 255 255 255 255 255 255 255 255 255 255 255 255 255 255 255 255 255 255 255
255 255 255 255 255 255 255 255 255 255 255 255 255 255 255 255 255 255 255 255 255 255 255 255 255 255 255 255 255 255 255 255 255 255 255 255 255 255 255 255 255 255 255 255 255 255 255 255 255 255 255 255 255 255 255 255 255 255 255 255 255 255 255 255 255 255 255 255 255 255 255 255 255 255 255 255 255 255 255 255 255 255 255 255 255 255 255 255 255 255 255 255
255 255 255 255 255 255 255 255 255 255 255 255 255 255 255 255 255 255 255 255 255 255 255 255 255 255 255 255 255 255 255 255 255 255 255 255 255 255 255 255 255 255 255 255 255 255 255 255 255 255 255 255 255 255 255 255 255 255 255 255 255 255 255 255 255 255 255 255 255 255 255 255 255 255 255 255 255 255 255 255 255 255 255 255 255 255 255 255 255 255 255 255
255 255 255 255 255 255 255 255 255 255 255 255 255 255 255 255 255 255 255 255 255 255 255 255 255 255 255 255 255 255 255 255 255 255 255 255 255 255 255 255 255 255 255 255 255 255 255 255 255 255 255 255 255 255 255 255 255 255 255 255 255 255 255 255 255 255 255 255 255 255 255 255 255 255 255 255 255 255 255 255 255 255 255 255 255 255 255 255 255 255 255 255
255 255 255 255 255 255 255 255 255 255 255 255 255 255 255 255 255 255 255 255 255 255 255 255 255 255 255 255 255 255 255 255 255 255 255 255 255 255 255 255 255 255 255 255 255 255 255 255 255 255 255 255 255 255 255 255 255 255 255 255 255 255 255 255 255 255 255 255 255 255 255 255 255 255 255 255 255 255 255 255 255 255 255 255 255 255 255 255 255 255 255 255
255 255 255 255 255 255 255 255 255 255 255 255 255 255 255 255 255 255 255 255 255 255 255 255 255 255 255 255 255 255 255 255 255 255 255 255 255 255 255 255 255 255 255 255 255 255 255 255 255 255 255 255 255 255 255 255 255 255 255 255 255 255 255 255 255 255 255 255 255 255 255 255 255 255 255 255 255 255 255 255 255 255 255 255 255 255 255 255 255 255 255 255
255 255 255 255 255 255 255 255 255 255 255 255 255 255 255 255 255 255 255 255 255 255 255 255 255 255 255 255 255 255 255 255 255 255 255 255 255 255 255 255 255 255 255 255 255 255 255 255 255 255 255 255 255 255 255 255 255 255 255 255 255 255 255 255 255 255 255 255 255 255 255 255 255 255 255 255 255 255 255 255 255 255 255 255 255 255 255 255 255 255 255 255
255 255 255 255 255 255 255 255 255 255 255 255 255 255 255 255 255 255 255 255 255 255 255 255 255 255 255 255 255 255 255 255 255 255 255 255 255 255 255 255 255 255 255 255 255 255 255 255 255 255 255 255 255 255 255 255 255 255 255 255 255 255 255 255 255 255 255 255 255 255 255 255 255 255 255 255 255 255 255 255 255 255 255 255 255 255 255 255 255 255 255 255
255 255 255 255 255 255 255 255 255 255 255 255 255 255 255 255 255 255 255 255 255 255 255 255 255 255 255 255 255 255 255 255 255 255 255 255 255 255 255 255 255 255 255 255 255 255 255 255 255 255 255 255 255 255 255 255 255 255 255 255 255 255 255 255 255 255 255 255 255 255 255 255 255 255 255 255 255 255 255 255 255 255 255 255 255 255 255 255 255 255 255 255
255 255 255 255 255 255 255 255 255 255 255 255 255 255 255 255 255 255 255 255 255 255 255 255 255 255 255 255 255 255 255 255 255 255 255 255 255 255 255 255 255 255 255 255 255 255 255 255 255 255 255 255 255 255 255 255 255 255 255 255 255 255 255 255 255 255 255 255 255 255 255 255 255 255 255 255 255 255 255 255 255 255 255 255 255 255 255 255 255 255 255 255
255 255 255 255 255 255 255 255 255 255 255 255 255 255 255 255 255 255 255 255 255 255 255 255 255 255 255 255 255 255 255 255 255 255 255 255 255 255 255 255 255 255 255 255 255 255 255 255 255 255 255 255 255 255 255 255 255 255 255 255 255 255 255 255 255 255 255 255 255 255 255 255 255 255 255 255 255 255 255 255 255 255 255 255 255 255 255 255 255 255 255 255
255 255 255 255 255 255 255 255 255 255 255 255 255 255 255 255 255 255 255 255 255 255 255 255 255 255 255 255 255 255 255 255 255 255 255 255 255 255 255 255 255 255 255 255 255 255 255 255 255 255 255 255 255 255 255 255 255 255 255 255 255 255 255 255 255 255 255 255 255 255 255 255 255 255 255 255 255 255 255 255 255 255 255 255 255 255 255 255 255 255 255 255
255 255 255 255 255 255 255 255 255 255 255 255 255 255 255 255 255 255 255 255 255 255 255 255 255 255 255 255 255 255 255 255 255 255 255 255 255 255 255 255 255 255 255 255 255 255 255 255 255 255 255 255 255 255 255 255 255 255 255 255 255 255 255 255 255 255 255 255 255 255 255 255 255 255 255 255 255 255 255 255 255 255 255 255 255 255 255 255 255 255 255 255
255 255 255 255 255 255 255 255 255 255 255 255 255 255 255 255 255 255 255 255 255 255 255 255 255 255 255 255 255 255 255 255 255 255 255 255 255 255 255 255 255 255 255 255 255 255 255 255 255 255 255 255 255 255 255 255 255 255 255 255 255 255 255 255 255 255 255 255 255 255 255 255 255 255 255 255 255 255 255 255 255 255 255 255 255 255 255 255 255 255 255 255
