P2
109 109
255
255 255 255 255 255 255 255 255 255 255 255 255 255 255 255 255 255 255 255 255 255 255 255 255 255 255 255 255 255 255 255 255 255 255 255 255 255 255 255 255 255 255 255 255 255 255 255 255 255 255 255 255 255 254 255 255 254 254 255 255 255 255 255 255 255 255 255 255 255 255 255 255 255 255 255 255 255 255 255 255 255 255 255 255 255 255 255 255 255 255 255 255 255 255 255 255 255 255 255 255 255 255 255 255 255 255 255 255 255
255 255 255 255 255 255 255 255 255 255 255 255 255 255 255 255 255 255 255 255 255 255 255 255 255 255 255 255 255 255 255 255 255 255 255 255 255 255 255 255 255 255 255 255 255 255 254 254 252 251 250 249 248 248 249 248 248 248 249 248 249 250 251 252 253 254 255 255 255 255 255 255 255 255 255 255 255 255 255 255 255 255 255 255 255 255 255 255 255 255 255 255 255 255 255 255 255 255 255 255 255 255 255 255 255 255 255 255 255
255 255 255 255 255 255 255 255 255 255 255 255 255 255 255 255 255 255 255 255 255 255 255 255 255 255 255 255 255 255 255 255 255 255 255 255 255 255 255 255 254 253 251 251 250 246 245 243 241 241 238 242 237 238 236 234 236 237 237 237 239 239 240 242 243 246 249 251 253 253 255 255 255 255 255 255 255 255 255 255 255 255 255 255 255 255 255 255 255 255 255 255 255 255 255 255 255 255 255 255 255 255 255 255 255 255 255 255 255
255 255 255 255 255 255 255 255 255 255 255 255 255 255 255 255 255 255 255 255 255 255 255 255 255 255 255 255 255 255 255 255 255 255 255 255 255 253 251 249 246 243 240 238 236 233 234 233 231 227 225 228 225 225 223 225 223 223 223 219 224 227 228 228 232 233 238 238 244 246 249 252 254 255 255 255 255 255 255 255 255 255 255 255 255 255 255 255 255 255 255 255 255 255 255 255 255 255 255 255 255 255 255 255 255 255 255 255 255
255 255 255 255 255 255 255 255 255 255 255 255 255 255 255 255 255 255 255 255 255 255 255 255 255 255 255 255 255 255 255 255 255 255 253 251 248 244 239 234 232 229 229 231 225 224 220 218 218 215 218 220 217 217 214 216 215 214 215 213 216 214 218 219 219 223 227 229 231 233 238 242 245 250 253 254 255 255 255 255 255 255 255 255 255 255 255 255 255 255 255 255 255 255 255 255 255 255 255 255 255 255 255 255 255 255 255 255 255
255 255 255 255 255 255 255 255 255 255 255 255 255 255 255 255 255 255 255 255 255 255 255 255 255 255 255 255 255 255 255 255 254 250 245 240 237 232 226 223 223 218 218 218 217 215 218 214 212 216 218 216 217 218 213 215 215 218 213 216 215 214 214 212 215 215 215 217 220 224 224 232 232 238 242 247 251 254 255 255 255 255 255 255 255 255 255 255 255 255 255 255 255 255 255 255 255 255 255 255 255 255 255 255 255 255 255 255 255
255 255 255 255 255 255 255 255 255 255 255 255 255 255 255 255 255 255 255 255 255 255 255 255 255 255 255 255 255 255 254 249 244 240 236 230 224 219 216 216 213 212 217 214 216 214 215 216 218 219 215 220 220 218 219 215 215 221 217 217 217 216 212 214 216 213 215 216 215 216 215 219 221 228 230 236 240 245 250 254 255 255 255 255 255 255 255 255 255 255 255 255 255 255 255 255 255 255 255 255 255 255 255 255 255 255 255 255 255
255 255 255 255 255 255 255 255 255 255 255 255 255 255 255 255 255 255 255 255 255 255 255 255 255 255 255 255 254 250 244 241 233 228 222 218 215 214 216 212 214 214 217 217 216 217 219 219 216 220 220 222 221 220 221 219 218 222 221 223 221 216 219 219 216 220 218 217 214 215 215 215 218 216 218 225 229 235 241 246 250 254 255 255 255 255 255 255 255 255 255 255 255 255 255 255 255 255 255 255 255 255 255 255 255 255 255 255 255
255 255 255 255 255 255 255 255 255 255 255 255 255 255 255 255 255 255 255 255 255 255 255 255 255 255 255 251 246 240 234 229 222 217 211 211 211 214 217 217 215 215 216 220 219 220 221 223 221 220 219 219 219 219 223 219 219 222 220 217 222 220 219 219 219 221 219 219 219 216 215 219 215 212 217 214 218 223 229 235 242 247 253 255 255 255 255 255 255 255 255 255 255 255 255 255 255 255 255 255 255 255 255 255 255 255 255 255 255
255 255 255 255 255 255 255 255 255 255 255 255 255 255 255 255 255 255 255 255 255 255 255 255 255 253 249 241 234 227 224 217 216 209 211 210 217 216 218 218 219 221 220 221 222 223 224 220 219 218 222 224 222 224 224 222 222 220 222 225 220 220 222 225 223 221 220 218 221 218 218 217 216 216 220 212 213 214 218 221 229 237 245 252 255 255 255 255 255 255 255 255 255 255 255 255 255 255 255 255 255 255 255 255 255 255 255 255 255
255 255 255 255 255 255 255 255 255 255 255 255 255 255 255 255 255 255 255 255 255 255 255 255 252 245 238 229 224 216 212 211 213 216 214 216 217 220 216 217 222 218 219 221 223 223 222 223 222 223 221 225 225 223 223 223 222 224 221 227 220 221 222 224 222 221 221 223 219 223 222 219 220 221 222 218 218 214 213 217 223 228 237 243 251 254 255 255 255 255 255 255 255 255 255 255 255 255 255 255 255 255 255 255 255 255 255 255 255
255 255 255 255 255 255 255 255 255 255 255 255 255 255 255 255 255 255 255 255 255 255 254 250 243 236 224 220 216 212 212 214 213 217 218 219 218 222 222 221 219 224 222 224 223 223 224 225 221 224 223 221 223 223 225 225 223 222 223 223 224 221 222 221 223 224 221 222 223 223 223 220 224 222 221 221 218 216 215 212 215 219 227 237 243 248 252 255 255 255 255 255 255 255 255 255 255 255 255 255 255 255 255 255 255 255 255 255 255
255 255 255 255 255 255 255 255 255 255 255 255 255 255 255 255 255 255 255 255 255 254 248 241 231 224 217 213 209 210 215 215 215 218 219 219 219 221 220 223 220 223 222 223 222 223 223 222 221 223 224 222 223 222 223 225 227 225 223 225 225 222 226 219 226 224 224 223 223 223 226 225 222 222 220 220 220 220 218 220 213 218 220 225 234 238 246 251 255 255 255 255 255 255 255 255 255 255 255 255 255 255 255 255 255 255 255 255 255
255 255 255 255 255 255 255 255 255 255 255 255 255 255 255 255 255 255 255 255 254 248 239 233 222 216 211 217 215 214 217 220 220 217 221 221 222 224 224 224 220 224 222 223 223 221 225 225 222 224 225 226 223 225 225 225 224 225 224 224 223 226 225 225 223 225 225 222 223 224 222 224 224 223 219 220 221 219 221 218 219 214 214 218 222 228 236 241 249 254 255 255 255 255 255 255 255 255 255 255 255 255 255 255 255 255 255 255 255
255 255 255 255 255 255 255 255 255 255 255 255 255 255 255 255 255 255 255 253 247 239 228 219 216 209 214 215 219 216 220 217 220 220 222 220 221 222 225 225 227 224 226 226 225 223 225 224 226 226 224 224 227 225 227 226 226 225 223 223 224 225 225 224 227 222 226 224 223 227 221 222 223 222 223 221 224 221 224 219 221 217 217 214 214 221 225 234 238 248 253 255 255 255 255 255 255 255 255 255 255 255 255 255 255 255 255 255 255
255 255 255 255 255 255 255 255 255 255 255 255 255 255 255 255 255 255 253 245 237 230 219 218 211 215 217 219 218 218 221 222 218 222 224 225 224 223 225 225 224 223 223 223 225 223 223 224 226 226 227 222 224 225 224 224 227 224 227 224 226 227 224 224 224 224 225 223 226 227 222 225 225 223 222 220 223 225 224 217 217 218 218 218 217 216 217 222 230 239 246 253 255 255 255 255 255 255 255 255 255 255 255 255 255 255 255 255 255
255 255 255 255 255 255 255 255 255 255 255 255 255 255 255 255 255 253 246 236 229 219 210 211 211 216 219 215 219 222 221 220 223 223 222 223 224 223 220 224 225 226 226 224 226 223 226 226 226 227 229 226 224 227 225 222 226 227 228 227 228 227 225 223 225 223 226 225 224 226 226 225 225 225 224 226 224 223 225 222 222 219 222 217 216 216 213 219 222 230 237 246 253 255 255 255 255 255 255 255 255 255 255 255 255 255 255 255 255
255 255 255 255 255 255 255 255 255 255 255 255 255 255 255 255 254 247 238 226 222 211 213 213 217 217 219 220 223 220 223 222 222 225 223 225 223 224 225 222 224 225 224 224 227 228 228 224 224 223 224 224 226 224 225 224 226 226 224 227 225 225 225 225 227 225 225 226 224 223 222 227 224 226 224 224 225 224 223 224 223 217 223 223 219 217 217 216 217 221 228 234 246 252 255 255 255 255 255 255 255 255 255 255 255 255 255 255 255
255 255 255 255 255 255 255 255 255 255 255 255 255 255 255 254 248 239 227 219 215 217 212 220 218 219 222 219 221 222 226 222 223 224 223 225 225 222 225 223 222 223 225 225 228 223 225 225 227 224 226 224 225 224 226 226 225 226 225 222 227 225 224 226 225 223 227 225 225 224 225 224 221 227 222 223 226 222 222 219 223 220 223 222 219 220 220 217 218 217 221 228 234 244 253 255 255 255 255 255 255 255 255 255 255 255 255 255 255
255 255 255 255 255 255 255 255 255 255 255 255 255 255 255 250 240 231 219 214 212 218 217 216 220 221 220 219 221 224 220 224 223 225 223 223 225 223 222 223 224 225 226 224 227 223 224 226 224 225 226 224 224 226 223 227 224 225 222 225 223 224 229 226 227 228 224 228 226 222 226 225 225 225 226 223 225 225 223 224 223 225 224 225 219 218 223 220 219 217 216 222 227 235 245 253 255 255 255 255 255 255 255 255 255 255 255 255 255
255 255 255 255 255 255 255 255 255 255 255 255 255 255 252 240 232 221 215 212 214 220 218 218 225 225 221 223 222 219 226 227 225 220 224 228 226 224 226 227 225 228 223 223 221 225 226 222 227 228 228 222 222 227 224 225 225 225 225 226 225 227 223 224 224 224 228 222 225 222 223 226 222 226 226 222 224 221 225 228 225 223 224 224 221 220 218 221 219 214 213 213 216 229 238 248 253 255 255 255 255 255 255 255 255 255 255 255 255
255 255 255 255 255 255 255 255 255 255 255 255 255 253 244 235 221 218 211 212 217 218 220 218 217 222 223 222 224 222 223 226 224 221 222 227 224 225 223 223 225 224 223 224 224 226 225 225 227 225 226 225 225 227 222 227 227 225 228 225 227 225 226 224 226 223 225 225 224 227 223 224 227 226 227 226 225 223 224 224 225 223 222 224 223 224 224 220 221 220 220 218 214 223 227 238 248 254 255 255 255 255 255 255 255 255 255 255 255
255 255 255 255 255 255 255 255 255 255 255 255 254 248 237 227 219 212 209 217 219 221 217 221 221 220 223 219 224 224 225 219 226 222 225 225 227 228 230 225 225 223 227 223 221 226 222 224 226 222 227 226 222 224 228 227 223 224 228 228 226 225 221 223 225 225 224 226 226 226 225 224 224 226 224 227 227 224 226 223 226 223 226 224 225 220 224 221 222 221 218 220 215 214 222 231 241 250 255 255 255 255 255 255 255 255 255 255 255
255 255 255 255 255 255 255 255 255 255 255 255 248 241 230 220 213 214 216 217 219 221 220 224 225 221 223 226 223 225 227 223 225 225 225 222 224 227 226 227 228 224 224 224 224 222 222 224 228 226 224 226 225 228 226 225 229 225 226 226 224 223 228 227 226 221 225 228 229 226 225 224 224 225 225 224 227 228 223 227 224 223 226 224 223 224 222 220 219 223 221 219 217 213 216 223 234 242 252 255 255 255 255 255 255 255 255 255 255
255 255 255 255 255 255 255 255 255 255 255 253 244 235 221 216 211 214 212 221 220 224 220 223 224 223 223 222 224 226 224 226 227 225 226 225 222 226 223 227 225 225 222 225 223 226 224 226 227 228 223 228 223 225 223 225 227 228 226 222 226 224 220 225 225 223 225 223 226 226 225 223 224 228 224 226 222 225 224 225 224 226 225 223 225 224 225 219 223 221 223 219 219 215 216 220 223 236 246 254 255 255 255 255 255 255 255 255 255
255 255 255 255 255 255 255 255 255 255 254 247 235 227 216 208 212 219 215 219 220 218 223 221 221 221 222 228 225 225 227 226 227 224 224 226 222 227 223 224 226 224 227 223 227 225 228 223 222 225 227 225 224 224 224 225 225 226 225 223 225 224 224 226 223 223 223 225 226 224 228 223 226 223 226 223 227 224 223 227 223 225 226 222 226 221 222 223 220 222 220 218 219 217 217 214 217 227 239 250 254 255 255 255 255 255 255 255 255
255 255 255 255 255 255 255 255 255 254 248 240 228 218 209 211 215 220 219 220 218 219 223 222 226 226 224 223 225 225 226 226 224 225 224 223 227 225 227 222 226 225 224 227 226 225 226 226 224 225 224 224 222 226 224 227 225 228 225 222 227 222 225 225 224 224 227 225 224 226 226 224 222 227 225 224 228 222 222 227 225 226 225 224 225 225 223 222 222 223 221 219 222 216 217 213 215 222 231 243 252 255 255 255 255 255 255 255 255
255 255 255 255 255 255 255 255 254 249 239 226 221 215 208 213 215 217 221 221 222 224 222 225 225 224 225 227 221 225 227 223 224 225 226 227 227 225 224 224 224 225 224 226 225 222 225 224 226 227 225 225 225 226 223 223 227 221 225 226 221 222 228 226 227 223 225 224 226 225 225 227 228 228 226 225 224 227 226 225 226 224 227 222 225 225 223 225 222 226 224 220 221 223 218 219 210 218 225 234 246 254 255 255 255 255 255 255 255
255 255 255 255 255 255 255 255 252 241 230 221 209 210 213 216 219 218 223 220 225 221 225 222 227 226 225 229 226 225 224 225 224 225 225 223 226 223 225 226 225 224 223 226 224 225 224 224 224 225 226 226 226 226 222 225 223 225 222 226 225 226 226 220 224 225 227 227 224 224 226 226 224 225 225 224 223 226 225 226 225 224 224 223 223 224 226 222 226 225 223 221 224 222 222 213 216 217 220 230 242 251 255 255 255 255 255 255 255
255 255 255 255 255 255 255 255 248 236 222 211 210 212 216 217 218 219 223 224 225 224 222 226 224 225 225 226 225 226 225 226 223 224 222 225 225 223 222 222 226 225 225 225 225 224 225 226 222 224 222 224 226 223 225 224 224 222 224 224 227 226 227 223 227 226 222 225 227 226 224 223 225 222 226 227 227 226 226 225 226 228 222 222 226 225 224 224 224 222 223 222 226 224 218 219 217 214 215 225 233 245 254 255 255 255 255 255 255
255 255 255 255 255 255 255 253 242 229 217 206 208 215 217 221 222 218 223 223 224 220 224 226 222 222 224 227 222 227 223 223 228 225 224 226 226 225 225 224 223 225 226 225 224 224 223 225 226 226 221 225 223 224 223 224 226 223 222 222 225 224 226 222 225 225 223 224 224 223 225 226 226 226 224 224 229 226 225 226 228 228 226 224 226 225 223 224 222 223 223 222 225 222 220 218 219 217 213 222 231 238 250 255 255 255 255 255 255
255 255 255 255 255 255 255 249 236 222 215 209 211 215 214 222 220 223 222 224 223 223 225 225 223 226 222 225 222 225 226 225 225 224 225 224 227 225 225 223 224 222 224 225 227 224 225 224 226 226 225 224 224 224 225 222 223 223 226 224 225 224 224 222 223 222 228 226 225 224 225 224 224 227 225 224 224 224 224 226 225 226 226 227 225 223 226 222 223 222 224 223 222 220 221 221 219 217 214 217 225 233 246 253 255 255 255 255 255
255 255 255 255 255 255 253 242 229 219 213 211 212 217 221 221 223 220 221 224 221 225 224 225 225 226 223 228 223 222 229 226 227 224 223 224 225 226 223 226 223 225 223 226 224 226 223 225 226 221 222 224 222 225 223 224 225 224 224 221 225 222 224 223 222 226 225 226 223 222 225 227 226 224 226 226 225 227 225 227 223 228 222 225 223 225 224 225 221 227 221 218 224 226 219 220 220 220 214 214 217 227 238 250 255 255 255 255 255
255 255 255 255 255 255 248 237 222 213 206 208 215 216 222 222 223 221 225 222 224 225 225 223 225 225 225 227 224 224 226 223 224 225 224 225 224 223 224 224 226 225 224 224 227 221 223 227 223 222 225 223 224 223 221 226 223 223 221 220 225 226 226 224 224 224 224 224 223 224 223 227 224 225 224 223 228 228 222 224 225 223 227 224 224 225 227 224 224 223 225 225 223 223 223 223 223 221 218 217 216 221 234 246 254 255 255 255 255
255 255 255 255 255 254 245 228 217 210 213 214 216 218 220 222 221 223 221 226 226 226 221 225 226 227 225 225 226 227 226 224 224 226 222 224 224 227 226 227 224 222 224 223 227 225 225 222 226 225 225 225 223 223 222 222 224 224 225 225 225 224 222 224 224 225 225 222 220 223 224 225 224 223 223 226 226 222 225 225 225 225 227 224 226 224 224 225 225 227 221 227 224 222 222 220 220 218 219 218 212 217 230 241 251 255 255 255 255
255 255 255 255 255 251 240 226 214 208 212 216 216 218 219 221 222 224 224 223 222 223 225 227 225 227 229 226 225 225 225 226 224 225 226 224 226 222 225 224 223 223 224 226 224 224 225 225 223 224 222 223 222 222 221 223 223 223 225 222 226 222 224 221 227 226 224 226 225 226 224 223 225 225 226 227 224 220 227 224 225 225 226 224 226 227 226 222 226 225 224 224 219 224 224 220 222 217 219 219 213 214 224 236 249 254 255 255 255
255 255 255 255 255 247 234 223 214 207 213 215 215 216 225 223 222 222 222 222 227 225 224 222 221 223 224 224 222 227 225 225 226 224 226 224 227 223 226 223 226 226 223 223 225 224 223 224 223 224 224 224 224 226 225 223 224 222 220 226 224 223 224 221 224 225 224 224 227 226 226 222 224 224 224 224 224 225 224 226 228 227 223 226 224 224 222 224 222 222 225 223 223 224 221 223 221 222 221 218 215 215 220 232 245 253 255 255 255
255 255 255 255 254 243 229 215 207 206 213 215 217 220 220 223 220 223 224 224 220 227 225 225 227 223 225 227 228 223 227 226 225 223 223 224 226 225 225 224 226 225 223 228 224 219 224 225 225 221 222 225 222 225 224 223 222 224 219 222 220 222 222 222 221 225 221 227 222 227 220 224 224 227 226 224 226 223 227 227 227 226 228 225 224 222 226 228 223 224 223 223 225 226 220 222 224 220 220 219 217 213 221 228 239 251 255 255 255
255 255 255 255 251 238 225 211 206 210 212 222 218 219 225 221 222 226 222 225 224 225 223 226 223 223 225 225 226 223 224 224 222 222 222 226 225 224 226 225 223 225 222 223 223 223 226 225 226 224 223 225 222 223 223 224 222 220 224 224 227 225 219 224 223 223 225 223 226 226 224 224 224 225 224 223 226 224 224 224 223 223 228 224 222 226 226 224 222 225 226 222 227 221 222 218 222 223 223 221 215 212 214 224 237 247 254 255 255
255 255 255 255 250 236 221 207 206 212 215 216 222 221 221 222 223 222 222 226 223 225 226 226 221 224 224 226 231 225 226 225 223 227 226 223 221 226 225 225 223 223 220 223 222 224 220 222 224 221 221 225 222 224 224 223 226 222 224 225 224 222 224 223 223 223 224 223 224 222 225 226 224 227 222 223 225 223 224 222 227 224 224 227 227 225 221 225 227 226 225 222 224 224 225 224 222 221 221 221 219 218 215 221 233 243 253 255 255
255 255 255 254 246 231 218 208 207 213 214 222 221 217 219 220 223 224 225 227 222 225 226 225 225 223 225 225 227 225 223 224 222 223 226 222 222 224 224 225 223 223 222 222 223 222 223 222 222 220 224 222 223 223 222 218 222 221 222 220 222 223 225 224 223 226 223 225 224 224 226 223 225 225 225 224 221 222 224 224 226 226 224 228 226 227 227 227 223 229 225 224 226 221 225 225 223 223 222 221 221 218 215 219 226 241 251 255 255
255 255 255 253 240 225 212 206 210 215 216 221 222 222 224 220 224 223 225 225 224 225 223 227 225 222 224 223 224 223 226 225 228 225 225 221 224 224 224 224 225 221 222 226 224 225 224 224 222 224 222 219 223 223 222 223 223 226 221 223 222 226 222 224 223 224 221 221 223 222 226 223 223 224 223 224 225 224 226 228 221 225 227 226 225 227 223 224 228 227 225 225 224 223 221 226 225 225 221 217 222 218 213 218 224 235 248 255 255
255 255 255 251 238 223 213 204 211 216 218 220 221 221 222 223 224 224 224 222 221 227 227 226 225 224 223 224 224 225 223 225 225 224 224 225 221 222 226 221 224 223 221 223 221 222 224 223 220 222 223 223 224 222 220 224 223 224 221 220 221 226 225 224 222 223 225 222 223 223 224 221 226 222 225 227 223 223 227 225 225 222 224 224 227 225 225 224 225 226 223 224 225 224 225 225 222 220 222 222 220 216 219 217 223 235 244 254 255
255 255 255 249 235 219 210 205 214 214 216 220 218 221 220 220 225 221 225 222 222 223 228 224 223 226 227 226 224 222 225 225 226 220 225 224 224 222 223 222 222 225 222 220 223 224 221 223 222 223 223 223 220 222 223 221 221 222 222 220 222 222 221 224 224 223 226 225 225 224 226 225 226 223 224 224 225 225 223 225 226 227 224 224 223 227 229 225 226 227 223 224 227 226 223 226 223 222 221 223 222 216 218 213 218 230 242 253 255
255 255 255 245 234 219 207 208 215 217 214 218 221 219 223 223 222 224 223 226 224 227 224 226 225 227 223 229 225 225 225 223 223 225 223 225 224 221 224 223 221 226 223 222 224 222 220 221 222 222 224 222 223 220 221 222 221 223 221 221 223 222 222 218 224 220 219 224 225 224 221 224 223 227 226 223 222 224 224 225 226 228 225 225 224 225 225 226 225 226 226 223 226 224 222 225 224 224 220 219 220 222 214 214 216 228 240 251 255
255 255 254 245 233 218 204 206 216 217 222 219 220 221 226 226 222 227 222 226 224 224 223 222 224 226 224 226 225 226 225 224 225 223 222 225 224 224 224 223 222 225 224 225 226 223 221 223 222 223 220 222 221 220 219 222 222 221 220 220 222 224 223 220 223 223 224 224 222 223 227 223 223 223 222 225 227 224 224 225 224 225 221 224 226 227 223 226 226 226 224 226 225 226 225 225 223 223 224 223 219 219 220 212 216 225 238 250 255
255 255 254 242 227 214 205 208 212 216 216 219 218 222 223 224 224 224 223 223 225 225 223 223 224 226 225 225 226 227 225 224 224 224 223 224 223 223 224 224 223 221 224 222 224 222 223 224 220 223 221 221 222 222 221 222 222 223 223 222 224 222 221 223 221 223 222 222 222 223 223 223 223 226 227 224 221 225 224 225 225 225 227 226 224 226 227 226 225 226 227 225 225 225 226 223 224 223 224 222 220 218 219 211 215 226 236 250 255
255 255 253 242 226 211 200 209 216 216 217 220 225 225 225 222 225 224 226 225 226 225 223 223 226 228 227 225 227 224 224 223 221 221 225 225 224 223 223 224 220 221 220 224 224 223 221 222 222 222 223 221 222 222 223 221 221 220 220 221 220 222 223 224 223 221 220 223 221 223 219 223 222 222 220 223 224 224 225 227 225 224 224 223 224 228 224 227 225 225 226 224 223 223 226 228 226 225 224 222 222 218 217 216 215 222 236 246 255
255 255 252 239 221 211 207 208 218 217 220 218 218 222 224 226 223 225 224 225 223 226 226 226 225 226 226 227 226 224 227 225 224 223 225 221 221 225 226 220 222 221 221 224 218 223 221 223 223 222 220 225 220 220 221 222 223 221 222 223 221 222 221 222 223 226 222 225 221 223 222 225 225 221 223 224 223 223 225 226 223 224 225 226 227 224 227 226 225 225 224 222 223 227 226 224 221 225 223 221 221 222 218 217 214 221 234 245 254
255 255 251 236 220 213 205 209 210 216 219 220 223 224 225 223 223 222 224 225 221 224 225 226 223 224 224 220 226 223 222 226 225 223 223 221 217 224 227 225 221 221 224 222 221 222 220 221 221 224 222 223 220 221 221 221 223 221 219 222 225 221 224 222 222 221 221 223 224 221 224 225 225 226 224 223 225 223 225 225 223 222 225 224 225 225 225 224 228 227 226 224 225 226 224 223 221 223 223 222 221 218 219 217 210 219 230 242 254
255 255 251 239 222 213 204 210 212 214 219 219 222 225 223 221 223 223 224 224 227 226 224 224 222 226 225 227 224 222 224 222 225 226 225 224 222 226 222 226 224 224 224 224 224 221 223 222 223 223 220 221 223 221 219 218 220 223 221 219 223 222 220 224 224 222 224 221 224 221 223 221 224 223 222 224 224 224 222 224 226 225 225 223 225 224 224 224 226 228 223 224 223 225 225 225 223 223 221 224 223 218 218 216 209 219 229 243 253
255 255 250 236 221 209 204 213 212 219 217 221 220 223 221 224 223 224 225 224 226 224 226 224 224 223 226 225 226 223 220 222 223 223 223 224 222 224 224 225 222 223 222 220 222 221 221 223 223 223 222 219 221 223 218 222 224 220 222 220 221 222 223 224 221 220 224 221 218 224 225 224 227 225 223 223 222 224 225 223 222 224 226 227 225 226 227 224 224 224 226 227 224 224 223 224 223 225 224 220 221 219 218 217 214 219 226 240 252
255 255 251 236 221 210 206 210 218 215 217 220 219 220 223 223 225 225 224 226 226 227 223 224 225 225 224 224 225 224 224 224 225 222 225 223 222 225 222 223 223 221 224 221 221 217 224 223 219 217 222 218 219 217 220 220 223 222 223 221 220 222 222 222 221 222 222 222 224 221 223 224 223 221 223 224 224 224 224 226 221 224 223 222 223 224 225 224 225 227 226 223 227 226 224 224 225 223 219 221 221 221 217 223 214 216 229 242 253
255 255 250 236 222 210 207 209 216 219 217 218 223 220 223 221 225 223 225 225 224 227 223 226 225 223 226 224 226 225 227 225 222 225 224 222 219 220 223 223 220 220 223 221 223 224 220 223 223 220 221 222 221 224 220 222 221 221 221 222 222 222 223 220 223 223 221 222 220 222 221 223 224 224 226 224 221 229 223 223 225 224 222 226 224 223 225 225 226 226 223 229 224 225 224 223 221 222 223 223 220 218 217 216 218 216 227 240 252
255 255 250 236 222 213 207 209 214 215 220 222 219 223 222 225 223 228 224 223 222 226 224 225 227 225 225 224 224 224 225 220 227 222 224 226 223 225 224 223 222 225 218 220 221 224 225 223 222 218 223 219 223 224 217 219 222 221 218 224 221 224 222 226 225 224 222 221 223 224 223 224 222 225 224 222 226 222 225 222 230 226 225 227 227 226 227 223 226 225 227 223 224 224 224 223 226 225 225 224 222 220 218 216 212 217 228 240 251
255 255 253 239 226 211 205 210 217 221 217 218 223 221 218 224 225 222 226 222 225 225 226 225 225 224 224 223 228 227 225 226 224 225 225 225 225 220 223 221 222 222 222 220 224 220 219 223 223 218 224 219 223 220 224 224 224 221 220 221 222 221 222 218 223 221 219 223 224 223 220 224 224 220 225 225 223 224 224 227 228 226 224 224 224 227 225 225 224 225 227 227 225 227 223 224 223 222 223 220 223 222 218 218 216 218 226 239 252
255 255 253 242 226 216 208 211 212 217 216 218 224 225 221 222 223 222 221 226 225 222 224 226 223 225 225 223 225 225 222 227 224 225 223 222 222 225 223 221 223 223 220 222 223 223 220 221 221 222 222 220 223 222 222 220 221 223 221 218 222 222 222 223 224 223 223 221 222 223 224 222 222 225 222 223 224 223 225 221 220 224 224 226 222 224 222 227 227 226 222 222 227 225 226 225 226 225 220 221 225 220 220 215 214 218 229 243 251
255 255 254 245 227 216 212 207 214 217 218 216 221 220 224 223 220 223 225 226 222 225 226 224 225 227 223 222 224 223 227 221 226 223 221 220 222 221 220 223 224 223 221 221 223 223 224 223 219 223 220 224 218 220 222 224 218 220 218 222 221 220 219 223 222 224 221 221 225 222 223 225 221 226 223 225 226 222 224 224 224 226 225 225 225 227 224 227 224 226 222 224 223 225 224 226 223 225 221 221 223 221 220 217 215 217 227 241 252
255 255 254 246 231 218 209 210 213 218 218 217 219 220 222 223 224 222 226 224 226 228 226 224 223 222 226 224 224 224 223 225 226 222 220 223 226 222 223 223 224 224 224 223 223 221 223 220 220 222 224 217 223 221 223 220 222 223 224 221 224 222 223 223 223 221 223 224 221 223 224 220 220 222 221 223 223 226 224 227 223 223 222 227 225 224 222 226 225 227 224 228 227 225 224 224 222 223 224 223 221 220 218 216 217 219 230 242 253
255 255 255 247 231 218 210 213 213 215 220 220 222 219 225 222 221 224 226 227 227 225 226 224 222 227 224 224 229 225 225 224 225 227 225 221 224 222 223 221 219 222 223 223 219 222 221 221 222 222 220 220 222 221 222 223 221 219 224 221 223 223 220 221 222 224 225 221 227 226 226 224 223 225 224 222 226 224 223 225 226 224 225 224 224 226 223 226 226 223 225 225 223 224 222 225 223 223 224 225 221 222 219 215 213 223 232 244 253
255 255 255 250 234 219 211 208 212 218 216 220 222 222 221 223 222 223 225 225 227 226 225 223 224 223 225 223 223 221 224 225 224 221 223 224 224 223 224 223 223 222 227 223 221 223 221 224 222 222 221 223 223 218 226 225 219 222 222 221 220 222 221 221 221 220 220 222 224 223 223 224 223 224 222 224 222 223 226 223 226 222 226 226 224 223 228 224 223 227 224 221 226 226 223 223 223 222 223 223 219 218 220 217 213 218 230 244 254
255 255 255 250 236 226 211 209 208 214 218 218 221 221 224 221 222 221 224 227 223 224 225 225 225 224 226 224 225 224 221 223 225 225 224 223 221 224 225 225 223 224 221 223 222 221 224 223 221 221 221 219 220 223 219 220 222 221 221 220 219 225 223 221 223 222 222 222 225 220 223 224 223 224 225 226 226 227 223 227 226 223 224 223 224 225 225 224 226 223 225 225 223 226 225 225 224 221 221 223 224 221 216 212 213 223 235 245 254
255 255 255 253 241 224 216 209 210 216 219 220 221 222 226 223 224 225 222 224 222 222 225 224 225 227 222 228 226 220 223 224 221 223 221 224 226 226 220 224 223 225 222 221 220 223 222 221 220 223 220 224 220 221 220 220 221 220 221 221 220 222 220 223 222 223 224 223 224 224 223 221 223 222 223 224 225 226 223 224 226 225 225 226 225 225 225 225 227 226 224 225 224 223 224 224 223 223 223 224 218 221 217 214 214 223 235 248 255
255 255 255 254 241 227 217 204 210 216 215 220 218 221 220 222 223 222 225 224 222 226 222 225 224 226 226 224 227 224 225 225 224 223 223 227 223 229 225 223 220 226 225 221 221 220 222 222 223 221 223 222 220 218 221 223 222 222 224 224 222 221 221 224 222 221 223 222 222 224 223 223 225 223 224 224 223 223 225 226 225 225 226 227 226 228 226 227 227 225 227 223 226 224 225 227 224 221 225 221 220 219 215 214 214 225 238 249 255
255 255 255 254 243 230 216 209 210 210 217 219 219 222 219 222 224 221 222 224 222 224 223 222 225 225 224 228 224 225 225 223 225 225 226 225 224 225 224 226 222 223 222 225 221 222 225 224 219 224 223 221 224 222 220 221 222 223 221 220 222 221 221 221 223 224 219 219 221 224 224 224 222 224 223 224 222 228 225 224 228 225 225 227 226 225 223 225 226 224 225 225 224 224 226 224 223 221 223 222 220 220 216 217 212 228 240 251 255
255 255 255 255 249 236 220 210 205 212 214 218 220 220 221 224 221 224 225 225 222 225 227 223 223 223 224 225 226 223 224 227 225 221 224 223 225 222 221 225 224 224 222 222 224 224 222 222 221 223 220 223 221 222 222 219 215 224 223 220 223 219 225 223 225 223 224 223 224 223 222 226 225 228 225 224 224 227 222 224 225 226 225 227 224 223 224 226 226 229 225 227 225 224 225 223 222 225 220 222 221 220 219 212 218 231 242 253 255
255 255 255 255 249 235 225 212 207 212 218 216 217 219 221 220 222 221 224 225 224 226 226 223 223 225 225 223 224 223 226 223 221 225 223 224 224 226 225 223 222 222 223 223 223 223 222 224 223 221 225 224 223 224 221 223 220 221 222 221 223 224 221 224 224 225 223 223 222 220 221 225 224 224 222 223 227 228 225 223 223 225 227 226 225 223 226 226 226 227 224 225 227 224 224 222 220 223 227 219 222 218 214 212 223 233 245 254 255
255 255 255 255 253 239 227 212 209 212 215 220 215 219 221 225 223 223 222 224 225 226 224 225 225 223 224 223 225 223 225 226 223 221 226 225 223 225 223 225 223 222 224 223 223 223 223 222 221 224 225 224 221 224 223 223 220 221 224 222 222 222 223 222 221 223 222 224 221 224 222 226 224 225 224 227 225 225 225 222 222 225 226 225 226 226 226 223 225 225 224 222 223 226 224 225 224 222 222 223 222 218 212 213 225 234 247 255 255
255 255 255 255 254 244 233 215 210 211 211 214 219 221 219 221 222 221 222 223 223 225 225 224 226 224 222 225 226 224 225 224 221 224 223 223 221 225 222 222 222 224 224 225 224 226 223 221 222 222 222 223 222 223 223 221 222 217 226 223 222 224 223 224 220 222 225 222 224 225 224 224 226 225 226 224 224 223 222 224 223 230 225 221 224 226 226 225 226 225 227 224 223 225 222 221 222 220 220 219 221 217 213 216 225 239 250 255 255
255 255 255 255 255 249 237 218 211 210 212 216 216 218 218 221 222 223 222 224 223 226 226 223 225 225 226 222 225 226 225 227 225 222 223 225 225 223 222 222 224 224 223 223 221 223 223 225 225 223 225 224 222 221 223 223 221 220 223 223 222 222 220 220 223 223 224 223 224 226 224 226 223 222 222 223 226 225 225 225 227 225 225 225 227 224 224 223 225 223 223 222 224 225 223 222 225 221 222 223 221 214 211 220 228 242 253 255 255
255 255 255 255 255 252 240 225 210 204 209 217 217 218 220 221 224 222 226 224 223 223 226 226 224 223 224 225 222 221 224 225 220 226 222 226 226 224 226 223 223 227 224 224 224 222 222 224 222 224 220 223 222 224 223 225 225 225 223 226 222 224 223 223 220 223 221 224 225 222 227 222 224 225 223 228 225 224 224 222 226 225 226 226 226 226 225 225 226 223 226 220 223 223 224 223 224 221 219 220 219 213 214 222 234 245 255 255 255
255 255 255 255 255 254 244 230 216 208 207 214 213 220 218 221 221 221 224 224 224 224 225 226 223 221 224 225 225 223 224 223 224 226 224 228 226 225 223 225 221 225 224 225 221 224 224 222 222 226 220 222 221 227 221 224 223 221 220 223 224 224 223 222 224 225 223 222 222 222 226 225 223 227 224 223 227 227 224 225 226 226 225 223 226 227 226 226 224 225 224 223 221 224 220 225 219 217 221 217 220 212 217 226 237 250 255 255 255
255 255 255 255 255 255 248 237 224 209 204 212 216 214 217 220 221 218 223 221 221 224 227 223 224 222 224 224 223 223 224 225 226 222 226 225 223 225 224 225 226 223 224 224 226 224 222 222 222 222 225 225 223 222 223 224 225 223 223 221 222 224 225 223 224 224 222 227 226 224 223 225 227 224 225 226 223 225 226 226 227 228 227 224 227 226 224 223 224 224 226 224 223 223 225 223 219 221 217 219 214 213 221 234 241 252 255 255 255
255 255 255 255 255 255 253 242 229 215 204 213 210 214 214 219 219 222 223 224 223 224 225 224 226 225 226 225 224 223 226 224 225 221 223 225 224 220 222 221 224 223 225 224 226 223 222 225 225 224 224 227 225 226 224 219 224 225 225 224 222 225 226 227 224 225 223 221 224 225 227 228 224 225 224 223 223 223 222 225 227 229 223 225 226 225 228 225 227 224 226 226 225 224 224 222 221 221 219 216 214 214 223 235 247 254 255 255 255
255 255 255 255 255 255 255 246 235 219 209 204 207 211 218 219 221 219 221 221 223 223 225 226 226 225 225 223 227 226 227 225 225 225 224 225 222 224 226 225 225 227 226 226 222 222 223 224 222 224 222 223 225 223 225 223 224 224 222 224 221 225 221 224 225 222 223 222 229 225 226 222 222 222 226 226 224 226 227 224 227 227 225 223 226 226 226 223 229 226 223 227 222 222 223 220 224 222 218 214 213 217 227 239 250 255 255 255 255
255 255 255 255 255 255 255 251 240 225 214 207 208 211 219 220 218 220 220 224 222 223 222 223 226 227 224 224 222 221 224 223 225 225 223 224 222 225 225 224 221 223 223 223 223 224 223 223 226 228 222 222 226 224 226 223 225 222 222 224 224 226 224 223 224 224 223 227 224 227 228 224 226 225 228 223 224 226 223 223 225 226 221 226 224 226 222 227 224 225 225 226 220 223 220 222 222 218 217 213 213 221 232 244 254 255 255 255 255
255 255 255 255 255 255 255 254 246 231 219 206 203 213 214 218 219 217 220 221 224 222 222 225 225 228 224 224 227 225 222 223 227 225 221 221 224 225 224 222 225 225 224 226 225 227 227 223 223 224 221 224 224 223 223 225 223 224 225 223 226 222 224 223 224 223 223 222 226 223 223 224 224 224 228 225 226 222 227 225 227 226 227 225 225 229 225 226 224 224 223 225 223 223 226 219 221 217 215 216 219 226 239 249 254 255 255 255 255
255 255 255 255 255 255 255 255 251 240 225 213 206 206 214 216 216 218 219 221 225 222 222 226 224 224 224 224 223 229 224 222 226 225 226 225 225 223 223 226 224 224 224 227 225 224 225 225 224 224 223 222 224 224 224 219 223 223 225 223 224 225 223 222 225 225 225 226 226 226 226 226 225 226 227 225 221 226 231 224 226 226 226 221 225 224 224 222 222 223 221 225 220 221 220 220 221 214 216 214 222 231 243 253 255 255 255 255 255
255 255 255 255 255 255 255 255 254 245 231 215 207 206 209 215 216 221 219 221 221 222 223 220 225 225 222 224 228 224 225 223 225 223 226 227 224 226 225 222 225 223 223 225 226 224 226 226 223 224 223 225 226 218 224 227 224 225 222 226 226 225 226 226 227 224 224 224 223 225 225 225 224 222 223 225 224 226 223 226 223 223 223 226 225 225 224 221 224 223 226 222 225 223 221 220 220 217 213 213 225 238 249 255 255 255 255 255 255
255 255 255 255 255 255 255 255 255 250 239 227 218 204 204 211 214 215 219 218 220 219 225 222 222 226 226 224 224 226 224 223 226 225 225 221 224 229 223 224 225 226 226 223 223 226 225 221 226 224 224 224 223 226 226 224 222 226 221 225 224 226 222 223 225 226 225 225 224 224 226 226 226 227 227 225 225 226 224 222 225 225 226 225 222 225 226 227 223 223 223 225 222 220 221 220 220 216 214 224 232 244 252 255 255 255 255 255 255
255 255 255 255 255 255 255 255 255 255 247 231 220 211 205 206 213 217 219 219 219 220 224 218 224 222 222 226 225 226 225 222 223 224 226 226 225 227 226 223 224 227 224 223 222 222 226 224 224 227 224 224 226 225 224 221 226 223 222 222 223 225 225 226 224 228 223 227 225 226 225 224 222 224 225 224 224 224 223 224 225 223 224 225 226 225 223 224 224 225 225 224 223 221 218 220 211 212 220 226 240 251 255 255 255 255 255 255 255
255 255 255 255 255 255 255 255 255 255 253 241 227 220 206 206 211 214 215 217 220 220 219 223 220 223 222 223 221 225 226 224 226 225 224 224 220 224 227 224 226 225 227 224 227 224 225 228 223 226 226 224 226 228 223 226 226 225 225 227 222 227 222 223 228 224 225 227 227 226 226 224 223 225 225 224 224 222 226 227 226 225 227 223 224 222 225 226 221 223 222 220 219 222 217 217 210 216 224 233 243 253 255 255 255 255 255 255 255
255 255 255 255 255 255 255 255 255 255 255 249 236 223 214 204 208 209 214 216 218 220 222 223 222 220 224 225 222 222 225 224 225 223 224 224 227 224 225 225 226 225 224 223 224 225 224 226 223 227 227 224 222 223 223 226 225 222 227 224 224 228 225 226 228 225 226 225 222 223 224 222 227 223 227 225 227 222 227 225 225 224 225 224 228 223 224 224 222 223 221 221 217 218 219 217 214 222 228 240 251 255 255 255 255 255 255 255 255
255 255 255 255 255 255 255 255 255 255 255 254 246 230 218 214 203 209 213 215 219 216 221 218 221 221 221 222 225 227 222 222 226 220 223 223 225 225 225 223 227 224 225 225 221 225 228 225 223 229 225 223 225 225 224 223 226 223 226 226 226 222 226 224 227 223 223 227 223 227 225 227 221 222 225 226 225 227 224 226 221 223 226 225 222 220 223 222 224 222 221 223 219 213 217 214 215 227 238 248 254 255 255 255 255 255 255 255 255
255 255 255 255 255 255 255 255 255 255 255 255 252 242 231 215 209 211 211 212 214 215 216 218 219 221 218 221 225 223 221 224 226 225 226 225 224 227 224 225 222 222 225 224 223 223 226 222 223 224 226 224 226 225 224 223 228 228 223 223 225 228 227 222 224 222 226 226 226 224 224 224 224 224 227 224 225 224 225 226 225 225 221 222 223 223 220 223 222 220 221 216 218 213 214 218 224 232 244 253 255 255 255 255 255 255 255 255 255
255 255 255 255 255 255 255 255 255 255 255 255 255 250 239 227 217 210 203 207 214 216 220 218 218 218 220 222 223 221 220 224 223 227 226 225 223 225 225 227 222 225 220 226 223 224 226 225 223 225 226 223 222 226 228 223 225 224 225 226 225 224 225 226 225 225 225 227 223 227 224 226 223 222 226 227 226 223 224 225 227 224 224 224 224 222 224 225 222 223 215 218 216 210 214 223 231 242 250 255 255 255 255 255 255 255 255 255 255
255 255 255 255 255 255 255 255 255 255 255 255 255 254 247 236 223 213 208 208 209 212 215 219 216 221 221 223 222 223 221 220 224 225 225 223 222 222 227 225 225 227 223 226 224 226 225 224 224 223 224 222 226 225 224 226 225 224 226 223 221 223 222 227 224 226 223 225 224 227 225 225 223 226 221 227 225 222 226 226 225 227 225 222 224 222 224 221 221 221 217 217 215 216 219 227 237 247 255 255 255 255 255 255 255 255 255 255 255
255 255 255 255 255 255 255 255 255 255 255 255 255 255 253 245 234 221 216 206 209 213 213 215 219 223 218 220 221 220 222 221 224 224 222 224 224 224 220 225 225 226 224 226 223 224 225 223 227 228 226 225 226 227 225 227 225 222 225 224 227 225 224 227 224 225 226 227 223 225 227 225 224 227 221 223 227 225 225 225 222 222 224 223 221 220 221 221 217 219 216 215 211 219 228 236 246 253 255 255 255 255 255 255 255 255 255 255 255
255 255 255 255 255 255 255 255 255 255 255 255 255 255 255 253 244 231 225 212 211 207 208 214 217 218 218 222 219 220 221 222 223 223 222 225 225 222 225 222 227 224 226 222 222 225 225 225 223 225 224 222 224 223 223 225 223 222 224 226 225 229 228 226 226 225 223 226 224 224 227 226 223 223 227 226 224 224 226 223 222 220 223 224 222 218 220 218 213 216 212 215 216 226 235 245 252 255 255 255 255 255 255 255 255 255 255 255 255
255 255 255 255 255 255 255 255 255 255 255 255 255 255 255 255 253 244 230 223 211 208 209 210 216 214 219 216 220 220 221 220 224 221 221 222 221 224 224 222 223 222 223 227 224 224 224 227 223 223 227 223 223 223 223 224 225 223 224 223 224 226 226 224 224 224 222 223 223 224 225 224 225 225 225 225 224 222 226 220 226 225 221 222 219 217 219 216 215 212 214 219 222 233 244 252 255 255 255 255 255 255 255 255 255 255 255 255 255
255 255 255 255 255 255 255 255 255 255 255 255 255 255 255 255 255 252 243 232 224 214 206 208 211 212 216 215 219 219 220 223 219 224 220 220 224 223 224 223 223 224 221 223 224 224 222 223 225 223 225 225 226 225 225 226 224 224 225 225 226 225 225 226 225 220 227 224 221 225 225 224 224 227 224 224 225 219 224 219 220 222 220 222 217 217 217 217 215 210 220 225 231 243 249 255 255 255 255 255 255 255 255 255 255 255 255 255 255
255 255 255 255 255 255 255 255 255 255 255 255 255 255 255 255 255 255 252 242 235 224 216 211 206 209 216 211 218 216 218 222 221 219 220 226 225 225 222 223 224 225 223 224 227 224 220 223 223 224 221 223 228 225 225 224 224 223 225 222 221 222 225 223 222 225 223 222 225 224 227 225 225 227 222 222 223 222 223 223 221 222 220 220 217 218 214 215 213 219 223 233 243 250 254 255 255 255 255 255 255 255 255 255 255 255 255 255 255
255 255 255 255 255 255 255 255 255 255 255 255 255 255 255 255 255 255 255 252 244 235 225 219 210 210 209 214 213 213 217 218 219 222 221 219 222 223 221 225 221 223 223 222 224 219 224 227 221 224 223 223 223 226 224 223 223 226 222 225 226 224 224 226 223 225 223 223 224 224 226 223 224 224 224 224 221 222 220 221 219 220 217 217 216 215 213 212 219 225 236 242 250 255 255 255 255 255 255 255 255 255 255 255 255 255 255 255 255
255 255 255 255 255 255 255 255 255 255 255 255 255 255 255 255 255 255 255 255 253 246 237 225 221 214 207 207 210 210 213 214 217 220 221 223 220 216 221 224 224 223 222 221 228 223 226 223 223 224 225 225 223 222 225 222 228 225 230 223 224 224 224 223 221 223 224 224 226 223 225 221 221 223 223 222 224 220 224 220 221 216 217 214 215 211 214 220 227 232 243 251 254 255 255 255 255 255 255 255 255 255 255 255 255 255 255 255 255
255 255 255 255 255 255 255 255 255 255 255 255 255 255 255 255 255 255 255 255 255 253 248 239 232 226 215 210 207 212 210 216 216 216 217 218 217 219 222 222 223 219 218 224 221 222 223 225 222 222 225 223 222 223 223 224 224 222 226 223 224 224 224 224 223 222 221 224 225 223 225 222 222 223 221 222 221 220 223 219 217 217 214 211 210 214 221 224 235 245 251 255 255 255 255 255 255 255 255 255 255 255 255 255 255 255 255 255 255
255 255 255 255 255 255 255 255 255 255 255 255 255 255 255 255 255 255 255 255 255 255 255 249 241 234 226 215 206 204 211 210 215 214 211 219 220 218 219 218 219 221 222 222 222 223 221 223 223 224 222 223 222 224 225 222 226 223 220 225 226 225 222 224 221 221 222 221 219 221 225 221 222 222 220 221 221 220 219 216 216 213 212 214 217 224 229 238 246 251 255 255 255 255 255 255 255 255 255 255 255 255 255 255 255 255 255 255 255
255 255 255 255 255 255 255 255 255 255 255 255 255 255 255 255 255 255 255 255 255 255 255 255 252 244 237 227 219 213 205 205 208 211 212 217 216 219 219 219 216 218 219 218 219 220 221 219 222 225 225 219 222 219 221 221 224 220 223 223 221 223 221 222 222 224 221 221 219 221 222 219 221 220 219 221 217 216 215 216 212 209 212 218 226 233 239 248 253 255 255 255 255 255 255 255 255 255 255 255 255 255 255 255 255 255 255 255 255
255 255 255 255 255 255 255 255 255 255 255 255 255 255 255 255 255 255 255 255 255 255 255 255 255 253 248 238 230 224 214 211 207 209 210 211 213 214 218 216 218 218 221 219 220 221 221 221 221 221 224 221 220 221 221 221 218 222 220 222 223 219 223 221 220 221 221 218 221 219 218 221 219 218 217 218 212 214 213 211 212 216 224 228 233 242 250 254 255 255 255 255 255 255 255 255 255 255 255 255 255 255 255 255 255 255 255 255 255
255 255 255 255 255 255 255 255 255 255 255 255 255 255 255 255 255 255 255 255 255 255 255 255 255 255 254 250 242 236 224 220 213 211 207 207 212 212 216 215 215 217 222 219 220 214 215 222 221 221 221 221 222 220 220 222 223 221 222 222 220 219 220 219 222 218 220 218 219 218 217 217 214 217 218 214 213 208 210 217 220 224 235 240 246 253 254 255 255 255 255 255 255 255 255 255 255 255 255 255 255 255 255 255 255 255 255 255 255
255 255 255 255 255 255 255 255 255 255 255 255 255 255 255 255 255 255 255 255 255 255 255 255 255 255 255 255 253 246 239 233 226 221 217 212 204 204 208 211 211 213 217 214 213 216 215 218 214 217 221 221 217 219 217 217 219 221 218 217 219 218 218 218 220 215 218 215 219 218 215 214 215 212 210 210 212 216 216 225 228 236 243 250 254 255 255 255 255 255 255 255 255 255 255 255 255 255 255 255 255 255 255 255 255 255 255 255 255
255 255 255 255 255 255 255 255 255 255 255 255 255 255 255 255 255 255 255 255 255 255 255 255 255 255 255 255 255 254 251 244 239 231 226 218 218 210 208 210 206 207 208 213 211 215 216 214 217 213 216 221 219 218 213 216 217 215 218 220 219 218 224 218 217 216 217 215 216 214 213 213 211 209 215 217 220 223 230 236 243 249 253 255 255 255 255 255 255 255 255 255 255 255 255 255 255 255 255 255 255 255 255 255 255 255 255 255 255
255 255 255 255 255 255 255 255 255 255 255 255 255 255 255 255 255 255 255 255 255 255 255 255 255 255 255 255 255 255 255 254 251 246 239 234 229 220 218 214 211 208 208 212 207 208 212 213 211 209 211 216 214 215 219 213 211 217 217 214 215 213 214 216 216 214 211 213 212 208 210 214 215 217 218 228 232 235 242 247 252 255 255 255 255 255 255 255 255 255 255 255 255 255 255 255 255 255 255 255 255 255 255 255 255 255 255 255 255
255 255 255 255 255 255 255 255 255 255 255 255 255 255 255 255 255 255 255 255 255 255 255 255 255 255 255 255 255 255 255 255 255 254 250 247 240 236 231 225 225 217 212 207 211 208 207 204 210 210 209 207 212 209 214 212 212 214 211 215 214 211 210 210 210 210 212 209 209 211 219 222 222 229 233 238 241 248 252 255 255 255 255 255 255 255 255 255 255 255 255 255 255 255 255 255 255 255 255 255 255 255 255 255 255 255 255 255 255
255 255 255 255 255 255 255 255 255 255 255 255 255 255 255 255 255 255 255 255 255 255 255 255 255 255 255 255 255 255 255 255 255 255 255 254 253 248 244 238 233 228 228 221 218 214 213 215 208 213 210 210 208 209 209 212 209 213 212 211 209 213 218 216 214 216 221 220 223 222 226 232 237 241 246 250 254 255 255 255 255 255 255 255 255 255 255 255 255 255 255 255 255 255 255 255 255 255 255 255 255 255 255 255 255 255 255 255 255
255 255 255 255 255 255 255 255 255 255 255 255 255 255 255 255 255 255 255 255 255 255 255 255 255 255 255 255 255 255 255 255 255 255 255 255 255 255 254 252 248 245 241 236 233 231 226 229 222 221 221 217 215 217 217 218 216 218 217 219 223 222 223 227 225 229 230 230 235 238 243 245 249 253 254 255 255 255 255 255 255 255 255 255 255 255 255 255 255 255 255 255 255 255 255 255 255 255 255 255 255 255 255 255 255 255 255 255 255
255 255 255 255 255 255 255 255 255 255 255 255 255 255 255 255 255 255 255 255 255 255 255 255 255 255 255 255 255 255 255 255 255 255 255 255 255 255 255 255 255 254 252 250 246 242 240 238 239 234 234 231 230 230 232 230 231 230 232 231 236 238 239 240 243 242 245 245 248 251 253 254 255 255 255 255 255 255 255 255 255 255 255 255 255 255 255 255 255 255 255 255 255 255 255 255 255 255 255 255 255 255 255 255 255 255 255 255 255
255 255 255 255 255 255 255 255 255 255 255 255 255 255 255 255 255 255 255 255 255 255 255 255 255 255 255 255 255 255 255 255 255 255 255 255 255 255 255 255 255 255 255 255 255 254 252 252 251 248 246 245 244 245 243 244 245 244 245 247 247 248 251 251 252 253 254 255 255 255 255 255 255 255 255 255 255 255 255 255 255 255 255 255 255 255 255 255 255 255 255 255 255 255 255 255 255 255 255 255 255 255 255 255 255 255 255 255 255
255 255 255 255 255 255 255 255 255 255 255 255 255 255 255 255 255 255 255 255 255 255 255 255 255 255 255 255 255 255 255 255 255 255 255 255 255 255 255 255 255 255 255 255 255 255 255 255 255 255 255 254 254 254 254 254 254 253 255 254 255 255 255 255 255 255 255 255 255 255 255 255 255 255 255 255 255 255 255 255 255 255 255 255 255 255 255 255 255 255 255 255 255 255 255 255 255 255 255 255 255 255 255 255 255 255 255 255 255
255 255 255 255 255 255 255 255 255 255 255 255 255 255 255 255 255 255 255 255 255 255 255 255 255 255 255 255 255 255 255 255 255 255 255 255 255 255 255 255 255 255 255 255 255 255 255 255 255 255 255 255 255 255 255 255 255 255 255 255 255 255 255 255 255 255 255 255 255 255 255 255 255 255 255 255 255 255 255 255 255 255 255 255 255 255 255 255 255 255 255 255 255 255 255 255 255 255 255 255 255 255 255 255 255 255 255 255 255
