P2
76 81
255
255 255 255 255 255 255 255 255 255 255 255 255 255 255 255 255 255 255 255 255 254 253 250 250 245 244 243 244 242 243 245 244 249 249 252 253 255 255 255 255 255 255 255 255 255 255 255 255 255 255 255 255 255 255 255 255 255 255 255 255 255 255 255 255 255 255 255 255 255 255 255 255 255 255 255 255
255 255 255 255 255 255 255 255 255 255 255 255 255 255 255 255 254 253 250 245 238 235 232 229 226 223 224 225 226 225 223 224 229 231 233 239 240 246 250 253 254 255 255 255 255 255 255 255 255 255 255 255 255 255 255 255 255 255 255 255 255 255 255 255 255 255 255 255 255 255 255 255 255 255 255 255
255 255 255 255 255 255 255 255 255 255 255 255 255 255 254 250 244 238 231 226 219 216 213 208 204 200 200 201 203 204 206 205 210 211 215 217 222 225 230 236 243 250 254 255 255 255 255 255 255 255 255 255 255 255 255 255 255 255 255 255 255 255 255 255 255 255 255 255 255 255 255 255 255 255 255 255
255 255 255 255 255 255 255 255 255 255 255 255 255 250 239 234 223 215 212 199 198 194 191 189 187 184 183 183 183 185 185 188 189 188 197 197 198 202 212 216 219 231 238 244 251 254 255 255 255 255 255 255 255 255 255 255 255 255 255 255 255 255 255 255 255 255 255 255 255 255 255 255 255 255 255 255
255 255 255 255 255 255 255 255 255 255 255 252 243 231 220 214 208 198 190 184 180 181 176 175 172 173 171 171 174 175 174 169 170 177 176 177 179 184 193 202 204 210 215 228 234 242 250 254 255 255 255 255 255 255 255 255 255 255 255 255 255 255 255 255 255 255 255 255 255 255 255 255 255 255 255 255
255 255 255 255 255 255 255 255 255 255 249 238 224 210 196 193 184 177 170 170 166 166 164 171 170 173 171 174 173 171 170 168 174 172 171 166 169 172 175 180 186 190 191 204 212 224 232 239 250 254 255 255 255 255 255 255 255 255 255 255 255 255 255 255 255 255 255 255 255 255 255 255 255 255 255 255
255 255 255 255 255 255 255 255 255 247 229 216 202 195 177 174 168 164 165 167 168 177 173 171 180 180 181 177 179 179 181 181 173 174 173 172 173 169 166 166 166 167 178 186 195 204 213 219 232 241 252 255 255 255 255 255 255 255 255 255 255 255 255 255 255 255 255 255 255 255 255 255 255 255 255 255
255 255 255 255 255 255 255 255 247 226 211 197 181 175 166 159 157 162 165 174 175 181 180 181 180 185 185 184 188 186 184 178 186 178 185 182 180 177 172 168 169 166 165 167 173 182 195 201 211 223 233 246 251 255 255 255 255 255 255 255 255 255 255 255 255 255 255 255 255 255 255 255 255 255 255 255
255 255 255 255 255 255 255 248 226 206 190 173 165 159 153 153 165 169 178 177 178 178 181 185 188 187 189 188 186 184 188 184 188 188 189 184 181 181 181 180 176 171 162 165 167 172 174 182 191 202 213 230 241 250 255 255 255 255 255 255 255 255 255 255 255 255 255 255 255 255 255 255 255 255 255 255
255 255 255 255 255 255 252 228 205 187 168 157 152 139 153 162 179 175 179 181 183 185 186 187 187 194 187 187 193 196 186 186 185 186 187 184 187 182 178 180 179 172 174 170 170 160 161 169 175 185 195 207 216 234 247 254 255 255 255 255 255 255 255 255 255 255 255 255 255 255 255 255 255 255 255 255
255 255 255 255 255 254 232 205 185 161 156 146 142 151 159 169 177 180 182 193 185 190 189 190 193 189 186 191 191 190 193 192 189 194 183 188 184 188 188 185 183 176 183 173 178 174 166 159 162 170 179 187 202 217 228 242 252 255 255 255 255 255 255 255 255 255 255 255 255 255 255 255 255 255 255 255
255 255 255 255 255 246 215 193 165 146 143 143 147 164 168 178 180 185 184 190 192 191 188 183 190 192 193 188 195 189 192 188 194 193 193 190 188 190 187 184 183 187 185 180 179 177 180 170 162 166 169 173 182 195 211 222 239 251 255 255 255 255 255 255 255 255 255 255 255 255 255 255 255 255 255 255
255 255 255 255 254 226 198 169 151 142 129 138 158 175 176 183 187 187 184 188 188 186 194 194 197 194 193 194 194 192 193 192 197 188 192 193 189 191 188 185 182 183 187 185 179 180 177 178 172 161 157 164 170 173 189 206 219 237 250 255 255 255 255 255 255 255 255 255 255 255 255 255 255 255 255 255
255 255 255 255 245 209 179 160 144 131 134 148 168 177 181 183 191 191 194 192 188 193 192 198 191 193 197 197 196 194 190 190 194 188 187 193 191 191 189 186 195 188 188 187 190 181 180 180 171 171 166 159 159 161 177 184 194 219 233 248 255 255 255 255 255 255 255 255 255 255 255 255 255 255 255 255
255 255 255 255 228 191 167 150 137 122 137 166 178 178 191 180 193 185 189 192 197 192 194 195 197 196 195 197 193 197 192 191 191 190 189 190 191 196 193 188 191 188 185 190 185 183 184 180 175 176 176 166 165 156 159 176 183 201 216 232 248 255 255 255 255 255 255 255 255 255 255 255 255 255 255 255
255 255 255 249 214 183 156 131 122 123 151 173 176 183 187 187 185 188 193 190 195 199 195 195 195 195 197 194 198 196 194 194 199 192 194 194 193 188 192 193 196 190 191 187 192 186 186 184 184 179 174 175 175 162 153 160 168 186 201 213 233 248 255 255 255 255 255 255 255 255 255 255 255 255 255 255
255 255 255 238 198 167 148 124 118 131 170 177 182 186 192 189 192 193 193 199 194 193 196 198 196 194 199 194 199 196 196 193 197 198 191 191 196 194 187 193 189 194 195 189 191 189 190 182 191 182 184 177 172 171 166 159 158 169 180 197 213 234 250 255 255 255 255 255 255 255 255 255 255 255 255 255
255 255 255 222 184 153 138 121 120 146 172 182 181 187 194 189 195 194 192 195 195 194 194 195 196 196 197 197 195 197 198 198 193 193 195 197 192 195 191 191 192 191 189 197 189 188 190 188 189 184 184 181 175 177 176 166 160 160 169 183 199 216 234 251 255 255 255 255 255 255 255 255 255 255 255 255
255 255 249 213 169 149 121 119 125 158 179 184 189 189 189 192 194 191 192 194 194 194 194 198 196 196 193 200 193 195 198 196 197 196 194 197 193 191 196 190 190 192 193 189 191 190 184 188 185 187 183 177 183 177 174 171 162 154 159 168 181 199 218 236 251 255 255 255 255 255 255 255 255 255 255 255
255 255 238 198 169 145 121 118 130 166 175 189 182 186 187 195 191 193 195 192 197 198 196 191 192 196 201 196 195 204 198 197 196 198 193 197 196 197 193 188 194 191 190 189 191 193 192 189 185 185 192 186 185 182 180 171 172 163 160 160 170 187 204 222 242 254 255 255 255 255 255 255 255 255 255 255
255 255 228 185 156 132 116 112 138 175 178 185 186 190 191 193 196 195 195 199 193 199 199 197 194 195 195 196 192 197 194 193 197 194 194 196 191 196 193 193 194 188 193 192 193 188 187 188 187 186 188 184 183 184 183 179 169 164 169 158 156 173 193 205 225 247 255 255 255 255 255 255 255 255 255 255
255 254 216 182 145 120 120 126 160 177 182 187 191 191 197 196 192 194 196 196 200 197 194 199 197 198 198 196 198 199 199 196 196 191 199 197 194 197 195 193 194 194 195 194 192 191 191 188 192 185 191 190 185 184 182 179 177 176 170 164 159 164 180 190 206 231 250 255 255 255 255 255 255 255 255 255
255 250 205 167 149 129 115 131 163 183 181 188 190 188 191 193 196 194 197 194 197 196 198 195 197 199 196 196 199 197 195 201 193 195 199 196 195 196 196 201 190 190 190 194 192 187 187 191 187 191 190 185 186 187 183 185 181 172 171 168 167 162 167 175 203 220 236 252 255 255 255 255 255 255 255 255
255 246 201 167 142 126 119 133 170 175 182 187 192 191 193 197 196 195 198 195 199 198 199 201 201 197 200 196 197 197 197 196 196 194 192 195 196 193 196 193 192 193 193 191 192 192 192 193 193 195 190 185 187 184 189 185 182 181 178 173 169 158 160 166 186 204 225 244 255 255 255 255 255 255 255 255
255 240 196 157 135 120 115 142 172 178 187 190 189 196 195 196 197 196 198 197 196 197 199 193 198 196 197 197 194 196 200 197 195 194 194 196 192 196 192 192 193 194 194 193 194 187 186 194 190 191 189 186 188 187 189 184 182 175 181 173 170 166 158 165 173 184 211 233 249 255 255 255 255 255 255 255
255 233 187 160 132 119 118 148 175 181 186 188 196 192 197 191 192 197 195 198 195 201 200 195 198 196 196 197 198 197 199 197 195 195 196 199 195 192 194 194 194 194 193 193 192 195 188 191 192 193 191 187 190 187 186 188 183 182 181 181 178 172 161 156 162 184 202 220 240 254 255 255 255 255 255 255
255 227 186 150 137 113 113 147 178 183 182 188 191 188 194 194 194 202 195 196 198 200 195 198 197 195 199 195 195 201 193 199 197 195 197 195 198 196 195 195 194 191 192 195 195 191 199 193 186 193 189 193 192 188 186 183 184 184 178 183 177 173 162 165 155 167 187 203 230 248 255 255 255 255 255 255
255 227 182 146 128 119 122 149 182 179 188 188 188 194 192 202 194 197 195 196 197 197 199 198 195 199 200 197 198 198 187 196 195 198 198 190 197 199 192 193 195 198 193 194 193 193 190 194 193 192 195 189 190 193 190 188 190 181 180 182 176 173 174 167 163 166 174 191 216 239 253 255 255 255 255 255
255 223 173 152 124 115 120 154 176 179 189 190 192 193 193 192 194 194 199 191 201 199 197 196 197 198 201 195 195 200 198 195 199 199 197 198 193 197 190 194 193 193 191 193 193 192 194 198 194 189 190 193 190 193 192 187 191 182 181 185 180 179 173 170 159 162 169 188 205 228 247 255 255 255 255 255
255 216 178 140 127 111 120 159 179 185 186 190 193 190 194 198 195 191 195 196 197 198 197 197 199 194 195 198 198 193 196 197 198 195 197 196 193 192 193 194 197 194 199 196 192 189 191 192 195 190 191 192 192 192 190 193 189 186 186 184 177 182 183 168 167 158 162 176 196 214 237 254 255 255 255 255
255 218 172 145 122 112 126 158 178 185 184 189 188 195 193 194 197 195 202 201 196 195 197 193 203 200 198 201 196 199 198 198 197 196 194 196 199 196 196 191 196 193 195 197 194 193 197 196 190 196 192 192 189 189 193 189 187 190 183 185 185 180 177 174 173 167 159 170 183 208 226 248 255 255 255 255
255 217 174 140 116 108 121 158 175 181 185 185 193 197 193 198 194 195 196 198 198 197 201 200 199 199 197 202 201 197 199 197 194 194 196 197 193 196 197 193 195 191 199 198 194 197 198 191 191 191 192 191 196 193 191 194 193 190 190 186 181 186 181 176 175 171 163 160 176 195 217 239 255 255 255 255
254 220 177 143 124 113 116 156 174 177 185 188 190 189 194 196 196 197 193 196 196 197 199 198 196 198 199 196 196 196 197 189 193 200 199 194 193 195 199 195 195 190 196 195 197 195 194 189 189 192 192 194 195 188 192 189 189 190 188 190 187 183 180 182 177 171 161 158 166 186 209 235 251 255 255 255
255 222 176 147 121 113 116 157 174 183 189 188 191 191 192 195 196 197 197 198 192 200 200 198 195 198 197 199 196 196 202 196 192 191 197 196 197 190 197 194 191 192 193 194 196 194 192 192 194 189 191 192 193 189 193 191 191 192 188 187 191 186 183 181 184 173 172 162 164 184 202 225 246 255 255 255
255 228 182 151 125 117 113 150 173 184 185 184 195 193 194 198 194 196 198 196 196 197 203 198 194 197 199 199 198 198 199 200 199 192 190 196 194 192 192 195 192 191 199 197 190 199 193 192 195 197 193 190 190 195 188 187 189 191 193 189 183 188 185 180 180 174 167 161 164 174 193 216 240 253 255 255
255 231 183 145 127 107 116 153 175 180 185 186 188 195 196 195 192 195 198 197 197 193 196 195 200 201 201 198 199 196 198 195 194 198 197 191 195 199 195 198 195 192 196 196 188 193 194 200 192 193 192 192 196 189 196 186 193 189 190 191 188 190 184 186 179 176 174 163 160 171 188 206 230 251 255 255
255 235 187 155 124 112 112 146 180 183 184 187 191 191 190 195 194 194 200 197 192 197 196 194 197 199 197 194 196 193 195 192 195 194 196 189 197 193 200 196 196 194 191 192 201 197 194 191 196 193 190 192 195 193 187 198 190 190 196 195 188 188 186 182 184 178 176 174 167 167 177 203 223 246 255 255
255 239 190 158 132 115 115 135 176 180 182 191 190 193 194 194 196 202 192 197 199 199 199 199 199 198 199 198 193 193 194 193 199 196 194 194 194 196 197 196 195 196 192 194 195 196 196 192 196 195 199 195 198 193 193 194 196 192 187 189 188 191 186 185 180 182 178 172 167 166 180 196 218 240 254 255
255 246 199 154 135 112 110 126 170 178 184 186 196 190 190 194 196 199 199 195 200 199 199 199 195 198 196 196 197 195 197 195 191 200 202 199 195 196 197 194 198 197 193 193 192 194 194 194 196 193 195 194 191 196 195 193 191 197 190 194 196 188 188 183 180 179 177 175 170 157 179 192 208 234 253 255
255 250 205 163 134 112 103 121 162 181 181 186 188 192 191 193 198 196 194 197 197 200 198 198 198 197 197 197 196 191 199 194 198 197 197 195 192 196 192 198 195 193 190 193 194 198 197 195 192 196 195 191 192 194 195 192 199 194 188 193 190 188 189 188 185 181 176 171 165 162 171 182 205 228 250 255
255 254 218 173 139 114 105 108 151 170 187 182 184 190 194 191 199 194 194 195 195 199 199 198 198 200 195 195 193 195 199 196 196 197 191 191 196 197 195 197 192 193 194 193 196 194 191 198 190 197 194 192 193 191 190 191 192 196 187 192 188 187 191 189 187 178 174 172 170 163 169 180 198 226 245 255
255 255 227 178 147 124 105 110 147 168 182 187 189 191 193 189 194 195 200 197 198 196 200 193 196 194 196 195 196 200 197 196 197 198 196 191 195 195 193 197 199 200 194 194 197 196 195 194 189 199 193 191 194 195 195 193 195 195 192 191 193 190 192 189 186 189 180 177 171 166 167 178 196 220 241 255
255 255 237 190 150 123 112 107 127 163 185 179 188 189 195 195 197 198 197 195 194 196 197 195 196 197 194 195 195 194 199 194 199 198 199 198 197 199 196 194 197 195 201 193 194 190 195 197 193 193 192 192 197 192 194 198 193 197 194 196 191 191 190 188 188 190 181 181 180 167 164 174 193 211 239 254
255 255 247 198 157 132 114 105 118 159 173 184 184 188 188 192 196 195 195 195 199 199 194 201 196 200 196 195 194 198 192 191 196 199 194 194 198 199 194 196 194 194 197 196 196 193 195 196 194 198 197 192 197 198 191 196 194 193 194 194 193 192 189 188 188 189 181 178 171 175 166 173 186 215 235 252
255 255 252 212 170 137 123 105 109 143 171 180 184 186 189 193 193 194 195 195 198 197 195 196 198 198 197 198 196 196 197 195 193 197 193 195 195 198 197 193 193 191 193 196 197 193 193 194 194 196 199 196 197 194 194 198 193 193 191 193 192 195 184 191 190 187 187 179 182 173 167 169 188 208 229 251
255 255 255 226 181 143 130 102 105 136 168 184 184 186 191 190 188 195 198 196 192 194 199 197 194 197 196 203 198 196 196 198 196 192 197 198 200 192 197 195 196 200 193 195 201 197 195 193 200 194 196 194 195 196 191 195 190 196 199 198 194 195 193 190 185 188 189 182 176 179 168 164 189 207 226 249
255 255 255 242 198 156 135 121 109 123 159 179 185 188 192 191 192 194 196 196 195 200 191 192 197 200 196 194 197 197 199 193 197 195 194 197 194 198 196 195 198 195 193 197 193 194 193 195 197 193 195 194 199 193 195 197 198 196 188 191 190 190 187 188 186 190 187 182 182 174 173 163 187 209 228 248
255 255 255 252 212 166 135 114 101 114 141 169 178 184 183 188 194 189 195 193 191 197 199 195 192 196 195 193 198 200 192 194 194 198 197 198 197 195 194 199 199 197 198 199 193 196 196 198 193 196 200 190 197 195 197 198 199 193 194 193 194 191 188 194 191 183 190 184 180 172 168 174 185 204 225 246
255 255 255 255 231 187 148 120 111 100 119 166 178 182 186 189 189 192 193 194 193 197 199 195 195 195 194 196 188 200 198 194 196 194 196 196 190 195 197 194 201 195 197 198 197 199 192 196 193 197 191 192 195 195 195 195 200 197 196 195 194 188 192 191 191 188 180 190 181 175 168 172 181 202 224 246
255 255 255 255 244 198 160 136 117 105 113 148 174 179 187 188 193 186 196 198 193 194 198 195 194 200 194 197 196 198 196 196 199 198 197 201 192 193 200 196 196 198 193 201 195 196 194 196 195 202 196 202 197 197 195 198 197 195 199 191 194 198 193 195 195 185 185 185 182 175 165 170 184 202 227 244
255 255 255 255 254 218 175 145 121 106 103 127 165 175 183 184 188 190 195 195 193 196 194 196 195 195 197 193 201 197 200 192 196 196 197 200 194 197 204 199 195 196 196 197 198 196 194 201 193 197 193 201 199 199 194 197 197 200 197 193 196 195 194 191 189 187 184 186 184 184 166 175 186 202 224 243
255 255 255 255 255 239 193 150 136 112 98 116 149 172 179 183 189 190 192 193 195 198 194 195 198 194 194 195 196 200 196 196 196 201 199 200 199 198 202 197 198 196 198 195 193 195 201 201 195 198 195 196 198 192 195 193 196 194 196 195 197 195 196 197 190 188 190 183 181 174 168 174 183 206 224 246
255 255 255 255 255 253 213 177 139 118 114 104 133 165 181 182 184 190 187 190 193 194 196 195 195 191 197 194 194 197 197 200 200 198 196 197 197 197 198 195 196 198 191 195 196 198 193 200 201 196 197 200 201 196 198 195 197 197 197 194 189 193 193 192 191 185 187 190 181 178 171 171 184 202 226 246
255 255 255 255 255 255 238 191 158 130 106 108 112 149 172 177 183 183 191 192 190 187 193 194 194 194 198 198 196 192 193 198 199 200 202 198 198 198 194 197 197 202 201 195 197 196 195 197 200 193 196 194 197 191 195 196 196 199 196 195 192 194 189 191 196 186 184 182 182 178 169 171 187 202 227 246
255 255 255 255 255 255 253 215 173 149 119 100 97 128 155 179 180 181 185 185 190 192 193 194 194 197 198 198 197 197 200 198 198 201 199 198 197 198 200 196 194 195 199 199 195 197 197 198 198 202 199 198 201 197 195 200 196 195 198 195 195 189 193 194 191 192 191 182 183 178 167 168 191 208 229 248
255 255 255 255 255 255 255 241 196 156 131 118 106 104 133 164 178 182 188 190 192 193 194 193 191 196 196 197 199 194 194 196 198 195 196 197 196 192 201 199 198 198 196 197 197 198 196 199 197 194 198 197 198 199 194 194 196 195 194 195 196 191 194 190 191 188 184 182 180 179 169 180 193 208 228 251
255 255 255 255 255 255 255 254 222 182 151 123 114 103 112 146 166 182 179 189 189 194 196 193 191 194 196 196 198 199 198 196 201 193 195 196 196 193 199 195 196 202 203 195 199 197 199 204 202 195 203 202 194 199 201 198 195 195 194 198 193 197 198 192 190 190 189 180 183 174 172 176 192 219 234 252
255 255 255 255 255 255 255 255 247 204 167 136 126 96 105 117 155 173 181 187 180 189 188 190 192 192 192 192 193 194 199 193 198 201 197 200 197 197 196 198 201 200 198 197 199 198 199 197 196 198 198 196 195 196 198 197 197 196 194 194 195 195 193 192 191 189 182 179 176 172 171 176 199 215 237 254
255 255 255 255 255 255 255 255 255 234 186 158 136 118 103 105 132 158 177 182 184 188 187 191 192 192 195 195 194 192 193 188 193 198 198 197 195 196 191 198 194 198 193 199 196 198 198 202 195 202 199 196 195 197 194 196 196 198 194 195 196 193 185 191 190 191 183 182 176 173 174 182 200 222 241 254
255 255 255 255 255 255 255 255 255 253 219 183 148 127 108 108 103 121 163 176 181 184 187 193 189 191 193 188 196 195 197 196 198 196 195 194 198 197 198 197 198 198 195 195 195 195 200 196 199 196 193 196 200 194 198 197 192 198 196 194 193 196 191 191 189 189 188 183 178 168 175 187 205 223 245 255
255 255 255 255 255 255 255 255 255 255 248 207 166 135 121 107 105 108 134 166 173 183 185 187 190 194 191 199 195 196 188 195 194 196 197 198 196 199 202 198 193 198 197 201 200 197 199 200 192 201 199 199 194 199 197 200 196 195 194 193 194 191 193 194 188 186 183 178 173 171 176 196 210 233 248 255
255 255 255 255 255 255 255 255 255 255 255 238 198 170 135 121 108 105 108 135 164 179 177 182 189 189 182 189 194 193 197 193 194 193 194 194 196 199 197 198 197 199 195 199 197 197 195 199 198 194 197 199 199 200 197 198 194 197 195 192 193 190 193 190 187 182 182 173 171 171 184 200 213 237 252 255
255 255 255 255 255 255 255 255 255 255 255 255 231 197 160 134 115 106 106 111 137 169 179 181 184 187 185 190 183 192 194 197 193 192 194 201 195 194 196 194 197 199 199 196 198 200 199 197 200 194 200 194 196 198 193 196 198 198 197 193 195 191 194 190 186 182 182 175 165 172 185 204 222 241 254 255
255 255 255 255 255 255 255 255 255 255 255 255 253 228 184 156 137 118 106 96 109 141 167 174 183 186 189 190 187 194 194 191 195 193 196 197 190 193 194 192 198 196 193 195 194 196 198 198 199 197 195 203 194 200 196 193 198 193 196 196 189 192 190 187 190 179 183 172 165 181 193 209 228 248 255 255
255 255 255 255 255 255 255 255 255 255 255 255 255 252 218 183 161 133 115 105 102 111 126 165 176 176 183 186 184 190 190 197 192 197 195 194 195 192 196 199 195 198 200 195 200 197 197 195 196 197 193 202 194 195 198 199 197 194 194 194 186 191 186 188 183 179 178 167 165 181 195 214 237 252 255 255
255 255 255 255 255 255 255 255 255 255 255 255 255 255 252 216 179 149 142 121 112 105 109 125 154 178 177 183 187 183 191 184 185 192 190 191 192 193 193 197 195 195 194 197 196 198 195 194 194 198 197 195 198 194 197 195 195 193 196 190 191 185 189 181 186 175 173 170 180 190 209 225 246 255 255 255
255 255 255 255 255 255 255 255 255 255 255 255 255 255 255 250 217 183 158 141 120 109 109 98 117 148 166 179 177 183 189 187 191 188 188 188 195 196 192 196 199 192 191 196 200 201 200 193 192 196 194 197 194 195 192 191 190 192 190 194 188 186 185 179 179 172 167 168 178 195 216 234 251 255 255 255
255 255 255 255 255 255 255 255 255 255 255 255 255 255 255 255 250 221 189 165 136 124 109 106 102 112 138 162 172 176 178 185 183 191 186 191 189 190 188 194 193 195 193 194 193 194 196 194 193 192 192 194 193 195 192 193 189 192 193 191 186 189 185 178 176 168 164 169 183 206 224 242 253 255 255 255
255 255 255 255 255 255 255 255 255 255 255 255 255 255 255 255 255 252 225 192 168 147 130 114 108 112 108 121 146 167 173 176 182 184 183 188 184 188 190 189 188 193 193 195 194 193 190 198 191 194 190 191 190 187 193 193 187 189 186 186 185 183 179 173 169 162 169 181 198 215 236 250 255 255 255 255
255 255 255 255 255 255 255 255 255 255 255 255 255 255 255 255 255 255 254 233 201 172 149 135 126 103 107 107 111 124 151 171 172 177 176 186 183 185 190 191 188 186 188 187 193 188 193 193 185 193 191 191 188 189 190 190 183 188 183 182 182 177 170 165 161 161 174 193 209 225 243 254 255 255 255 255
255 255 255 255 255 255 255 255 255 255 255 255 255 255 255 255 255 255 255 255 242 212 180 153 139 120 116 111 106 108 113 123 146 164 173 178 182 182 188 183 186 190 185 192 186 188 192 188 190 189 190 187 191 189 184 183 183 180 175 176 172 179 166 158 157 173 187 206 220 239 252 255 255 255 255 255
255 255 255 255 255 255 255 255 255 255 255 255 255 255 255 255 255 255 255 255 255 248 217 193 169 150 131 125 127 112 102 107 116 129 146 158 173 173 176 187 184 186 179 187 181 189 183 183 183 187 182 189 186 186 183 180 178 180 175 177 170 167 153 155 167 182 199 212 232 249 255 255 255 255 255 255
255 255 255 255 255 255 255 255 255 255 255 255 255 255 255 255 255 255 255 255 255 255 253 235 203 178 156 143 137 122 111 109 105 118 110 127 138 150 165 165 172 175 170 184 178 180 183 186 181 182 180 182 176 180 182 178 172 170 171 162 156 147 158 165 179 193 210 228 246 255 255 255 255 255 255 255
255 255 255 255 255 255 255 255 255 255 255 255 255 255 255 255 255 255 255 255 255 255 255 255 246 222 201 176 158 143 142 123 122 106 106 105 114 113 121 131 150 157 175 172 171 172 174 176 176 172 171 177 173 167 170 167 161 156 148 137 148 153 157 183 188 206 226 243 254 255 255 255 255 255 255 255
255 255 255 255 255 255 255 255 255 255 255 255 255 255 255 255 255 255 255 255 255 255 255 255 255 253 241 217 195 173 159 153 135 130 123 121 116 109 116 116 119 123 124 127 144 144 147 152 155 156 151 149 146 143 136 137 138 131 132 143 155 163 172 189 208 226 243 253 255 255 255 255 255 255 255 255
255 255 255 255 255 255 255 255 255 255 255 255 255 255 255 255 255 255 255 255 255 255 255 255 255 255 255 254 237 216 191 172 167 145 142 129 124 121 127 119 115 123 114 120 110 108 113 124 122 127 118 117 120 121 120 124 131 135 139 152 165 177 195 213 226 244 254 255 255 255 255 255 255 255 255 255
255 255 255 255 255 255 255 255 255 255 255 255 255 255 255 255 255 255 255 255 255 255 255 255 255 255 255 255 255 252 239 220 198 184 171 159 144 145 139 132 130 117 121 115 117 119 113 112 116 112 119 119 119 126 129 137 143 151 155 178 186 201 218 231 248 254 255 255 255 255 255 255 255 255 255 255
255 255 255 255 255 255 255 255 255 255 255 255 255 255 255 255 255 255 255 255 255 255 255 255 255 255 255 255 255 255 255 254 243 224 211 197 179 174 166 158 151 143 143 136 135 136 132 136 127 132 132 135 135 141 150 147 161 168 188 194 205 225 237 249 255 255 255 255 255 255 255 255 255 255 255 255
255 255 255 255 255 255 255 255 255 255 255 255 255 255 255 255 255 255 255 255 255 255 255 255 255 255 255 255 255 255 255 255 255 255 251 243 227 214 200 191 183 176 167 161 164 159 155 158 158 148 151 156 166 171 172 178 188 201 210 223 235 248 254 255 255 255 255 255 255 255 255 255 255 255 255 255
255 255 255 255 255 255 255 255 255 255 255 255 255 255 255 255 255 255 255 255 255 255 255 255 255 255 255 255 255 255 255 255 255 255 255 255 255 252 245 236 226 216 204 200 193 187 187 188 186 182 184 185 194 195 204 212 219 231 241 250 255 255 255 255 255 255 255 255 255 255 255 255 255 255 255 255
255 255 255 255 255 255 255 255 255 255 255 255 255 255 255 255 255 255 255 255 255 255 255 255 255 255 255 255 255 255 255 255 255 255 255 255 255 255 255 255 255 253 250 244 240 236 235 227 227 225 226 231 232 238 244 247 253 255 255 255 255 255 255 255 255 255 255 255 255 255 255 255 255 255 255 255
