P2
92 92
255
255 255 255 255 255 255 255 255 255 255 255 255 255 255 255 255 255 255 255 255 255 255 255 255 255 255 255 255 255 255 255 255 255 255 255 255 255 255 255 254 253 253 252 251 251 251 251 251 252 252 253 254 255 255 255 255 255 255 255 255 255 255 255 255 255 255 255 255 255 255 255 255 255 255 255 255 255 255 255 255 255 255 255 255 255 255 255 255 255 255 255 255
255 255 255 255 255 255 255 255 255 255 255 255 255 255 255 255 255 255 255 255 255 255 255 255 255 255 255 255 255 255 255 255 255 255 254 252 250 247 245 241 240 239 237 234 233 233 237 236 237 239 240 243 244 247 250 252 254 255 255 255 255 255 255 255 255 255 255 255 255 255 255 255 255 255 255 255 255 255 255 255 255 255 255 255 255 255 255 255 255 255 255 255
255 255 255 255 255 255 255 255 255 255 255 255 255 255 255 255 255 255 255 255 255 255 255 255 255 255 255 255 255 255 255 253 250 245 242 237 233 232 228 224 222 220 218 218 217 216 218 218 218 219 223 224 227 231 234 239 242 246 251 253 255 255 255 255 255 255 255 255 255 255 255 255 255 255 255 255 255 255 255 255 255 255 255 255 255 255 255 255 255 255 255 255
255 255 255 255 255 255 255 255 255 255 255 255 255 255 255 255 255 255 255 255 255 255 255 255 255 255 255 255 254 251 245 240 234 228 225 220 215 211 208 203 205 202 201 199 201 201 202 200 203 202 205 209 211 216 221 222 227 230 237 241 246 250 254 255 255 255 255 255 255 255 255 255 255 255 255 255 255 255 255 255 255 255 255 255 255 255 255 255 255 255 255 255
255 255 255 255 255 255 255 255 255 255 255 255 255 255 255 255 255 255 255 255 255 255 255 255 255 255 254 249 243 236 230 222 219 210 201 201 198 190 190 189 186 189 185 182 184 185 186 186 191 189 193 191 197 194 199 202 209 215 219 223 231 237 243 248 253 255 255 255 255 255 255 255 255 255 255 255 255 255 255 255 255 255 255 255 255 255 255 255 255 255 255 255
255 255 255 255 255 255 255 255 255 255 255 255 255 255 255 255 255 255 255 255 255 255 255 255 254 250 243 233 225 220 210 202 200 192 191 186 185 181 180 175 174 181 177 173 175 173 178 176 178 178 179 181 182 182 189 193 192 195 199 206 212 220 225 235 241 247 253 255 255 255 255 255 255 255 255 255 255 255 255 255 255 255 255 255 255 255 255 255 255 255 255 255
255 255 255 255 255 255 255 255 255 255 255 255 255 255 255 255 255 255 255 255 255 255 255 251 242 233 225 216 209 201 196 188 183 179 179 176 175 173 177 177 179 181 181 183 179 184 183 185 182 181 182 179 177 180 179 181 183 183 186 192 198 205 211 217 224 233 241 248 254 255 255 255 255 255 255 255 255 255 255 255 255 255 255 255 255 255 255 255 255 255 255 255
255 255 255 255 255 255 255 255 255 255 255 255 255 255 255 255 255 255 255 255 255 254 246 236 227 215 208 199 190 184 183 176 173 172 170 177 182 179 182 185 183 185 185 186 185 187 183 188 185 187 184 184 185 183 185 187 180 182 180 186 188 190 194 201 209 218 228 235 243 251 254 255 255 255 255 255 255 255 255 255 255 255 255 255 255 255 255 255 255 255 255 255
255 255 255 255 255 255 255 255 255 255 255 255 255 255 255 255 255 255 255 255 250 239 230 219 207 198 194 184 176 169 171 173 175 176 182 185 186 183 186 189 186 187 190 190 191 190 193 187 189 189 192 190 188 186 191 185 187 185 184 182 183 180 185 189 195 200 209 221 230 237 247 253 255 255 255 255 255 255 255 255 255 255 255 255 255 255 255 255 255 255 255 255
255 255 255 255 255 255 255 255 255 255 255 255 255 255 255 255 255 255 254 248 237 225 213 200 193 180 175 173 170 174 180 179 184 184 186 188 186 192 190 191 191 191 191 195 190 191 191 192 192 192 192 192 191 190 186 190 191 189 190 188 185 182 182 180 184 195 196 206 214 221 232 241 251 255 255 255 255 255 255 255 255 255 255 255 255 255 255 255 255 255 255 255
255 255 255 255 255 255 255 255 255 255 255 255 255 255 255 255 255 254 244 234 220 207 194 189 179 172 168 171 176 180 183 183 188 186 191 190 191 191 193 194 194 193 196 191 193 194 194 197 191 191 193 195 194 194 194 193 191 191 191 192 188 187 183 179 179 181 187 192 200 209 217 229 239 249 254 255 255 255 255 255 255 255 255 255 255 255 255 255 255 255 255 255
255 255 255 255 255 255 255 255 255 255 255 255 255 255 255 255 253 244 230 218 202 193 179 174 173 170 171 177 182 184 185 188 188 189 193 191 194 191 191 194 195 192 198 198 195 192 193 197 197 193 192 192 193 194 193 191 191 190 187 192 187 190 185 185 182 182 180 179 189 196 205 218 225 236 246 253 255 255 255 255 255 255 255 255 255 255 255 255 255 255 255 255
255 255 255 255 255 255 255 255 255 255 255 255 255 255 255 254 243 227 213 201 188 176 170 167 170 175 181 183 190 186 188 190 192 192 196 191 196 195 192 192 197 192 197 196 194 196 197 200 193 196 193 194 198 194 194 195 193 191 191 190 196 191 189 190 186 185 186 183 181 185 193 201 211 223 234 246 253 255 255 255 255 255 255 255 255 255 255 255 255 255 255 255
255 255 255 255 255 255 255 255 255 255 255 255 255 255 254 243 228 213 201 189 173 174 163 168 182 181 184 183 190 194 191 192 193 197 193 193 199 194 196 197 194 195 195 193 196 196 196 199 193 196 194 198 195 198 197 196 196 194 194 191 191 191 193 192 190 193 187 186 184 180 179 189 201 209 221 233 245 252 255 255 255 255 255 255 255 255 255 255 255 255 255 255
255 255 255 255 255 255 255 255 255 255 255 255 255 255 244 229 214 198 183 172 167 165 171 179 184 186 188 191 189 199 196 197 195 195 195 195 197 194 199 198 194 196 193 195 200 196 200 199 198 197 196 195 199 199 197 195 198 195 198 198 198 193 194 192 193 189 190 189 183 186 182 183 189 197 208 221 231 244 253 255 255 255 255 255 255 255 255 255 255 255 255 255
255 255 255 255 255 255 255 255 255 255 255 255 255 246 231 214 198 186 173 166 160 175 177 185 184 187 194 193 189 193 198 195 196 194 197 198 199 196 196 199 198 197 198 196 198 198 197 198 198 197 195 200 197 196 198 196 193 198 194 196 196 194 198 193 194 191 188 193 193 186 186 181 184 188 195 206 220 232 244 253 255 255 255 255 255 255 255 255 255 255 255 255
255 255 255 255 255 255 255 255 255 255 255 255 249 234 214 200 187 174 161 163 170 178 183 188 190 191 191 194 194 195 195 196 193 196 195 200 197 200 196 198 195 197 199 197 195 197 194 196 197 195 200 195 196 195 198 197 195 196 193 197 197 197 197 197 195 195 195 194 190 191 189 185 185 183 186 196 205 221 234 245 253 255 255 255 255 255 255 255 255 255 255 255
255 255 255 255 255 255 255 255 255 255 255 253 237 222 203 187 178 168 161 172 180 183 187 189 189 195 191 191 194 195 197 196 198 198 200 194 197 193 200 195 196 199 197 192 198 196 200 199 195 199 199 200 201 192 196 195 197 198 197 197 198 193 194 193 193 196 196 191 193 191 189 188 181 184 181 186 193 208 219 233 247 254 255 255 255 255 255 255 255 255 255 255
255 255 255 255 255 255 255 255 255 255 255 243 226 205 192 179 166 163 171 180 182 183 189 188 193 191 193 195 196 196 198 198 200 194 197 197 196 197 199 197 198 198 196 198 197 199 197 197 198 198 199 197 199 195 198 194 196 198 198 199 194 196 200 198 195 197 194 192 193 191 189 192 188 185 182 182 187 198 209 221 235 248 255 255 255 255 255 255 255 255 255 255
255 255 255 255 255 255 255 255 255 255 249 231 211 195 179 169 161 165 177 184 186 188 192 194 193 192 195 194 196 197 197 199 198 197 200 196 201 195 199 198 194 197 197 195 200 199 196 194 198 197 195 196 198 198 194 197 195 195 198 198 200 196 197 196 196 196 196 194 191 192 194 190 189 188 187 181 182 185 201 214 225 238 251 255 255 255 255 255 255 255 255 255
255 255 255 255 255 255 255 255 255 252 236 220 202 182 171 162 161 171 181 186 185 189 195 193 194 194 196 196 196 198 199 198 195 200 200 199 198 198 196 199 194 197 197 200 199 196 198 197 198 197 199 199 198 196 197 198 199 197 197 197 195 200 196 200 200 193 197 196 197 195 195 192 192 188 184 184 183 183 189 204 217 229 244 253 255 255 255 255 255 255 255 255
255 255 255 255 255 255 255 255 255 245 226 206 189 176 163 160 166 182 185 189 192 189 194 195 192 198 198 196 196 196 195 199 199 196 199 201 200 199 199 198 198 198 197 199 197 198 197 198 196 197 199 196 194 194 197 198 198 199 199 199 198 198 195 197 198 197 196 197 192 197 192 193 194 191 190 188 185 182 182 194 206 219 233 248 255 255 255 255 255 255 255 255
255 255 255 255 255 255 255 255 252 234 215 195 179 169 159 169 179 183 182 191 191 190 194 196 193 196 196 194 198 197 197 199 197 198 201 198 197 196 200 199 198 197 195 198 197 199 195 197 197 195 200 200 197 195 200 195 196 198 197 197 198 196 198 198 199 196 198 197 196 194 195 195 193 195 191 189 188 180 181 188 196 209 225 239 250 255 255 255 255 255 255 255
255 255 255 255 255 255 255 255 245 223 205 185 168 160 160 175 181 182 185 189 190 191 197 193 199 196 194 196 196 198 199 199 198 199 199 197 194 198 198 195 196 197 196 196 199 196 197 197 196 197 197 197 196 199 199 197 195 196 197 197 198 195 198 197 198 197 196 199 193 195 195 195 193 193 196 192 190 185 182 181 189 200 215 229 243 254 255 255 255 255 255 255
255 255 255 255 255 255 255 251 235 213 196 172 161 162 170 178 182 187 188 189 194 192 195 193 197 196 200 199 198 194 197 196 197 201 197 198 198 200 195 196 199 198 197 198 196 198 196 196 196 195 197 196 198 197 197 196 198 197 198 198 198 198 199 196 197 199 199 196 195 198 196 194 196 193 192 191 188 192 184 183 187 192 205 219 236 249 255 255 255 255 255 255
255 255 255 255 255 255 255 245 222 206 184 171 160 160 176 181 183 191 189 190 196 193 195 194 197 195 199 197 198 198 196 197 198 195 197 196 198 198 197 195 195 197 196 195 198 196 198 194 196 197 196 199 197 199 198 198 196 198 196 195 196 197 197 196 199 198 197 200 197 198 197 197 193 194 194 193 192 192 189 181 176 187 195 210 229 242 253 255 255 255 255 255
255 255 255 255 255 255 253 238 217 196 178 165 161 163 177 185 187 187 190 192 196 195 195 198 197 200 195 197 196 196 198 196 198 194 197 197 197 199 197 195 195 196 197 198 198 195 194 195 197 198 193 198 198 196 199 195 194 195 196 194 198 197 195 200 196 196 196 195 197 198 198 195 191 192 196 194 194 191 187 190 181 179 190 204 220 234 248 255 255 255 255 255
255 255 255 255 255 255 248 229 204 185 168 161 159 173 179 186 189 190 194 193 197 191 197 197 196 196 196 197 194 198 198 196 197 195 199 198 197 194 195 193 196 196 194 194 195 198 195 196 195 196 194 195 197 194 195 198 195 194 197 197 197 198 198 195 200 196 199 196 196 199 198 195 196 194 193 197 196 191 190 190 184 183 185 194 208 227 241 253 255 255 255 255
255 255 255 255 255 255 242 219 195 178 164 158 160 178 184 186 193 193 190 196 192 195 196 198 196 195 197 193 197 199 196 197 194 197 198 198 198 196 198 196 197 197 196 191 196 194 194 194 196 193 195 198 193 195 195 194 196 192 195 192 197 196 198 196 196 197 195 198 196 198 194 196 197 196 193 194 193 189 191 192 189 184 179 188 205 220 233 249 255 255 255 255
255 255 255 255 255 253 235 214 192 173 161 158 169 174 185 189 190 191 193 194 196 197 199 195 195 195 196 198 196 194 196 194 197 196 196 196 199 197 199 197 195 192 194 192 195 194 192 195 192 195 192 194 196 195 195 196 196 198 194 195 195 194 197 197 197 196 197 198 197 194 196 196 196 193 200 197 193 196 193 189 189 185 180 187 195 214 228 243 254 255 255 255
255 255 255 255 255 249 227 199 185 170 160 158 171 180 186 187 188 191 191 194 196 196 195 199 196 199 196 195 198 198 194 196 199 199 199 195 197 197 194 196 195 198 195 194 191 195 196 193 194 193 194 194 193 198 195 193 196 194 197 192 201 195 198 193 197 199 202 198 196 197 196 199 195 198 195 194 197 195 191 186 193 186 180 182 187 207 220 236 251 255 255 255
255 255 255 255 255 242 221 197 174 163 148 162 174 187 188 189 191 193 197 196 199 198 199 197 196 197 199 197 194 196 195 203 195 198 196 195 194 195 194 194 194 197 198 193 197 196 193 194 195 195 194 193 196 194 195 192 193 196 194 193 195 194 195 200 195 198 198 197 198 196 195 196 195 196 198 195 195 193 192 191 190 189 182 182 184 198 213 231 248 255 255 255
255 255 255 255 255 235 214 190 173 157 156 170 179 183 188 195 194 194 195 197 197 196 198 197 197 197 197 198 198 195 196 197 195 195 196 194 195 196 196 195 195 193 196 192 194 196 194 191 193 192 193 194 194 196 192 192 194 192 195 196 197 200 194 195 199 196 197 198 198 199 199 199 198 194 194 198 195 196 194 195 193 190 185 181 179 191 208 226 242 253 255 255
255 255 255 255 252 231 206 184 169 158 157 172 181 185 190 190 192 196 195 195 197 198 194 196 196 198 196 199 195 196 199 196 197 197 197 194 194 199 193 193 193 193 191 192 193 197 189 192 196 194 190 194 195 194 194 196 193 195 195 197 196 196 201 195 196 196 198 195 197 198 196 197 196 193 194 192 198 197 191 195 191 188 186 184 182 193 204 220 236 251 255 255
255 255 255 255 249 225 204 181 164 157 157 172 183 186 186 189 193 194 195 196 193 198 195 199 198 198 197 199 197 197 195 195 198 195 195 192 198 193 193 193 195 194 193 193 191 194 192 190 189 191 195 189 192 195 193 192 195 193 194 192 193 196 196 196 196 196 196 197 198 197 197 195 198 198 199 197 196 197 193 191 191 193 191 184 184 185 197 212 231 247 255 255
255 255 255 255 246 221 197 173 160 151 160 171 182 189 190 194 195 193 193 199 198 197 199 196 198 196 197 197 198 196 195 198 195 198 195 196 197 193 192 193 193 194 193 189 193 191 190 190 191 195 192 189 196 195 197 191 196 194 195 194 194 195 195 194 197 197 196 196 195 196 196 199 198 201 199 195 195 197 193 194 192 189 191 186 183 180 193 210 227 242 254 255
255 255 255 255 243 217 193 174 157 153 163 177 186 187 191 195 192 192 196 193 198 196 198 196 197 196 195 198 196 197 197 195 196 193 193 195 192 191 196 189 194 189 194 192 192 191 193 192 193 193 193 190 194 194 193 192 193 194 196 194 193 195 196 190 196 195 195 194 196 200 196 196 197 194 196 199 198 199 199 194 193 193 189 186 179 181 188 206 222 239 252 255
255 255 255 255 238 213 191 175 158 151 169 184 184 186 189 192 194 195 195 193 196 197 198 198 199 198 195 197 197 196 193 195 196 196 194 194 191 191 196 193 197 194 190 189 189 192 196 190 190 191 193 192 191 192 195 191 197 195 194 195 198 195 196 195 194 198 198 195 198 194 197 198 199 197 197 197 197 197 197 193 192 193 193 186 183 179 187 203 218 233 250 255
255 255 255 254 234 210 187 168 155 152 170 179 183 188 191 193 197 194 198 198 197 198 197 194 197 197 195 196 197 197 195 196 195 192 196 192 194 194 195 193 193 193 190 190 190 189 191 193 191 190 191 192 194 192 197 191 193 192 193 194 195 195 196 192 193 197 197 199 194 196 199 197 197 197 198 199 195 196 194 198 193 193 192 185 184 182 187 200 213 232 248 255
255 255 255 254 232 209 184 163 154 148 164 177 184 190 187 191 192 195 194 197 196 200 198 196 197 195 196 195 196 195 196 196 194 195 195 194 194 194 194 189 192 192 191 195 192 190 191 191 189 193 190 193 191 192 191 190 194 193 194 192 193 193 196 195 196 198 195 197 196 197 198 196 197 197 199 195 197 194 194 195 191 191 191 185 187 181 181 195 210 229 245 255
255 255 255 254 232 207 183 164 150 150 171 181 188 189 192 194 194 194 193 195 195 196 197 194 199 195 196 197 199 193 196 194 197 196 197 197 192 193 196 190 190 193 192 191 193 191 193 193 191 190 189 195 194 190 189 189 191 191 191 193 193 194 198 196 195 198 200 196 200 196 195 198 198 196 198 199 194 195 193 194 193 194 192 188 186 185 180 191 209 224 241 254
255 255 255 253 229 200 179 160 152 153 173 180 184 186 193 193 190 196 196 195 195 196 194 194 194 196 195 194 196 196 195 194 193 196 195 196 194 192 191 193 190 192 189 192 191 191 191 188 193 191 191 191 192 193 193 189 193 193 190 195 197 192 195 195 196 194 195 194 197 193 197 199 199 196 198 199 195 197 197 196 194 194 194 187 185 181 183 191 205 223 241 253
255 255 255 252 228 205 181 157 153 152 176 179 187 186 193 190 195 192 196 194 196 197 193 198 195 194 195 194 196 197 193 195 194 192 194 196 190 191 189 192 193 192 187 192 190 192 188 189 192 192 189 191 194 189 193 192 192 194 197 191 194 194 196 197 194 198 193 195 194 194 200 199 195 196 198 197 193 197 195 194 194 193 195 188 187 183 179 187 208 221 239 252
255 255 255 253 227 203 180 162 147 150 173 177 184 189 191 194 197 193 190 194 193 196 196 198 194 196 199 198 195 192 196 197 194 196 194 193 190 192 190 189 195 192 191 191 191 189 191 193 190 192 191 194 192 188 190 192 192 195 193 194 195 196 196 197 195 198 195 197 196 198 198 199 197 196 199 198 198 197 198 195 196 190 193 188 189 185 180 186 201 220 237 252
255 255 255 253 229 202 180 161 148 154 171 179 180 190 190 193 196 197 192 200 197 196 199 199 196 197 193 194 196 197 195 195 193 196 195 195 193 193 195 189 191 191 191 189 193 190 193 191 191 190 186 192 187 191 193 191 194 192 189 194 194 193 191 194 196 198 194 195 196 196 199 200 196 198 198 194 195 195 197 195 196 193 192 191 185 179 179 186 202 220 237 251
255 255 255 253 230 202 177 165 146 155 170 179 187 189 190 192 194 194 194 196 194 196 198 198 198 195 194 195 197 194 199 195 197 193 194 193 195 192 193 196 192 191 191 190 190 189 191 192 192 191 190 192 191 193 189 193 193 190 193 194 196 193 196 195 192 194 197 196 197 198 199 197 198 197 197 196 197 200 199 196 196 197 194 192 188 185 177 185 199 217 236 250
255 255 255 254 231 206 179 156 148 150 166 180 186 189 190 192 192 194 190 195 197 198 196 198 198 196 198 197 195 195 196 194 192 194 195 193 191 194 191 192 191 193 191 192 191 190 191 190 187 191 191 193 193 190 191 190 191 192 194 194 190 195 195 193 198 197 194 193 196 196 197 196 197 198 195 197 197 197 199 197 196 193 194 191 188 186 181 189 199 218 234 251
255 255 255 254 235 208 182 165 149 149 166 176 178 187 191 192 191 195 192 193 196 195 194 197 192 199 194 196 196 194 194 193 192 191 193 194 193 193 193 191 189 190 194 191 190 193 193 191 193 189 191 192 195 187 193 195 193 194 196 192 194 194 195 196 192 194 197 197 197 196 198 196 199 197 199 201 199 197 196 200 192 193 194 187 189 184 175 185 201 218 235 251
255 255 255 255 236 208 185 162 149 145 163 174 181 188 190 191 192 194 194 198 195 198 199 196 199 197 196 195 199 195 192 194 196 191 198 193 194 195 190 193 194 194 191 193 195 190 195 190 190 190 191 193 191 192 195 190 190 192 190 197 192 196 194 194 199 197 196 194 198 198 194 197 195 197 199 195 200 200 195 196 193 194 190 192 188 183 181 187 197 218 234 251
255 255 255 255 240 210 189 168 147 142 155 173 180 187 188 193 192 192 196 197 194 196 197 196 197 198 199 197 195 194 198 196 194 192 194 192 193 191 190 192 196 191 192 191 189 193 193 188 191 191 191 193 187 192 191 190 194 195 193 191 195 195 192 199 195 193 197 193 198 195 201 196 198 195 199 197 198 196 195 195 192 192 196 188 188 183 175 184 201 216 237 251
255 255 255 255 245 219 190 171 152 143 154 171 182 187 191 189 192 191 193 193 199 198 195 199 197 197 195 196 198 194 194 192 195 194 195 196 193 193 194 195 192 194 194 196 193 195 191 191 193 191 192 192 190 193 191 193 194 194 196 192 195 194 194 196 199 194 194 194 197 197 198 193 196 197 199 194 196 199 194 195 193 194 192 192 185 185 180 190 200 220 237 252
255 255 255 255 251 223 197 173 152 143 150 171 182 185 187 185 189 194 194 197 195 196 195 196 196 202 197 194 194 195 197 195 196 194 193 194 193 196 191 198 192 196 192 191 191 191 190 191 190 192 191 189 192 193 194 193 194 194 195 192 193 194 194 193 194 195 195 197 198 197 199 200 196 198 195 198 199 199 193 198 192 194 193 192 188 182 182 186 204 221 239 253
255 255 255 255 253 228 199 177 156 149 142 166 177 181 187 188 193 191 195 193 198 195 198 197 196 195 196 197 196 195 194 195 196 196 193 194 194 192 195 193 192 195 191 193 191 192 193 192 194 191 197 194 193 196 193 192 191 193 196 196 196 193 195 197 194 197 196 197 196 197 196 200 199 196 198 199 199 194 196 193 196 194 190 188 182 180 179 192 203 222 240 253
255 255 255 255 255 234 209 181 156 146 138 160 177 179 188 189 190 192 193 193 195 195 200 197 197 197 198 193 196 196 195 196 195 196 192 195 193 197 193 191 194 192 194 192 193 194 193 190 191 193 192 194 191 191 194 192 193 193 196 196 194 194 196 195 195 197 197 197 197 196 199 199 199 196 201 196 197 195 194 195 191 192 191 190 183 175 175 195 207 223 241 254
255 255 255 255 255 242 213 183 166 153 138 152 175 181 181 190 190 190 194 191 193 195 195 195 195 198 197 194 193 198 196 196 193 196 195 194 195 194 195 192 193 189 194 188 189 194 194 193 190 194 194 191 194 192 194 193 193 193 194 197 196 195 197 200 195 197 198 198 197 197 199 197 197 198 197 197 198 195 196 194 194 193 191 188 186 176 183 196 209 229 244 255
255 255 255 255 255 247 218 194 173 152 142 141 166 178 185 187 188 192 195 196 191 194 193 197 197 198 197 197 197 194 199 195 198 191 194 195 191 198 195 191 193 193 191 195 194 193 193 193 194 194 195 196 193 194 192 197 196 194 194 198 194 192 196 196 198 198 199 199 197 196 197 199 199 198 199 196 199 192 195 196 193 190 190 185 183 177 185 197 213 231 248 255
255 255 255 255 255 254 230 203 176 154 143 139 166 176 180 186 188 193 190 193 196 194 195 195 196 199 198 194 196 193 196 194 199 194 196 196 194 198 196 194 193 194 194 192 192 190 193 194 192 193 193 194 193 194 190 193 196 194 198 198 195 195 198 198 195 194 197 195 195 198 196 199 200 197 196 195 197 193 195 197 191 191 190 188 181 177 185 203 217 235 251 255
255 255 255 255 255 255 238 207 183 164 150 141 150 176 179 184 185 193 194 192 192 192 194 196 195 195 194 196 195 198 197 199 194 194 194 196 193 198 192 193 193 195 193 192 192 195 195 194 195 195 195 194 193 195 196 196 195 193 197 194 196 194 195 196 196 196 199 199 198 195 198 199 201 197 197 197 197 197 195 197 193 191 190 185 179 177 188 203 219 239 253 255
255 255 255 255 255 255 248 220 193 174 153 141 143 164 179 182 187 189 191 192 192 195 197 195 196 197 198 196 196 194 193 196 194 196 191 194 192 194 197 198 192 193 193 193 195 194 193 195 194 196 194 194 194 196 195 192 196 195 193 195 198 196 198 195 194 192 198 197 198 198 198 198 199 199 198 196 199 200 195 196 192 192 185 181 180 183 195 206 229 243 255 255
255 255 255 255 255 255 253 229 201 175 156 146 136 154 173 181 182 185 189 190 192 196 197 194 195 198 195 195 198 196 195 195 196 195 197 196 197 196 196 196 193 196 196 196 194 194 192 193 191 195 193 198 194 197 195 198 196 196 198 196 194 199 197 199 198 196 198 197 196 198 197 194 199 197 195 195 195 194 192 193 191 191 188 184 179 185 199 214 232 247 255 255
255 255 255 255 255 255 255 242 212 189 166 148 138 148 168 176 179 185 186 190 196 193 193 194 194 197 195 197 196 194 197 194 194 198 199 195 194 195 199 195 192 194 191 199 192 198 191 192 193 196 196 195 196 194 194 197 195 196 198 200 195 198 199 197 197 199 195 199 196 199 195 203 195 194 199 198 196 195 194 196 191 189 181 177 174 188 201 219 237 252 255 255
255 255 255 255 255 255 255 251 225 194 175 158 145 139 153 174 181 185 187 190 189 192 194 192 191 196 195 197 197 194 198 196 195 196 195 197 194 194 196 198 195 195 195 192 192 197 193 192 196 193 198 197 194 191 195 195 199 196 193 195 192 197 194 197 199 198 199 201 199 197 195 200 199 196 196 195 196 198 192 189 189 186 180 176 183 191 208 224 241 254 255 255
255 255 255 255 255 255 255 255 238 209 185 165 148 141 138 166 177 183 187 187 192 193 195 194 195 193 195 198 196 195 195 195 193 195 195 199 194 196 199 194 197 196 195 197 194 194 194 196 193 195 198 195 197 197 193 198 196 200 198 196 195 195 196 199 198 198 200 198 199 196 198 195 196 195 197 194 195 194 196 191 188 185 183 179 187 200 213 230 248 255 255 255
255 255 255 255 255 255 255 255 250 222 199 177 161 140 142 148 173 178 182 188 187 192 192 191 196 195 196 190 195 194 196 197 195 197 196 195 195 195 195 197 196 197 197 194 195 197 197 197 192 194 196 194 196 196 197 195 196 199 200 194 202 195 195 197 194 198 197 198 198 197 199 197 197 196 195 196 193 192 191 190 187 180 174 178 188 205 223 239 252 255 255 255
255 255 255 255 255 255 255 255 255 238 212 184 170 152 139 142 161 173 182 185 186 192 189 190 194 194 195 196 196 195 193 197 196 198 195 196 197 197 198 196 196 196 195 194 199 195 196 195 196 198 193 199 196 196 199 199 195 195 197 199 199 197 197 199 198 195 199 197 199 198 201 199 196 196 196 196 194 191 190 185 189 176 175 179 196 211 227 244 254 255 255 255
255 255 255 255 255 255 255 255 255 252 225 199 177 161 149 140 142 170 178 181 184 186 193 191 198 193 194 193 194 197 194 194 195 199 195 195 194 194 196 197 194 198 195 198 200 193 194 196 195 198 199 196 195 197 197 196 197 195 196 199 198 198 198 195 198 197 197 197 200 199 198 195 195 195 192 193 191 192 188 187 177 175 177 186 203 217 235 251 255 255 255 255
255 255 255 255 255 255 255 255 255 255 241 217 190 170 157 138 139 153 170 181 181 183 189 192 188 194 193 194 196 198 195 194 197 195 197 196 199 196 197 195 193 194 195 196 194 197 196 196 197 195 198 196 198 198 195 197 195 196 199 198 200 196 197 197 196 197 196 196 198 196 195 198 194 193 194 196 192 191 189 181 176 175 180 196 210 225 242 254 255 255 255 255
255 255 255 255 255 255 255 255 255 255 253 233 207 184 160 151 140 141 160 172 181 184 185 188 194 193 194 196 192 199 192 195 196 196 196 197 196 196 197 196 196 198 199 198 195 195 197 196 198 196 201 198 199 197 196 196 194 200 196 195 198 198 198 194 198 199 196 196 199 196 195 199 195 194 194 192 189 186 184 183 177 179 186 200 217 235 250 255 255 255 255 255
255 255 255 255 255 255 255 255 255 255 255 247 221 199 177 158 147 143 142 159 177 181 189 187 190 192 191 190 195 194 194 196 196 197 194 196 193 198 196 196 197 197 194 196 198 196 198 195 196 196 197 196 194 196 198 196 200 196 196 201 197 198 199 197 200 196 199 197 195 192 195 194 193 194 193 189 190 184 183 177 175 181 196 212 229 243 254 255 255 255 255 255
255 255 255 255 255 255 255 255 255 255 255 255 238 214 192 171 153 144 141 144 164 176 180 182 183 190 192 190 193 194 191 194 195 195 198 194 202 198 199 194 194 197 195 198 195 198 198 197 195 198 196 197 199 197 199 198 196 195 196 195 196 199 196 197 197 194 199 196 192 197 195 192 194 191 189 187 189 182 175 173 178 192 209 221 238 252 255 255 255 255 255 255
255 255 255 255 255 255 255 255 255 255 255 255 254 232 208 187 167 152 144 138 142 166 178 179 184 189 188 189 189 194 195 194 191 197 197 193 196 198 196 198 197 196 200 198 198 195 197 192 198 197 196 195 199 199 199 198 197 198 195 199 196 198 198 199 197 196 196 196 195 195 195 193 192 191 187 187 184 182 168 175 189 200 216 232 246 255 255 255 255 255 255 255
255 255 255 255 255 255 255 255 255 255 255 255 255 252 228 204 183 167 148 145 142 146 166 177 180 183 189 186 190 188 192 195 195 197 195 194 196 195 196 198 194 197 195 197 195 198 194 198 199 197 196 199 196 199 196 196 200 196 199 199 198 198 196 198 193 195 195 196 192 198 192 193 190 189 186 183 180 173 174 181 198 208 227 242 253 255 255 255 255 255 255 255
255 255 255 255 255 255 255 255 255 255 255 255 255 255 246 223 200 179 163 155 144 138 148 165 173 181 182 189 188 191 191 192 190 195 192 191 199 196 193 195 196 197 196 195 195 194 196 195 199 198 197 196 197 200 196 195 200 194 196 196 197 197 196 199 196 198 194 196 193 192 189 188 188 183 182 177 171 174 180 190 206 221 239 249 255 255 255 255 255 255 255 255
255 255 255 255 255 255 255 255 255 255 255 255 255 255 255 244 217 201 177 165 152 141 142 145 161 174 175 181 186 188 191 189 193 191 196 196 196 193 193 196 195 194 195 193 195 196 193 194 193 196 195 195 196 196 196 194 196 199 196 198 195 196 195 195 194 195 191 194 193 190 190 189 186 181 175 171 173 178 190 202 218 233 248 255 255 255 255 255 255 255 255 255
255 255 255 255 255 255 255 255 255 255 255 255 255 255 255 255 242 216 196 180 158 151 148 141 149 161 172 174 180 185 186 190 187 192 193 192 193 194 191 194 190 198 196 193 197 197 197 196 197 197 196 198 196 197 193 198 196 196 195 195 196 193 195 194 193 193 194 190 189 188 187 186 183 174 170 170 176 186 202 215 230 245 254 255 255 255 255 255 255 255 255 255
255 255 255 255 255 255 255 255 255 255 255 255 255 255 255 255 255 240 217 197 183 169 152 143 143 141 155 170 179 177 182 187 187 189 188 188 194 189 191 191 196 193 192 194 191 195 195 194 195 194 198 199 198 195 194 197 194 197 196 195 194 195 191 191 196 191 189 187 187 185 179 178 176 167 173 176 187 197 213 229 243 253 255 255 255 255 255 255 255 255 255 255
255 255 255 255 255 255 255 255 255 255 255 255 255 255 255 255 255 254 242 220 197 183 167 154 147 142 140 150 166 170 180 184 182 185 184 192 190 188 197 193 192 192 196 192 190 193 194 196 194 197 196 197 191 192 194 195 194 194 194 193 194 191 191 188 191 192 185 188 186 184 182 175 168 169 175 186 201 214 228 240 252 255 255 255 255 255 255 255 255 255 255 255
255 255 255 255 255 255 255 255 255 255 255 255 255 255 255 255 255 255 255 243 223 201 184 170 158 148 146 143 144 156 170 175 180 183 181 185 182 188 187 188 191 190 194 194 192 194 194 192 192 193 193 195 192 192 190 190 192 190 192 189 193 191 187 188 188 189 185 184 178 175 169 165 172 175 188 199 214 225 241 252 255 255 255 255 255 255 255 255 255 255 255 255
255 255 255 255 255 255 255 255 255 255 255 255 255 255 255 255 255 255 255 255 244 224 207 186 176 166 153 147 142 144 149 159 173 171 178 179 184 185 188 189 187 194 191 190 192 190 189 194 191 189 193 190 193 192 188 193 190 190 192 189 188 191 189 184 184 182 179 177 170 164 163 170 177 189 198 216 225 241 252 255 255 255 255 255 255 255 255 255 255 255 255 255
255 255 255 255 255 255 255 255 255 255 255 255 255 255 255 255 255 255 255 255 255 249 231 213 199 183 169 156 151 144 147 144 150 165 170 177 180 184 179 185 183 186 183 187 186 191 190 191 188 187 191 191 191 189 189 189 191 188 189 187 186 189 182 183 182 176 172 168 162 165 173 180 191 203 218 231 241 253 255 255 255 255 255 255 255 255 255 255 255 255 255 255
255 255 255 255 255 255 255 255 255 255 255 255 255 255 255 255 255 255 255 255 255 255 252 235 221 203 189 176 164 161 153 145 150 145 150 159 167 171 177 178 180 178 182 182 184 184 184 187 188 187 188 185 189 187 185 188 185 184 186 182 175 178 177 173 170 165 163 167 171 175 185 196 205 221 233 246 254 255 255 255 255 255 255 255 255 255 255 255 255 255 255 255
255 255 255 255 255 255 255 255 255 255 255 255 255 255 255 255 255 255 255 255 255 255 255 254 243 228 213 198 182 173 165 157 152 147 148 147 147 155 163 166 172 177 176 181 181 180 181 181 182 184 184 185 181 184 186 182 182 181 178 181 177 169 164 160 164 165 170 177 182 193 202 213 226 236 248 254 255 255 255 255 255 255 255 255 255 255 255 255 255 255 255 255
255 255 255 255 255 255 255 255 255 255 255 255 255 255 255 255 255 255 255 255 255 255 255 255 255 251 238 224 208 197 184 176 163 158 153 151 150 145 150 149 153 160 167 166 171 173 175 178 174 179 176 173 178 177 176 175 174 170 167 166 166 164 160 164 169 175 184 188 198 209 218 229 241 252 255 255 255 255 255 255 255 255 255 255 255 255 255 255 255 255 255 255
255 255 255 255 255 255 255 255 255 255 255 255 255 255 255 255 255 255 255 255 255 255 255 255 255 255 255 246 233 222 206 195 187 177 173 158 163 155 154 151 148 150 150 153 159 155 159 160 160 165 162 165 163 165 162 160 164 159 157 161 164 165 170 179 182 191 198 206 217 227 237 246 254 255 255 255 255 255 255 255 255 255 255 255 255 255 255 255 255 255 255 255
255 255 255 255 255 255 255 255 255 255 255 255 255 255 255 255 255 255 255 255 255 255 255 255 255 255 255 255 253 246 234 220 208 201 193 180 173 169 169 163 160 158 156 157 153 157 150 154 153 153 156 151 158 157 160 161 165 163 168 172 178 179 185 193 197 208 219 228 235 244 252 255 255 255 255 255 255 255 255 255 255 255 255 255 255 255 255 255 255 255 255 255
255 255 255 255 255 255 255 255 255 255 255 255 255 255 255 255 255 255 255 255 255 255 255 255 255 255 255 255 255 255 254 247 235 224 212 205 198 192 185 178 176 171 171 164 165 161 161 164 162 165 164 166 166 171 171 173 175 180 180 183 191 201 207 212 220 227 237 244 252 255 255 255 255 255 255 255 255 255 255 255 255 255 255 255 255 255 255 255 255 255 255 255
255 255 255 255 255 255 255 255 255 255 255 255 255 255 255 255 255 255 255 255 255 255 255 255 255 255 255 255 255 255 255 255 255 250 242 232 225 215 209 204 200 194 193 188 186 182 182 181 178 175 180 182 184 181 189 188 193 196 200 210 212 221 227 235 241 249 253 255 255 255 255 255 255 255 255 255 255 255 255 255 255 255 255 255 255 255 255 255 255 255 255 255
255 255 255 255 255 255 255 255 255 255 255 255 255 255 255 255 255 255 255 255 255 255 255 255 255 255 255 255 255 255 255 255 255 255 255 253 248 243 234 227 221 217 211 211 207 201 203 204 202 203 201 203 203 206 208 212 215 220 224 231 235 241 246 251 254 255 255 255 255 255 255 255 255 255 255 255 255 255 255 255 255 255 255 255 255 255 255 255 255 255 255 255
255 255 255 255 255 255 255 255 255 255 255 255 255 255 255 255 255 255 255 255 255 255 255 255 255 255 255 255 255 255 255 255 255 255 255 255 255 255 255 252 247 243 238 234 230 229 226 224 225 225 226 223 228 227 232 235 237 241 246 249 253 255 255 255 255 255 255 255 255 255 255 255 255 255 255 255 255 255 255 255 255 255 255 255 255 255 255 255 255 255 255 255
255 255 255 255 255 255 255 255 255 255 255 255 255 255 255 255 255 255 255 255 255 255 255 255 255 255 255 255 255 255 255 255 255 255 255 255 255 255 255 255 255 255 255 254 252 251 249 249 248 248 248 249 249 251 252 253 254 255 255 255 255 255 255 255 255 255 255 255 255 255 255 255 255 255 255 255 255 255 255 255 255 255 255 255 255 255 255 255 255 255 255 255
255 255 255 255 255 255 255 255 255 255 255 255 255 255 255 255 255 255 255 255 255 255 255 255 255 255 255 255 255 255 255 255 255 255 255 255 255 255 255 255 255 255 255 255 255 255 255 255 255 255 255 255 255 255 255 255 255 255 255 255 255 255 255 255 255 255 255 255 255 255 255 255 255 255 255 255 255 255 255 255 255 255 255 255 255 255 255 255 255 255 255 255
255 255 255 255 255 255 255 255 255 255 255 255 255 255 255 255 255 255 255 255 255 255 255 255 255 255 255 255 255 255 255 255 255 255 255 255 255 255 255 255 255 255 255 255 255 255 255 255 255 255 255 255 255 255 255 255 255 255 255 255 255 255 255 255 255 255 255 255 255 255 255 255 255 255 255 255 255 255 255 255 255 255 255 255 255 255 255 255 255 255 255 255
