P2
92 92
255
255 255 255 255 255 255 255 255 255 255 255 255 255 255 255 255 255 255 255 255 255 255 255 255 255 255 255 255 255 255 255 255 255 255 255 255 255 255 255 255 255 255 255 255 255 255 255 255 255 255 255 255 255 255 255 255 255 255 255 255 255 255 255 255 255 255 255 255 255 255 255 255 255 255 255 255 255 255 255 255 255 255 255 255 255 255 255 255 255 255 255 255
255 255 255 255 255 255 255 255 255 255 255 255 255 255 255 255 255 255 255 255 255 255 255 255 255 255 255 255 255 255 255 255 255 255 255 255 255 255 255 255 255 255 255 255 255 255 255 255 255 255 255 255 255 255 255 255 255 255 255 255 255 255 255 255 255 255 255 255 255 255 255 255 255 255 255 255 255 255 255 255 255 255 255 255 255 255 255 255 255 255 255 255
255 255 255 255 255 255 255 255 255 255 255 255 255 255 255 255 255 255 255 255 255 255 255 255 255 255 255 255 255 255 255 255 255 255 255 255 255 255 255 255 255 255 255 255 255 255 255 255 255 255 255 255 255 255 255 255 255 255 255 255 255 255 255 255 255 255 255 255 255 255 255 255 255 255 255 255 255 255 255 255 255 255 255 255 255 255 255 255 255 255 255 255
255 255 255 255 255 255 255 255 255 255 255 255 255 255 255 255 255 255 255 255 255 255 255 255 255 255 255 255 255 255 255 255 255 255 255 255 255 255 255 255 255 255 255 255 255 255 255 255 255 255 255 255 255 255 255 255 255 255 255 255 255 255 255 255 255 255 255 255 255 255 255 255 255 255 255 255 255 255 255 255 255 255 255 255 255 255 255 255 255 255 255 255
255 255 255 255 255 255 255 255 255 255 255 255 255 255 255 255 255 255 255 255 255 255 255 255 255 255 255 255 255 255 255 255 255 255 255 255 255 255 255 255 255 255 255 255 255 255 255 255 255 255 255 255 255 255 255 255 255 255 255 255 255 255 255 255 255 255 255 255 255 255 255 255 255 255 255 255 255 255 255 255 255 255 255 255 255 255 255 255 255 255 255 255
255 255 255 255 255 255 255 255 255 255 255 255 255 255 255 255 255 255 255 255 255 255 255 255 255 255 255 255 255 255 255 255 255 255 255 255 255 255 255 255 255 255 255 255 255 255 255 255 255 255 255 255 255 255 255 255 255 255 255 255 255 255 255 255 255 255 255 255 255 255 255 255 255 255 255 255 255 255 255 255 255 255 255 255 255 255 255 255 255 255 255 255
255 255 255 255 255 255 255 255 255 255 255 255 255 255 255 255 255 255 255 255 255 255 255 255 255 255 255 255 255 255 255 255 255 255 255 255 255 255 255 255 255 255 255 255 255 255 255 255 255 255 255 255 255 255 255 255 255 255 255 255 255 255 255 255 255 255 255 255 255 255 255 255 255 255 255 255 255 255 255 255 255 255 255 255 255 255 255 255 255 255 255 255
255 255 255 255 255 255 255 255 255 255 255 255 255 255 255 255 255 255 255 255 255 255 255 255 255 255 255 255 255 255 255 255 255 255 255 255 255 255 255 255 255 255 255 255 255 255 255 255 255 255 255 255 255 255 255 255 255 255 255 255 255 255 255 255 255 255 255 255 255 255 255 255 255 255 255 255 255 255 255 255 255 255 255 255 255 255 255 255 255 255 255 255
255 255 255 255 255 255 255 255 255 255 255 255 255 255 255 255 255 255 255 255 255 255 255 255 255 255 255 255 255 255 255 255 255 255 255 255 255 255 255 255 255 255 255 255 255 255 255 255 255 255 255 255 255 255 255 255 255 255 255 255 255 255 255 255 255 255 255 255 255 255 255 255 255 255 255 255 255 255 255 255 255 255 255 255 255 255 255 255 255 255 255 255
255 255 255 255 255 255 255 255 255 255 255 255 255 255 255 255 255 255 255 255 255 255 255 255 255 255 255 255 255 255 255 255 255 255 255 255 255 255 255 255 255 255 255 255 255 255 255 255 255 255 255 255 255 255 255 255 255 255 255 255 255 255 255 255 255 255 255 255 255 255 255 255 255 255 255 255 255 255 255 255 255 255 255 255 255 255 255 255 255 255 255 255
255 255 255 255 255 255 255 255 255 255 255 255 255 255 255 255 255 255 255 255 255 255 255 255 255 255 255 255 255 255 255 255 255 255 255 255 255 255 255 255 255 255 255 255 255 255 255 255 255 255 255 255 255 255 255 255 255 255 255 255 255 255 255 255 255 255 255 255 255 255 255 255 255 255 255 255 255 255 255 255 255 255 255 255 255 255 255 255 255 255 255 255
255 255 255 255 255 255 255 255 255 255 255 255 255 255 255 255 255 255 255 255 255 255 255 255 255 255 255 255 255 255 255 255 255 255 255 255 255 255 255 255 255 255 255 255 255 255 255 255 255 255 255 255 255 255 255 255 255 255 255 255 255 255 255 255 255 255 255 255 255 255 255 255 255 255 255 255 255 255 255 255 255 255 255 255 255 255 255 255 255 255 255 255
255 255 255 255 255 255 255 255 255 255 255 255 255 255 255 255 255 255 255 255 255 255 255 255 255 255 255 255 253 251 249 247 246 248 248 249 252 253 254 255 255 255 255 255 255 255 255 255 255 255 255 255 255 255 255 255 255 255 255 255 255 255 255 255 255 255 255 255 255 255 255 255 255 255 255 255 255 255 255 255 255 255 255 255 255 255 255 255 255 255 255 255
255 255 255 255 255 255 255 255 255 255 255 255 255 255 255 255 255 255 255 255 255 255 255 255 255 253 244 236 229 222 220 218 217 218 219 220 224 229 233 240 245 250 254 255 255 255 255 255 255 255 255 255 255 255 255 255 255 255 255 255 255 255 255 255 255 255 255 255 255 255 255 255 255 255 255 255 255 255 255 255 255 255 255 255 255 255 255 255 255 255 255 255
255 255 255 255 255 255 255 255 255 255 255 255 255 255 255 255 255 255 255 255 255 255 255 254 243 226 215 205 198 191 187 185 185 189 187 191 193 200 204 210 215 224 230 241 249 254 255 255 255 255 255 255 255 255 255 255 255 255 255 255 255 255 255 255 255 255 255 255 255 255 255 255 255 255 255 255 255 255 255 255 255 255 255 255 255 255 255 255 255 255 255 255
255 255 255 255 255 255 255 255 255 255 255 255 255 255 255 255 255 255 255 255 255 255 253 231 206 191 176 165 164 158 154 160 160 159 160 161 166 169 176 182 185 192 201 208 222 231 243 250 255 255 255 255 255 255 255 255 255 255 255 255 255 255 255 255 255 255 255 255 255 255 255 255 255 255 255 255 255 255 255 255 255 255 255 255 255 255 255 255 255 255 255 255
255 255 255 255 255 255 255 255 255 255 255 255 255 255 255 255 255 255 255 255 255 254 224 198 173 155 141 137 137 135 134 139 139 142 145 145 143 150 154 150 160 169 170 180 189 203 213 223 238 248 255 255 255 255 255 255 255 255 255 255 255 255 255 255 255 255 255 255 255 255 255 255 255 255 255 255 255 255 255 255 255 255 255 255 255 255 255 255 255 255 255 255
255 255 255 255 255 255 255 255 255 255 255 255 255 255 255 255 255 255 255 255 255 234 189 158 139 125 111 112 114 122 133 135 135 137 139 141 140 140 140 143 143 148 151 159 158 174 185 195 205 220 233 249 255 255 255 255 255 255 255 255 255 255 255 255 255 255 255 255 255 255 255 255 255 255 255 255 255 255 255 255 255 255 255 255 255 255 255 255 255 255 255 255
255 255 255 255 255 255 255 255 255 255 255 255 255 255 255 255 255 255 255 255 248 199 157 134 108 95 94 109 125 141 149 150 156 153 158 156 152 151 149 146 139 138 137 137 143 144 156 165 175 191 205 221 236 250 255 255 255 255 255 255 255 255 255 255 255 255 255 255 255 255 255 255 255 255 255 255 255 255 255 255 255 255 255 255 255 255 255 255 255 255 255 255
255 255 255 255 255 255 255 255 255 255 255 255 255 255 255 255 255 255 255 255 225 168 138 108 85 83 92 130 145 153 161 160 164 162 164 165 166 162 162 162 157 150 144 133 134 135 140 147 151 163 173 189 204 223 242 253 255 255 255 255 255 255 255 255 255 255 255 255 255 255 255 255 255 255 255 255 255 255 255 255 255 255 255 255 255 255 255 255 255 255 255 255
255 255 255 255 255 255 255 255 255 255 255 255 255 255 255 255 255 255 255 249 195 150 117 92 79 79 120 147 161 161 167 173 172 173 169 171 170 173 168 164 167 168 160 156 149 140 134 129 134 138 150 165 176 190 208 229 247 255 255 255 255 255 255 255 255 255 255 255 255 255 255 255 255 255 255 255 255 255 255 255 255 255 255 255 255 255 255 255 255 255 255 255
255 255 255 255 255 255 255 255 255 255 255 255 255 255 255 255 255 255 255 234 178 137 102 87 78 99 144 161 168 165 171 173 174 178 180 179 178 176 176 175 174 171 166 163 164 159 149 143 131 128 133 142 150 166 181 199 223 242 254 255 255 255 255 255 255 255 255 255 255 255 255 255 255 255 255 255 255 255 255 255 255 255 255 255 255 255 255 255 255 255 255 255
255 255 255 255 255 255 255 255 255 255 255 255 255 255 255 255 255 255 254 211 163 130 102 87 83 127 156 166 167 179 176 177 185 178 181 178 178 179 180 181 178 177 172 169 170 171 162 157 150 134 128 131 137 141 150 173 192 214 234 252 255 255 255 255 255 255 255 255 255 255 255 255 255 255 255 255 255 255 255 255 255 255 255 255 255 255 255 255 255 255 255 255
255 255 255 255 255 255 255 255 255 255 255 255 255 255 255 255 255 255 247 194 153 120 98 86 105 148 162 170 172 176 181 177 180 180 183 184 185 183 181 180 179 180 179 176 173 172 166 166 161 154 150 133 127 125 139 144 160 185 206 228 249 255 255 255 255 255 255 255 255 255 255 255 255 255 255 255 255 255 255 255 255 255 255 255 255 255 255 255 255 255 255 255
255 255 255 255 255 255 255 255 255 255 255 255 255 255 255 255 255 255 234 179 143 119 97 92 126 161 166 178 176 181 183 181 186 184 185 186 185 183 182 182 181 181 177 178 179 179 175 170 169 162 155 156 140 126 124 129 143 157 178 200 225 247 255 255 255 255 255 255 255 255 255 255 255 255 255 255 255 255 255 255 255 255 255 255 255 255 255 255 255 255 255 255
255 255 255 255 255 255 255 255 255 255 255 255 255 255 255 255 255 255 221 170 137 113 96 102 143 169 176 176 179 186 184 184 186 188 189 185 185 188 187 185 187 184 185 184 179 179 178 176 172 167 166 164 157 143 128 120 128 135 154 170 193 219 246 255 255 255 255 255 255 255 255 255 255 255 255 255 255 255 255 255 255 255 255 255 255 255 255 255 255 255 255 255
255 255 255 255 255 255 255 255 255 255 255 255 255 255 255 255 255 253 208 166 128 107 99 108 158 166 175 177 182 184 187 191 189 187 190 190 188 189 185 190 185 189 188 188 185 182 183 180 179 174 171 169 163 156 148 132 124 120 134 147 169 191 219 246 255 255 255 255 255 255 255 255 255 255 255 255 255 255 255 255 255 255 255 255 255 255 255 255 255 255 255 255
255 255 255 255 255 255 255 255 255 255 255 255 255 255 255 255 255 249 198 160 124 107 99 125 165 172 177 181 179 188 187 193 189 189 185 190 190 190 191 189 186 191 189 189 187 185 185 180 179 177 176 173 172 165 160 146 137 123 119 133 146 164 193 221 245 255 255 255 255 255 255 255 255 255 255 255 255 255 255 255 255 255 255 255 255 255 255 255 255 255 255 255
255 255 255 255 255 255 255 255 255 255 255 255 255 255 255 255 255 241 193 152 121 101 106 134 165 175 181 184 184 189 192 190 188 193 190 195 190 192 191 192 188 191 191 190 186 184 186 183 182 181 182 179 170 172 171 160 152 137 122 123 132 151 165 192 220 249 255 255 255 255 255 255 255 255 255 255 255 255 255 255 255 255 255 255 255 255 255 255 255 255 255 255
255 255 255 255 255 255 255 255 255 255 255 255 255 255 255 255 255 233 185 150 124 110 109 150 172 173 179 185 188 189 192 191 190 192 193 192 193 188 195 190 188 189 185 188 192 186 186 184 183 183 182 177 172 171 170 169 159 156 142 123 119 134 148 168 196 228 252 255 255 255 255 255 255 255 255 255 255 255 255 255 255 255 255 255 255 255 255 255 255 255 255 255
255 255 255 255 255 255 255 255 255 255 255 255 255 255 255 255 255 229 179 140 117 105 111 153 172 178 180 182 190 185 190 193 190 192 193 193 192 193 195 193 193 192 192 189 189 189 188 189 185 188 184 181 181 178 171 172 168 162 149 139 113 114 130 152 172 203 231 254 255 255 255 255 255 255 255 255 255 255 255 255 255 255 255 255 255 255 255 255 255 255 255 255
255 255 255 255 255 255 255 255 255 255 255 255 255 255 255 255 255 222 175 140 118 109 118 160 175 178 185 184 189 189 191 194 193 194 195 194 196 194 192 191 194 194 194 190 192 190 188 185 184 188 180 183 179 179 178 176 172 169 158 152 139 118 120 135 155 176 208 240 255 255 255 255 255 255 255 255 255 255 255 255 255 255 255 255 255 255 255 255 255 255 255 255
255 255 255 255 255 255 255 255 255 255 255 255 255 255 255 255 255 219 173 145 119 108 125 163 174 183 184 185 189 189 193 192 189 193 194 193 194 194 195 194 194 194 191 192 189 192 191 187 186 186 188 186 180 185 178 178 171 171 164 157 155 134 119 123 134 160 189 216 246 255 255 255 255 255 255 255 255 255 255 255 255 255 255 255 255 255 255 255 255 255 255 255
255 255 255 255 255 255 255 255 255 255 255 255 255 255 255 255 254 214 173 142 120 107 127 169 174 184 187 188 193 191 190 193 195 193 194 196 197 195 195 194 195 191 196 194 191 192 192 191 186 187 187 187 186 185 183 178 179 177 166 168 159 147 133 120 122 141 166 195 228 252 255 255 255 255 255 255 255 255 255 255 255 255 255 255 255 255 255 255 255 255 255 255
255 255 255 255 255 255 255 255 255 255 255 255 255 255 255 255 255 214 173 143 123 112 131 170 178 183 186 189 189 193 194 193 193 193 193 192 194 194 197 196 192 194 193 194 195 195 191 192 186 189 189 185 185 186 180 181 177 179 171 172 164 163 146 130 114 126 152 178 208 240 255 255 255 255 255 255 255 255 255 255 255 255 255 255 255 255 255 255 255 255 255 255
255 255 255 255 255 255 255 255 255 255 255 255 255 255 255 255 254 215 174 145 124 116 139 167 178 183 186 190 191 192 193 196 196 197 195 197 194 194 196 193 196 193 192 193 191 190 191 193 190 190 187 186 187 186 188 183 179 180 171 174 167 164 154 145 125 121 133 158 186 220 250 255 255 255 255 255 255 255 255 255 255 255 255 255 255 255 255 255 255 255 255 255
255 255 255 255 255 255 255 255 255 255 255 255 255 255 255 255 254 215 176 140 124 122 131 171 184 186 186 187 189 194 191 195 191 192 198 199 193 195 198 198 197 191 194 195 192 193 195 194 192 193 189 190 189 190 188 186 179 181 176 176 173 168 158 149 137 114 123 145 167 199 235 254 255 255 255 255 255 255 255 255 255 255 255 255 255 255 255 255 255 255 255 255
255 255 255 255 255 255 255 255 255 255 255 255 255 255 255 255 254 217 175 148 123 115 135 171 179 182 187 189 191 192 195 191 195 193 201 193 197 195 197 195 196 198 198 197 194 194 194 193 192 190 190 188 188 186 188 186 187 183 179 176 174 172 167 160 149 127 125 129 151 183 217 247 255 255 255 255 255 255 255 255 255 255 255 255 255 255 255 255 255 255 255 255
255 255 255 255 255 255 255 255 255 255 255 255 255 255 255 255 255 219 179 149 126 117 133 172 177 183 187 190 189 193 191 195 192 197 194 197 197 193 195 197 196 194 196 198 197 194 190 193 192 193 193 196 193 189 187 187 182 182 184 180 179 171 169 162 151 143 123 123 143 164 199 234 254 255 255 255 255 255 255 255 255 255 255 255 255 255 255 255 255 255 255 255
255 255 255 255 255 255 255 255 255 255 255 255 255 255 255 255 255 224 181 151 130 117 129 168 180 181 185 193 191 193 193 194 198 194 194 200 197 196 197 195 197 200 198 193 196 195 195 195 195 191 193 192 191 190 188 189 186 184 178 182 179 176 169 164 159 150 131 117 132 157 180 213 248 255 255 255 255 255 255 255 255 255 255 255 255 255 255 255 255 255 255 255
255 255 255 255 255 255 255 255 255 255 255 255 255 255 255 255 255 227 187 156 132 128 129 162 174 182 188 189 193 194 194 194 199 195 199 201 195 196 198 196 198 198 196 194 195 199 197 196 194 194 193 191 191 191 188 188 186 185 185 179 180 180 175 168 166 157 142 121 122 144 169 199 236 255 255 255 255 255 255 255 255 255 255 255 255 255 255 255 255 255 255 255
255 255 255 255 255 255 255 255 255 255 255 255 255 255 255 255 255 235 195 160 136 126 125 164 174 183 189 188 189 195 195 195 195 198 195 195 195 197 199 193 197 195 195 196 196 198 193 193 195 195 194 193 194 188 188 191 185 185 185 184 185 182 177 171 167 163 152 129 120 134 153 188 222 251 255 255 255 255 255 255 255 255 255 255 255 255 255 255 255 255 255 255
255 255 255 255 255 255 255 255 255 255 255 255 255 255 255 255 255 241 200 163 142 128 131 157 176 181 185 192 193 194 196 194 192 196 194 198 195 197 196 196 195 196 198 198 194 197 197 193 195 196 193 194 191 193 189 193 190 186 185 185 184 180 179 173 171 163 157 146 128 127 149 177 207 241 255 255 255 255 255 255 255 255 255 255 255 255 255 255 255 255 255 255
255 255 255 255 255 255 255 255 255 255 255 255 255 255 255 255 255 246 204 169 145 127 123 151 172 179 185 185 190 192 192 195 196 197 194 198 195 194 199 196 197 196 194 195 197 196 193 193 196 194 194 193 192 194 191 190 189 188 187 188 183 183 179 174 173 168 165 152 130 121 136 160 200 230 254 255 255 255 255 255 255 255 255 255 255 255 255 255 255 255 255 255
255 255 255 255 255 255 255 255 255 255 255 255 255 255 255 255 255 251 210 173 152 129 123 147 170 182 185 188 191 192 196 194 196 197 195 197 199 194 198 195 198 197 198 194 196 196 198 193 194 197 196 194 195 191 188 191 189 187 190 186 184 182 183 176 175 169 165 155 136 122 136 148 184 216 250 255 255 255 255 255 255 255 255 255 255 255 255 255 255 255 255 255
255 255 255 255 255 255 255 255 255 255 255 255 255 255 255 255 255 254 219 184 158 138 121 140 171 177 183 184 192 190 197 193 194 194 197 198 196 198 198 198 197 197 199 200 196 197 198 193 197 196 198 194 191 195 193 192 189 190 188 185 186 182 181 181 175 169 168 159 148 130 129 146 169 204 243 255 255 255 255 255 255 255 255 255 255 255 255 255 255 255 255 255
255 255 255 255 255 255 255 255 255 255 255 255 255 255 255 255 255 255 231 195 160 142 132 129 166 177 184 187 187 191 192 195 194 197 196 197 197 196 197 196 200 198 201 196 198 196 196 196 196 195 195 197 192 195 192 192 194 191 190 185 188 187 184 179 179 174 170 163 152 135 128 141 163 195 232 254 255 255 255 255 255 255 255 255 255 255 255 255 255 255 255 255
255 255 255 255 255 255 255 255 255 255 255 255 255 255 255 255 255 255 242 201 170 147 128 130 153 177 179 184 187 190 193 191 196 195 196 198 198 198 200 196 195 194 199 198 195 197 194 197 195 195 195 192 191 190 194 189 192 191 190 189 189 186 182 184 181 174 173 165 156 138 127 136 156 191 223 252 255 255 255 255 255 255 255 255 255 255 255 255 255 255 255 255
255 255 255 255 255 255 255 255 255 255 255 255 255 255 255 255 255 255 250 211 179 155 135 127 144 172 178 183 189 189 190 194 196 194 195 198 198 196 199 201 199 195 199 197 198 195 198 197 196 195 197 195 197 196 195 195 193 189 190 191 188 187 184 185 178 178 173 169 159 150 127 131 148 178 217 247 255 255 255 255 255 255 255 255 255 255 255 255 255 255 255 255
255 255 255 255 255 255 255 255 255 255 255 255 255 255 255 255 255 255 255 224 189 164 140 127 136 160 178 181 186 192 190 192 194 197 192 197 195 196 195 200 199 196 199 197 197 196 200 194 199 194 196 192 198 195 195 192 193 193 190 187 190 187 186 187 183 178 174 170 164 154 129 129 148 178 207 242 255 255 255 255 255 255 255 255 255 255 255 255 255 255 255 255
255 255 255 255 255 255 255 255 255 255 255 255 255 255 255 255 255 255 255 239 199 171 148 133 129 159 171 181 185 190 192 194 190 195 199 197 194 197 197 199 193 195 197 196 196 195 199 198 196 198 197 198 196 195 195 191 193 192 192 191 189 189 184 186 181 180 175 173 165 157 141 133 143 168 200 234 255 255 255 255 255 255 255 255 255 255 255 255 255 255 255 255
255 255 255 255 255 255 255 255 255 255 255 255 255 255 255 255 255 255 255 249 215 183 158 139 129 135 170 179 185 186 189 190 193 194 195 196 194 196 200 197 194 193 197 198 201 199 193 195 196 195 195 194 197 195 195 194 194 194 189 192 187 188 187 184 185 184 181 171 169 160 140 132 140 165 193 230 254 255 255 255 255 255 255 255 255 255 255 255 255 255 255 255
255 255 255 255 255 255 255 255 255 255 255 255 255 255 255 255 255 255 255 255 229 191 165 142 130 132 160 173 180 187 189 188 188 190 194 195 199 199 194 196 194 195 201 194 196 196 198 195 198 196 195 196 199 197 196 192 194 191 190 192 188 191 187 184 185 184 181 176 171 163 148 135 143 163 192 224 252 255 255 255 255 255 255 255 255 255 255 255 255 255 255 255
255 255 255 255 255 255 255 255 255 255 255 255 255 255 255 255 255 255 255 255 246 207 178 154 140 130 147 163 177 182 184 186 189 195 194 196 193 197 196 196 197 196 197 199 193 200 197 198 197 195 193 199 195 194 197 193 196 195 193 189 190 189 188 187 186 185 182 176 168 166 152 133 143 156 185 220 250 255 255 255 255 255 255 255 255 255 255 255 255 255 255 255
255 255 255 255 255 255 255 255 255 255 255 255 255 255 255 255 255 255 255 255 253 222 191 166 146 135 132 157 173 181 183 190 187 192 191 194 198 196 197 195 196 196 197 198 196 196 199 196 198 198 198 198 199 194 194 196 194 191 194 194 191 189 186 184 183 185 180 180 173 164 156 139 137 155 181 215 247 255 255 255 255 255 255 255 255 255 255 255 255 255 255 255
255 255 255 255 255 255 255 255 255 255 255 255 255 255 255 255 255 255 255 255 255 241 205 176 153 140 135 148 165 175 180 185 186 187 193 191 192 192 198 195 196 195 194 197 198 198 196 199 194 199 194 198 195 196 194 198 193 195 196 193 189 193 191 186 183 184 182 177 175 167 160 139 140 152 179 215 244 255 255 255 255 255 255 255 255 255 255 255 255 255 255 255
255 255 255 255 255 255 255 255 255 255 255 255 255 255 255 255 255 255 255 255 255 253 222 192 167 146 134 136 157 172 182 182 192 188 190 194 194 196 191 196 197 197 196 196 196 199 195 199 196 197 197 197 196 199 193 195 192 196 196 193 191 188 190 186 190 183 183 177 172 169 160 145 139 154 179 210 244 255 255 255 255 255 255 255 255 255 255 255 255 255 255 255
255 255 255 255 255 255 255 255 255 255 255 255 255 255 255 255 255 255 255 255 255 255 242 211 179 158 140 132 136 161 173 181 181 188 189 189 190 197 191 197 195 195 193 198 199 194 198 198 194 198 198 199 194 197 193 190 193 192 193 191 192 191 186 187 186 185 183 177 173 168 157 150 137 155 180 211 241 255 255 255 255 255 255 255 255 255 255 255 255 255 255 255
255 255 255 255 255 255 255 255 255 255 255 255 255 255 255 255 255 255 255 255 255 255 254 229 196 173 150 133 134 144 169 177 177 185 185 189 192 194 193 194 194 197 194 196 197 199 198 196 200 198 196 195 195 195 197 196 195 194 190 191 192 191 187 187 186 185 180 178 176 171 159 147 137 153 180 209 240 255 255 255 255 255 255 255 255 255 255 255 255 255 255 255
255 255 255 255 255 255 255 255 255 255 255 255 255 255 255 255 255 255 255 255 255 255 255 248 215 189 169 146 134 135 149 173 181 180 185 186 190 190 193 196 196 196 197 195 200 194 195 197 194 195 196 195 197 192 196 191 197 192 194 195 190 191 190 188 187 185 182 177 175 171 161 147 137 154 178 211 242 255 255 255 255 255 255 255 255 255 255 255 255 255 255 255
255 255 255 255 255 255 255 255 255 255 255 255 255 255 255 255 255 255 255 255 255 255 255 255 240 204 177 158 143 135 138 154 167 176 183 189 187 189 192 194 196 192 196 191 194 191 193 196 197 201 196 198 195 193 195 199 193 193 193 193 193 186 189 189 187 187 180 180 178 169 158 143 135 153 179 211 241 255 255 255 255 255 255 255 255 255 255 255 255 255 255 255
255 255 255 255 255 255 255 255 255 255 255 255 255 255 255 255 255 255 255 255 255 255 255 255 254 228 197 178 152 140 134 138 157 172 178 180 188 188 187 189 194 193 193 193 195 193 195 198 193 199 196 193 196 198 192 195 193 191 193 189 193 190 191 189 188 182 180 179 176 170 160 144 138 154 182 210 243 255 255 255 255 255 255 255 255 255 255 255 255 255 255 255
255 255 255 255 255 255 255 255 255 255 255 255 255 255 255 255 255 255 255 255 255 255 255 255 255 249 222 195 169 153 140 137 139 160 175 179 185 189 189 189 191 195 192 190 194 192 195 194 198 196 196 200 196 195 193 194 193 193 194 192 193 191 190 187 187 184 183 178 177 169 155 146 142 159 181 213 244 255 255 255 255 255 255 255 255 255 255 255 255 255 255 255
255 255 255 255 255 255 255 255 255 255 255 255 255 255 255 255 255 255 255 255 255 255 255 255 255 255 245 214 187 166 151 140 130 137 157 173 179 181 186 185 190 191 190 194 196 192 195 194 196 196 195 194 192 197 193 192 195 191 190 192 190 189 185 186 183 183 182 178 173 170 154 141 140 161 188 216 247 255 255 255 255 255 255 255 255 255 255 255 255 255 255 255
255 255 255 255 255 255 255 255 255 255 255 255 255 255 255 255 255 255 255 255 255 255 255 255 255 255 255 239 212 185 163 152 137 132 140 154 169 181 181 183 184 188 188 191 187 193 187 196 194 193 196 192 193 191 196 192 191 194 195 189 187 191 184 186 183 184 179 176 175 168 158 139 144 162 188 222 249 255 255 255 255 255 255 255 255 255 255 255 255 255 255 255
255 255 255 255 255 255 255 255 255 255 255 255 255 255 255 255 255 255 255 255 255 255 255 255 255 255 255 255 236 208 184 165 147 135 132 132 150 166 176 180 182 182 185 186 187 191 191 191 195 190 190 193 195 191 190 194 192 189 183 189 188 188 188 187 181 178 178 178 168 158 154 135 146 170 191 225 251 255 255 255 255 255 255 255 255 255 255 255 255 255 255 255
255 255 255 255 255 255 255 255 255 255 255 255 255 255 255 255 255 255 255 255 255 255 255 255 255 255 255 255 254 231 207 188 163 147 135 138 134 145 162 172 179 182 187 182 185 186 188 188 190 192 191 191 190 192 192 190 194 191 189 187 189 190 187 187 180 180 177 174 169 155 151 136 150 169 198 231 254 255 255 255 255 255 255 255 255 255 255 255 255 255 255 255
255 255 255 255 255 255 255 255 255 255 255 255 255 255 255 255 255 255 255 255 255 255 255 255 255 255 255 255 255 254 235 210 185 165 154 137 130 127 132 156 171 174 176 184 182 186 188 188 190 191 190 192 187 190 187 190 187 187 188 188 189 185 184 183 183 179 174 174 164 155 142 138 156 181 207 234 255 255 255 255 255 255 255 255 255 255 255 255 255 255 255 255
255 255 255 255 255 255 255 255 255 255 255 255 255 255 255 255 255 255 255 255 255 255 255 255 255 255 255 255 255 255 255 237 212 189 170 154 142 130 128 133 141 155 170 174 179 180 185 182 186 188 184 188 186 188 183 188 188 188 187 185 185 182 180 181 178 176 174 168 162 149 134 137 157 181 216 243 255 255 255 255 255 255 255 255 255 255 255 255 255 255 255 255
255 255 255 255 255 255 255 255 255 255 255 255 255 255 255 255 255 255 255 255 255 255 255 255 255 255 255 255 255 255 255 255 242 219 190 173 157 146 129 129 129 137 147 158 168 177 176 181 183 184 188 185 183 183 184 185 189 184 182 183 181 180 181 182 176 169 171 164 155 139 130 137 166 190 222 250 255 255 255 255 255 255 255 255 255 255 255 255 255 255 255 255
255 255 255 255 255 255 255 255 255 255 255 255 255 255 255 255 255 255 255 255 255 255 255 255 255 255 255 255 255 255 255 255 255 248 222 199 181 162 146 138 127 123 123 127 141 159 164 172 175 174 179 182 182 183 181 183 178 183 184 183 178 177 178 173 171 164 161 154 144 130 127 146 173 202 234 254 255 255 255 255 255 255 255 255 255 255 255 255 255 255 255 255
255 255 255 255 255 255 255 255 255 255 255 255 255 255 255 255 255 255 255 255 255 255 255 255 255 255 255 255 255 255 255 255 255 255 252 231 209 189 176 154 144 135 134 127 124 125 136 149 160 169 174 175 175 171 181 177 181 178 180 180 175 175 173 170 164 158 156 148 129 120 131 155 185 214 242 255 255 255 255 255 255 255 255 255 255 255 255 255 255 255 255 255
255 255 255 255 255 255 255 255 255 255 255 255 255 255 255 255 255 255 255 255 255 255 255 255 255 255 255 255 255 255 255 255 255 255 255 255 244 219 202 185 164 153 143 134 126 121 121 114 125 132 144 150 161 164 169 167 172 170 166 172 168 168 162 162 154 144 132 120 107 117 139 167 194 228 250 255 255 255 255 255 255 255 255 255 255 255 255 255 255 255 255 255
255 255 255 255 255 255 255 255 255 255 255 255 255 255 255 255 255 255 255 255 255 255 255 255 255 255 255 255 255 255 255 255 255 255 255 255 255 252 235 214 193 181 165 151 141 133 122 121 113 117 121 119 122 124 134 142 147 149 152 148 147 147 141 134 121 100 88 86 107 125 144 181 211 241 255 255 255 255 255 255 255 255 255 255 255 255 255 255 255 255 255 255
255 255 255 255 255 255 255 255 255 255 255 255 255 255 255 255 255 255 255 255 255 255 255 255 255 255 255 255 255 255 255 255 255 255 255 255 255 255 255 249 232 210 194 178 163 149 146 135 127 126 116 108 110 110 108 110 104 104 100 100 100 104 94 91 81 72 74 90 114 136 170 199 228 252 255 255 255 255 255 255 255 255 255 255 255 255 255 255 255 255 255 255
255 255 255 255 255 255 255 255 255 255 255 255 255 255 255 255 255 255 255 255 255 255 255 255 255 255 255 255 255 255 255 255 255 255 255 255 255 255 255 255 255 249 233 213 195 182 169 158 154 138 135 128 120 119 116 107 103 100 99 90 90 93 92 89 80 83 96 111 130 159 191 220 248 255 255 255 255 255 255 255 255 255 255 255 255 255 255 255 255 255 255 255
255 255 255 255 255 255 255 255 255 255 255 255 255 255 255 255 255 255 255 255 255 255 255 255 255 255 255 255 255 255 255 255 255 255 255 255 255 255 255 255 255 255 255 251 237 222 205 187 178 171 159 150 143 135 130 118 119 113 114 108 103 108 100 100 95 109 118 137 161 188 216 244 255 255 255 255 255 255 255 255 255 255 255 255 255 255 255 255 255 255 255 255
255 255 255 255 255 255 255 255 255 255 255 255 255 255 255 255 255 255 255 255 255 255 255 255 255 255 255 255 255 255 255 255 255 255 255 255 255 255 255 255 255 255 255 255 255 254 248 233 216 204 192 182 173 166 154 154 148 139 138 137 133 132 130 135 132 143 153 171 201 224 247 255 255 255 255 255 255 255 255 255 255 255 255 255 255 255 255 255 255 255 255 255
255 255 255 255 255 255 255 255 255 255 255 255 255 255 255 255 255 255 255 255 255 255 255 255 255 255 255 255 255 255 255 255 255 255 255 255 255 255 255 255 255 255 255 255 255 255 255 255 254 249 241 229 215 204 197 189 185 180 179 174 172 170 170 173 178 187 200 222 241 253 255 255 255 255 255 255 255 255 255 255 255 255 255 255 255 255 255 255 255 255 255 255
255 255 255 255 255 255 255 255 255 255 255 255 255 255 255 255 255 255 255 255 255 255 255 255 255 255 255 255 255 255 255 255 255 255 255 255 255 255 255 255 255 255 255 255 255 255 255 255 255 255 255 255 254 251 247 241 236 229 225 224 226 224 225 230 239 246 252 255 255 255 255 255 255 255 255 255 255 255 255 255 255 255 255 255 255 255 255 255 255 255 255 255
255 255 255 255 255 255 255 255 255 255 255 255 255 255 255 255 255 255 255 255 255 255 255 255 255 255 255 255 255 255 255 255 255 255 255 255 255 255 255 255 255 255 255 255 255 255 255 255 255 255 255 255 255 255 255 255 255 255 255 255 255 255 255 255 255 255 255 255 255 255 255 255 255 255 255 255 255 255 255 255 255 255 255 255 255 255 255 255 255 255 255 255
255 255 255 255 255 255 255 255 255 255 255 255 255 255 255 255 255 255 255 255 255 255 255 255 255 255 255 255 255 255 255 255 255 255 255 255 255 255 255 255 255 255 255 255 255 255 255 255 255 255 255 255 255 255 255 255 255 255 255 255 255 255 255 255 255 255 255 255 255 255 255 255 255 255 255 255 255 255 255 255 255 255 255 255 255 255 255 255 255 255 255 255
255 255 255 255 255 255 255 255 255 255 255 255 255 255 255 255 255 255 255 255 255 255 255 255 255 255 255 255 255 255 255 255 255 255 255 255 255 255 255 255 255 255 255 255 255 255 255 255 255 255 255 255 255 255 255 255 255 255 255 255 255 255 255 255 255 255 255 255 255 255 255 255 255 255 255 255 255 255 255 255 255 255 255 255 255 255 255 255 255 255 255 255
255 255 255 255 255 255 255 255 255 255 255 255 255 255 255 255 255 255 255 255 255 255 255 255 255 255 255 255 255 255 255 255 255 255 255 255 255 255 255 255 255 255 255 255 255 255 255 255 255 255 255 255 255 255 255 255 255 255 255 255 255 255 255 255 255 255 255 255 255 255 255 255 255 255 255 255 255 255 255 255 255 255 255 255 255 255 255 255 255 255 255 255
255 255 255 255 255 255 255 255 255 255 255 255 255 255 255 255 255 255 255 255 255 255 255 255 255 255 255 255 255 255 255 255 255 255 255 255 255 255 255 255 255 255 255 255 255 255 255 255 255 255 255 255 255 255 255 255 255 255 255 255 255 255 255 255 255 255 255 255 255 255 255 255 255 255 255 255 255 255 255 255 255 255 255 255 255 255 255 255 255 255 255 255
255 255 255 255 255 255 255 255 255 255 255 255 255 255 255 255 255 255 255 255 255 255 255 255 255 255 255 255 255 255 255 255 255 255 255 255 255 255 255 255 255 255 255 255 255 255 255 255 255 255 255 255 255 255 255 255 255 255 255 255 255 255 255 255 255 255 255 255 255 255 255 255 255 255 255 255 255 255 255 255 255 255 255 255 255 255 255 255 255 255 255 255
255 255 255 255 255 255 255 255 255 255 255 255 255 255 255 255 255 255 255 255 255 255 255 255 255 255 255 255 255 255 255 255 255 255 255 255 255 255 255 255 255 255 255 255 255 255 255 255 255 255 255 255 255 255 255 255 255 255 255 255 255 255 255 255 255 255 255 255 255 255 255 255 255 255 255 255 255 255 255 255 255 255 255 255 255 255 255 255 255 255 255 255
255 255 255 255 255 255 255 255 255 255 255 255 255 255 255 255 255 255 255 255 255 255 255 255 255 255 255 255 255 255 255 255 255 255 255 255 255 255 255 255 255 255 255 255 255 255 255 255 255 255 255 255 255 255 255 255 255 255 255 255 255 255 255 255 255 255 255 255 255 255 255 255 255 255 255 255 255 255 255 255 255 255 255 255 255 255 255 255 255 255 255 255
255 255 255 255 255 255 255 255 255 255 255 255 255 255 255 255 255 255 255 255 255 255 255 255 255 255 255 255 255 255 255 255 255 255 255 255 255 255 255 255 255 255 255 255 255 255 255 255 255 255 255 255 255 255 255 255 255 255 255 255 255 255 255 255 255 255 255 255 255 255 255 255 255 255 255 255 255 255 255 255 255 255 255 255 255 255 255 255 255 255 255 255
255 255 255 255 255 255 255 255 255 255 255 255 255 255 255 255 255 255 255 255 255 255 255 255 255 255 255 255 255 255 255 255 255 255 255 255 255 255 255 255 255 255 255 255 255 255 255 255 255 255 255 255 255 255 255 255 255 255 255 255 255 255 255 255 255 255 255 255 255 255 255 255 255 255 255 255 255 255 255 255 255 255 255 255 255 255 255 255 255 255 255 255
255 255 255 255 255 255 255 255 255 255 255 255 255 255 255 255 255 255 255 255 255 255 255 255 255 255 255 255 255 255 255 255 255 255 255 255 255 255 255 255 255 255 255 255 255 255 255 255 255 255 255 255 255 255 255 255 255 255 255 255 255 255 255 255 255 255 255 255 255 255 255 255 255 255 255 255 255 255 255 255 255 255 255 255 255 255 255 255 255 255 255 255
255 255 255 255 255 255 255 255 255 255 255 255 255 255 255 255 255 255 255 255 255 255 255 255 255 255 255 255 255 255 255 255 255 255 255 255 255 255 255 255 255 255 255 255 255 255 255 255 255 255 255 255 255 255 255 255 255 255 255 255 255 255 255 255 255 255 255 255 255 255 255 255 255 255 255 255 255 255 255 255 255 255 255 255 255 255 255 255 255 255 255 255
