P2
92 92
255
255 255 255 255 255 255 255 255 255 255 255 255 255 255 255 255 255 255 255 255 255 255 255 255 255 255 255 255 255 255 255 255 255 255 255 255 255 255 255 255 255 255 255 255 255 255 255 255 255 255 255 255 255 255 255 255 255 255 255 255 255 255 255 255 255 255 255 255 255 255 255 255 255 255 255 255 255 255 255 255 255 255 255 255 255 255 255 255 255 255 255 255
255 255 255 255 255 255 255 255 255 255 255 255 255 255 255 255 255 255 255 255 255 255 255 255 255 255 255 255 255 255 255 255 255 255 255 255 255 255 255 255 255 255 255 255 255 255 255 255 255 255 255 255 255 255 255 255 255 255 255 255 255 255 255 255 255 255 255 255 255 255 255 255 255 255 255 255 255 255 255 255 255 255 255 255 255 255 255 255 255 255 255 255
255 255 255 255 255 255 255 255 255 255 255 255 255 255 255 255 255 255 255 255 255 255 255 255 255 255 255 255 255 255 255 255 255 255 255 255 255 255 255 255 255 255 255 255 255 255 255 255 255 255 255 255 255 255 255 255 255 255 255 255 255 255 255 255 255 255 255 255 255 255 255 255 255 255 255 255 255 255 255 255 255 255 255 255 255 255 255 255 255 255 255 255
255 255 255 255 255 255 255 255 255 255 255 255 255 255 255 255 255 255 255 255 255 255 255 255 255 255 255 255 255 255 255 255 255 255 255 255 255 255 255 255 255 255 255 255 255 255 255 255 255 255 255 255 255 255 255 255 255 255 255 255 255 255 255 255 255 255 255 255 255 255 255 255 255 255 255 255 255 255 255 255 255 255 255 255 255 255 255 255 255 255 255 255
255 255 255 255 255 255 255 255 255 255 255 255 255 255 255 255 255 255 255 255 255 255 255 255 255 255 255 255 255 255 255 255 255 255 255 255 255 255 255 255 255 255 255 255 255 255 255 255 255 255 255 255 255 255 255 255 255 255 255 255 255 255 255 255 255 255 255 255 255 255 255 255 255 255 255 255 255 255 255 255 255 255 255 255 255 255 255 255 255 255 255 255
255 255 255 255 255 255 255 255 255 255 255 255 255 255 255 255 255 255 255 255 255 255 255 255 255 255 255 255 255 255 255 255 255 255 255 255 255 255 255 255 255 255 255 255 255 255 255 255 255 255 255 255 255 255 255 255 255 255 255 255 255 255 255 255 255 255 255 255 255 255 255 255 255 255 255 255 255 255 255 255 255 255 255 255 255 255 255 255 255 255 255 255
255 255 255 255 255 255 255 255 255 255 255 255 255 255 255 255 255 255 255 255 255 255 255 255 255 255 255 255 255 255 255 255 255 255 255 255 255 255 255 255 255 255 255 255 255 255 255 255 255 255 255 255 255 255 255 255 255 255 255 255 255 255 255 255 255 255 255 255 255 255 255 255 255 255 255 255 255 255 255 255 255 255 255 255 255 255 255 255 255 255 255 255
255 255 255 255 255 255 255 255 255 255 255 255 255 255 255 255 255 255 255 255 255 255 255 255 255 255 255 255 255 253 253 251 249 247 246 245 246 247 247 249 250 252 253 255 255 255 255 255 255 255 255 255 255 255 255 255 255 255 255 255 255 255 255 255 255 255 255 255 255 255 255 255 255 255 255 255 255 255 255 255 255 255 255 255 255 255 255 255 255 255 255 255
255 255 255 255 255 255 255 255 255 255 255 255 255 255 255 255 255 255 255 255 255 255 255 255 255 254 251 247 241 239 235 232 230 225 223 223 226 224 226 228 231 233 237 241 244 249 252 254 255 255 255 255 255 255 255 255 255 255 255 255 255 255 255 255 255 255 255 255 255 255 255 255 255 255 255 255 255 255 255 255 255 255 255 255 255 255 255 255 255 255 255 255
255 255 255 255 255 255 255 255 255 255 255 255 255 255 255 255 255 255 255 255 255 255 255 253 248 241 234 227 218 215 214 211 208 207 203 202 203 204 206 209 209 209 216 220 225 229 236 242 247 252 254 255 255 255 255 255 255 255 255 255 255 255 255 255 255 255 255 255 255 255 255 255 255 255 255 255 255 255 255 255 255 255 255 255 255 255 255 255 255 255 255 255
255 255 255 255 255 255 255 255 255 255 255 255 255 255 255 255 255 255 255 255 255 254 247 236 229 217 210 204 200 193 190 187 186 183 182 183 184 184 184 186 187 190 194 198 203 210 212 219 227 236 242 248 253 255 255 255 255 255 255 255 255 255 255 255 255 255 255 255 255 255 255 255 255 255 255 255 255 255 255 255 255 255 255 255 255 255 255 255 255 255 255 255
255 255 255 255 255 255 255 255 255 255 255 255 255 255 255 255 255 255 255 255 249 240 228 216 204 195 192 184 179 175 174 170 169 168 167 168 172 168 169 170 176 173 175 178 185 192 194 200 207 211 219 230 239 246 253 255 255 255 255 255 255 255 255 255 255 255 255 255 255 255 255 255 255 255 255 255 255 255 255 255 255 255 255 255 255 255 255 255 255 255 255 255
255 255 255 255 255 255 255 255 255 255 255 255 255 255 255 255 255 255 254 245 234 217 207 194 184 177 171 167 164 162 164 163 166 167 168 166 167 168 165 168 166 164 160 171 167 171 176 178 183 195 198 206 216 227 236 246 253 255 255 255 255 255 255 255 255 255 255 255 255 255 255 255 255 255 255 255 255 255 255 255 255 255 255 255 255 255 255 255 255 255 255 255
255 255 255 255 255 255 255 255 255 255 255 255 255 255 255 255 255 254 242 226 208 193 182 171 163 161 156 160 158 164 166 170 173 174 174 176 172 172 174 175 175 171 170 168 166 166 167 165 165 170 179 185 195 207 215 226 238 247 254 255 255 255 255 255 255 255 255 255 255 255 255 255 255 255 255 255 255 255 255 255 255 255 255 255 255 255 255 255 255 255 255 255
255 255 255 255 255 255 255 255 255 255 255 255 255 255 255 255 254 240 217 204 186 172 161 156 156 155 158 162 171 171 172 177 180 181 180 180 177 180 179 179 177 176 175 175 169 167 170 164 159 161 164 170 178 184 193 205 218 227 241 251 255 255 255 255 255 255 255 255 255 255 255 255 255 255 255 255 255 255 255 255 255 255 255 255 255 255 255 255 255 255 255 255
255 255 255 255 255 255 255 255 255 255 255 255 255 255 255 255 242 218 196 179 165 158 148 148 151 159 170 175 179 177 181 183 178 186 184 182 184 184 185 183 184 180 181 178 178 174 179 172 170 167 161 159 160 171 177 183 195 208 220 234 246 254 255 255 255 255 255 255 255 255 255 255 255 255 255 255 255 255 255 255 255 255 255 255 255 255 255 255 255 255 255 255
255 255 255 255 255 255 255 255 255 255 255 255 255 255 255 247 221 196 173 160 150 145 143 152 165 170 175 173 181 183 185 181 181 187 186 185 182 181 187 185 182 184 182 183 182 185 180 174 173 173 170 165 165 155 161 167 178 189 202 213 227 240 252 255 255 255 255 255 255 255 255 255 255 255 255 255 255 255 255 255 255 255 255 255 255 255 255 255 255 255 255 255
255 255 255 255 255 255 255 255 255 255 255 255 255 255 253 226 197 174 157 140 137 132 151 167 173 178 181 181 182 184 180 186 186 187 185 186 185 191 186 186 186 189 186 187 186 181 184 178 176 173 172 176 170 168 161 158 161 169 180 194 206 223 239 251 255 255 255 255 255 255 255 255 255 255 255 255 255 255 255 255 255 255 255 255 255 255 255 255 255 255 255 255
255 255 255 255 255 255 255 255 255 255 255 255 255 255 240 204 180 159 144 132 130 148 165 171 175 180 183 184 184 183 186 191 188 190 190 188 190 189 186 186 190 189 186 186 184 184 183 180 177 179 179 176 174 175 167 161 155 161 161 176 188 201 214 233 246 255 255 255 255 255 255 255 255 255 255 255 255 255 255 255 255 255 255 255 255 255 255 255 255 255 255 255
255 255 255 255 255 255 255 255 255 255 255 255 255 252 218 188 162 144 127 123 138 165 170 177 176 185 184 184 188 190 188 189 191 191 190 188 188 187 191 184 189 185 186 187 186 188 188 184 184 182 176 178 179 178 168 171 168 157 159 162 169 182 194 213 231 245 255 255 255 255 255 255 255 255 255 255 255 255 255 255 255 255 255 255 255 255 255 255 255 255 255 255
255 255 255 255 255 255 255 255 255 255 255 255 255 238 201 171 141 127 119 127 157 168 177 183 182 183 182 190 190 190 192 191 191 188 189 195 191 192 191 191 191 193 188 190 188 188 188 184 183 185 180 179 179 179 175 171 169 165 159 157 158 168 178 191 210 229 244 254 255 255 255 255 255 255 255 255 255 255 255 255 255 255 255 255 255 255 255 255 255 255 255 255
255 255 255 255 255 255 255 255 255 255 255 255 253 218 184 151 130 117 124 141 169 175 175 183 184 183 188 193 188 186 189 194 192 191 192 191 189 195 189 192 190 192 191 188 190 191 189 187 187 185 188 182 181 183 177 178 173 171 166 160 157 158 163 178 193 208 226 245 254 255 255 255 255 255 255 255 255 255 255 255 255 255 255 255 255 255 255 255 255 255 255 255
255 255 255 255 255 255 255 255 255 255 255 255 244 199 169 143 121 114 122 160 172 176 179 185 186 191 191 189 189 189 190 195 192 191 192 193 192 189 196 193 192 187 190 191 190 189 191 188 188 188 190 186 185 182 176 182 177 174 171 167 164 156 152 165 175 194 211 225 244 254 255 255 255 255 255 255 255 255 255 255 255 255 255 255 255 255 255 255 255 255 255 255
255 255 255 255 255 255 255 255 255 255 255 255 228 186 154 130 113 118 134 165 177 184 182 184 188 188 188 190 190 190 194 191 193 192 195 189 194 197 193 194 192 193 193 191 190 190 187 189 184 187 189 186 183 187 185 183 178 176 174 173 165 163 153 160 160 174 190 208 227 245 255 255 255 255 255 255 255 255 255 255 255 255 255 255 255 255 255 255 255 255 255 255
255 255 255 255 255 255 255 255 255 255 255 251 211 174 146 121 115 110 150 171 178 179 182 185 190 192 191 193 190 193 193 192 187 191 195 193 193 192 194 193 195 192 193 190 190 192 191 192 187 190 186 186 186 184 185 182 181 181 176 175 172 167 167 154 151 162 173 193 210 229 248 255 255 255 255 255 255 255 255 255 255 255 255 255 255 255 255 255 255 255 255 255
255 255 255 255 255 255 255 255 255 255 255 243 195 164 138 115 110 119 165 172 181 182 185 189 190 191 190 193 196 194 195 196 192 192 194 195 193 191 192 193 193 194 192 192 193 189 192 191 191 189 188 186 188 186 186 181 181 184 180 182 176 174 170 164 160 149 161 178 193 212 231 249 255 255 255 255 255 255 255 255 255 255 255 255 255 255 255 255 255 255 255 255
255 255 255 255 255 255 255 255 255 255 255 230 186 152 126 114 113 131 170 178 180 182 187 189 192 189 193 192 195 191 193 194 193 194 198 192 197 194 196 192 192 194 191 195 194 192 188 191 193 192 189 191 187 190 186 185 186 186 179 179 177 174 170 166 162 153 154 166 179 196 218 238 252 255 255 255 255 255 255 255 255 255 255 255 255 255 255 255 255 255 255 255
255 255 255 255 255 255 255 255 255 255 254 220 170 149 123 106 117 150 170 177 183 189 188 188 195 193 194 194 189 196 194 197 192 194 198 192 194 191 195 191 195 188 193 190 190 191 194 191 196 190 188 189 189 190 187 184 187 185 184 182 179 178 175 173 170 164 152 154 166 183 202 221 240 254 255 255 255 255 255 255 255 255 255 255 255 255 255 255 255 255 255 255
255 255 255 255 255 255 255 255 255 255 251 208 166 139 120 107 119 160 173 181 182 186 190 190 193 192 194 195 195 194 196 193 195 195 196 193 193 198 194 194 194 194 194 190 193 191 188 189 191 188 189 188 188 189 187 188 188 184 183 181 182 179 179 175 171 171 159 155 153 169 188 207 228 247 255 255 255 255 255 255 255 255 255 255 255 255 255 255 255 255 255 255
255 255 255 255 255 255 255 255 255 255 245 198 160 131 113 106 123 166 173 184 184 187 189 192 194 195 194 195 193 195 195 195 193 195 194 194 192 194 195 194 188 191 193 191 194 193 188 190 190 191 190 191 191 191 189 184 189 182 183 184 180 184 180 178 177 176 163 157 152 156 172 193 215 232 251 255 255 255 255 255 255 255 255 255 255 255 255 255 255 255 255 255
255 255 255 255 255 255 255 255 255 255 239 189 156 125 111 111 131 168 178 184 185 192 188 193 191 191 196 193 199 193 194 195 194 194 192 194 195 193 194 194 193 191 194 192 193 194 189 192 189 190 190 187 188 188 187 189 187 185 185 182 182 183 181 179 178 172 172 166 158 155 159 178 198 219 242 255 255 255 255 255 255 255 255 255 255 255 255 255 255 255 255 255
255 255 255 255 255 255 255 255 255 255 234 186 150 127 110 108 137 174 179 180 185 188 187 192 193 194 196 194 194 193 197 196 194 195 193 198 195 192 193 192 195 194 191 194 195 195 194 191 192 189 190 188 194 188 188 189 187 183 186 186 186 184 179 179 175 175 169 169 166 156 151 164 187 205 228 248 255 255 255 255 255 255 255 255 255 255 255 255 255 255 255 255
255 255 255 255 255 255 255 255 255 255 227 181 142 122 107 109 145 173 180 184 186 188 191 193 194 193 194 190 193 198 195 196 195 194 195 193 194 193 192 192 194 193 192 190 187 192 192 190 190 194 191 192 192 188 189 189 191 187 187 190 185 183 184 182 180 177 176 172 169 160 154 158 177 195 218 236 253 255 255 255 255 255 255 255 255 255 255 255 255 255 255 255
255 255 255 255 255 255 255 255 255 255 223 171 148 123 108 108 152 172 178 186 190 190 191 189 191 193 194 193 193 199 196 194 197 193 195 195 191 193 195 196 193 196 194 192 192 192 193 189 190 187 192 192 190 189 188 188 193 189 184 184 190 183 183 182 182 180 176 171 168 164 155 154 161 180 202 225 246 255 255 255 255 255 255 255 255 255 255 255 255 255 255 255
255 255 255 255 255 255 255 255 255 255 216 172 137 117 110 114 154 173 180 182 188 191 191 193 193 195 191 194 196 194 194 193 196 194 193 192 195 194 197 194 193 193 190 193 193 190 194 191 190 194 191 192 190 191 188 190 187 188 188 189 188 185 184 185 183 178 180 177 174 168 167 154 156 171 192 213 235 252 255 255 255 255 255 255 255 255 255 255 255 255 255 255
255 255 255 255 255 255 255 255 255 254 215 167 138 116 109 116 158 175 181 182 187 185 192 189 192 193 191 197 193 195 192 194 193 199 194 194 196 195 194 193 193 196 192 192 194 192 191 193 188 190 193 191 190 190 193 189 189 187 187 185 189 187 185 185 182 181 182 179 177 176 166 161 151 166 182 201 227 246 255 255 255 255 255 255 255 255 255 255 255 255 255 255
255 255 255 255 255 255 255 255 255 254 215 171 134 113 102 114 155 175 181 183 188 191 194 193 193 192 192 193 192 193 192 195 195 196 195 193 194 194 196 192 191 192 193 193 194 188 192 192 191 192 190 189 193 190 189 191 190 187 188 191 187 186 191 184 186 184 181 180 176 168 170 163 154 160 174 192 213 236 253 255 255 255 255 255 255 255 255 255 255 255 255 255
255 255 255 255 255 255 255 255 255 254 213 168 137 115 105 115 155 173 178 183 182 190 192 192 193 191 194 192 193 193 192 194 193 196 197 196 193 193 192 196 192 193 194 193 190 188 193 192 191 188 191 190 191 190 193 190 186 188 192 185 190 188 190 187 184 182 184 180 179 175 172 165 161 154 165 183 203 224 249 255 255 255 255 255 255 255 255 255 255 255 255 255
255 255 255 255 255 255 255 255 255 254 212 165 136 113 104 112 157 171 185 189 187 189 189 192 191 194 195 194 191 193 197 197 194 193 196 194 198 193 193 195 193 192 190 195 193 192 192 189 191 189 191 191 188 193 191 190 187 190 190 188 189 191 187 187 185 185 185 183 179 180 173 169 163 162 159 172 198 218 241 255 255 255 255 255 255 255 255 255 255 255 255 255
255 255 255 255 255 255 255 255 255 254 217 167 139 114 103 107 152 174 179 186 183 188 191 187 197 193 193 194 196 194 193 194 197 196 192 196 195 192 197 194 196 194 190 191 192 192 188 188 191 188 193 196 192 191 191 189 189 191 192 190 189 188 186 185 185 185 187 182 181 180 177 172 171 160 154 163 182 209 230 251 255 255 255 255 255 255 255 255 255 255 255 255
255 255 255 255 255 255 255 255 255 255 220 170 135 114 99 113 154 175 182 183 187 185 192 192 192 194 197 196 194 194 194 195 194 195 195 194 194 196 192 195 193 193 194 190 191 192 193 189 194 188 191 190 195 189 192 192 192 186 190 188 191 188 183 189 185 188 187 186 182 179 178 176 169 162 154 161 175 197 222 246 255 255 255 255 255 255 255 255 255 255 255 255
255 255 255 255 255 255 255 255 255 255 225 173 141 117 101 106 151 177 176 186 184 185 189 191 191 193 193 194 194 192 196 195 190 195 196 195 191 193 190 190 191 193 191 194 188 192 189 195 190 194 192 189 189 191 191 191 192 190 190 187 189 191 189 185 188 184 185 186 183 179 181 175 175 169 159 155 175 194 217 236 254 255 255 255 255 255 255 255 255 255 255 255
255 255 255 255 255 255 255 255 255 255 229 178 144 120 104 104 140 171 181 180 185 188 192 193 191 191 195 194 196 193 196 194 191 195 195 197 193 193 192 195 192 195 191 192 191 191 191 193 190 194 194 191 192 190 190 191 189 190 192 191 191 189 188 186 187 186 187 187 183 182 183 180 176 164 165 156 167 186 208 231 251 255 255 255 255 255 255 255 255 255 255 255
255 255 255 255 255 255 255 255 255 255 236 183 146 121 104 105 139 172 181 181 186 190 187 191 192 195 193 193 194 196 195 195 195 193 195 195 192 192 194 193 189 190 194 195 194 190 193 193 193 194 189 190 188 191 187 191 190 192 190 191 192 191 189 191 190 185 188 189 187 186 180 178 176 172 163 159 163 180 202 225 246 255 255 255 255 255 255 255 255 255 255 255
255 255 255 255 255 255 255 255 255 255 241 192 152 120 98 99 127 169 180 179 184 187 192 190 194 191 194 195 195 196 194 194 191 193 191 191 194 192 192 193 192 195 189 192 191 193 190 191 194 197 189 188 190 192 194 187 193 190 191 193 192 190 190 187 189 190 189 189 183 183 181 184 177 177 167 158 157 172 195 220 241 255 255 255 255 255 255 255 255 255 255 255
255 255 255 255 255 255 255 255 255 255 247 198 158 128 100 94 116 162 172 181 183 185 190 193 190 192 194 196 194 193 193 198 193 193 194 194 192 194 195 192 190 192 194 189 192 193 193 189 194 192 191 193 193 191 191 189 193 188 189 190 190 190 188 190 191 186 186 185 188 183 179 182 180 173 169 160 157 165 187 212 236 253 255 255 255 255 255 255 255 255 255 255
255 255 255 255 255 255 255 255 255 255 252 207 159 132 107 93 106 153 172 179 183 187 189 189 190 193 192 193 193 196 195 194 193 195 189 193 192 190 193 190 192 194 195 194 193 193 192 192 193 193 192 194 192 194 191 192 190 191 192 189 191 193 195 190 188 190 193 186 184 187 185 183 184 179 179 163 156 164 181 208 231 250 255 255 255 255 255 255 255 255 255 255
255 255 255 255 255 255 255 255 255 255 255 219 172 135 109 100 102 147 174 182 180 186 187 189 192 194 195 192 194 191 194 192 195 194 190 195 193 191 194 192 189 194 191 192 193 189 195 193 192 192 192 190 188 194 192 193 191 189 190 191 190 191 188 189 191 189 189 188 188 182 185 184 179 177 172 169 157 161 183 204 226 248 255 255 255 255 255 255 255 255 255 255
255 255 255 255 255 255 255 255 255 255 255 232 181 140 118 102 96 131 168 173 181 188 187 190 190 192 190 191 192 195 193 193 199 191 194 193 195 193 193 191 190 192 193 190 192 193 190 189 192 191 191 191 194 195 191 193 194 191 190 194 190 193 193 187 189 194 187 189 191 187 187 183 178 182 178 170 160 159 177 199 224 243 255 255 255 255 255 255 255 255 255 255
255 255 255 255 255 255 255 255 255 255 255 243 192 154 123 105 95 115 158 177 180 183 186 188 189 191 192 189 193 191 194 191 194 194 194 194 194 194 193 194 195 190 194 190 192 193 187 190 191 193 192 190 193 193 193 194 190 189 195 191 190 192 191 193 189 193 192 190 190 188 186 182 185 181 175 170 160 164 175 195 216 241 255 255 255 255 255 255 255 255 255 255
255 255 255 255 255 255 255 255 255 255 255 252 208 163 128 110 91 103 151 172 178 182 187 186 187 191 189 191 192 192 193 195 195 191 195 195 197 191 193 192 195 193 190 192 192 192 193 191 192 193 194 190 190 194 194 194 186 192 193 192 190 191 194 188 192 187 192 191 191 189 187 185 184 179 181 175 168 161 174 194 214 237 254 255 255 255 255 255 255 255 255 255
255 255 255 255 255 255 255 255 255 255 255 255 222 175 137 117 101 104 133 169 178 187 187 188 189 191 189 191 192 195 193 192 195 194 197 195 192 193 192 193 194 191 194 192 192 190 193 192 192 192 191 192 195 192 193 193 192 190 191 193 189 194 192 193 192 193 191 191 188 190 189 184 180 180 178 177 169 158 173 192 211 237 253 255 255 255 255 255 255 255 255 255
255 255 255 255 255 255 255 255 255 255 255 255 240 187 144 121 100 94 118 157 174 178 183 185 188 188 189 191 193 189 194 195 193 191 195 193 193 195 194 191 192 193 192 195 196 195 191 191 195 194 190 194 195 194 193 191 194 191 191 194 191 192 191 192 194 193 193 189 190 186 189 186 184 185 179 178 169 163 171 191 213 235 252 255 255 255 255 255 255 255 255 255
255 255 255 255 255 255 255 255 255 255 255 255 251 207 163 131 104 96 100 136 170 177 183 189 188 188 190 192 188 191 194 193 191 193 194 192 194 190 198 195 192 193 191 193 194 191 192 194 195 197 191 194 194 195 194 193 194 190 193 191 191 193 191 192 191 190 192 190 188 192 189 188 187 183 174 176 171 162 169 184 211 231 252 255 255 255 255 255 255 255 255 255
255 255 255 255 255 255 255 255 255 255 255 255 255 222 174 139 114 99 92 120 161 175 181 182 187 190 186 189 194 190 193 192 193 193 194 190 192 193 195 196 193 194 196 194 196 193 191 196 191 193 195 188 196 191 196 193 195 194 197 194 193 196 195 191 195 193 193 193 190 190 190 188 187 183 182 175 171 167 169 186 208 232 250 255 255 255 255 255 255 255 255 255
255 255 255 255 255 255 255 255 255 255 255 255 255 243 192 154 125 105 97 105 149 169 176 180 180 186 191 193 192 193 194 193 196 192 194 197 194 194 193 195 193 193 194 196 194 192 197 194 195 192 191 191 192 192 196 190 192 193 195 193 193 194 194 198 194 192 193 190 188 189 187 185 183 182 180 175 170 162 174 186 208 232 250 255 255 255 255 255 255 255 255 255
255 255 255 255 255 255 255 255 255 255 255 255 255 254 215 167 131 113 97 92 126 161 175 180 182 186 188 188 189 192 194 193 194 195 191 191 193 196 196 193 195 193 191 195 194 193 192 193 198 193 194 193 195 192 192 196 195 193 193 193 194 193 194 192 190 191 190 192 188 191 189 190 189 183 182 177 173 166 173 186 210 231 251 255 255 255 255 255 255 255 255 255
255 255 255 255 255 255 255 255 255 255 255 255 255 255 239 190 153 118 105 97 108 152 171 181 184 184 187 187 189 191 192 191 192 193 192 193 193 192 191 196 199 195 195 192 193 194 192 193 194 192 197 191 196 194 195 194 196 193 193 192 194 195 193 191 188 189 193 191 188 186 186 188 187 186 178 176 172 165 173 185 209 231 252 255 255 255 255 255 255 255 255 255
255 255 255 255 255 255 255 255 255 255 255 255 255 255 252 212 165 131 109 95 96 121 167 173 179 185 185 189 190 191 189 192 193 193 194 193 194 192 191 194 195 195 195 197 193 193 196 191 194 192 195 195 194 191 195 193 195 195 192 194 192 194 192 194 194 191 193 191 192 186 189 185 186 186 181 174 170 165 171 188 211 233 251 255 255 255 255 255 255 255 255 255
255 255 255 255 255 255 255 255 255 255 255 255 255 255 255 236 188 149 123 105 90 100 142 165 177 181 181 184 185 191 189 193 192 189 194 195 197 193 192 194 197 194 194 196 193 194 193 196 195 194 193 195 197 194 196 194 196 194 194 198 192 195 196 194 194 194 195 192 187 189 186 188 183 186 182 182 171 166 177 190 211 234 252 255 255 255 255 255 255 255 255 255
255 255 255 255 255 255 255 255 255 255 255 255 255 255 255 253 216 168 133 110 102 95 108 151 171 178 182 186 187 188 187 188 192 188 192 197 196 196 193 190 194 194 191 192 195 193 194 197 195 194 195 192 193 194 195 193 195 195 196 194 195 193 194 192 195 190 189 191 192 191 189 188 188 184 181 174 168 167 175 195 218 237 254 255 255 255 255 255 255 255 255 255
255 255 255 255 255 255 255 255 255 255 255 255 255 255 255 255 240 192 151 126 104 95 98 123 164 170 180 179 185 189 189 192 191 191 192 192 193 192 194 198 194 195 196 192 192 190 192 196 195 192 194 196 191 197 194 196 197 193 195 194 193 193 192 191 191 193 191 191 192 190 188 187 184 182 183 174 171 166 177 193 217 239 254 255 255 255 255 255 255 255 255 255
255 255 255 255 255 255 255 255 255 255 255 255 255 255 255 255 254 222 175 143 117 102 87 97 139 166 179 181 183 183 186 188 191 192 193 192 189 191 193 195 194 192 193 194 195 194 194 192 194 194 195 194 191 193 196 194 194 196 195 195 194 193 194 193 191 196 191 189 190 190 187 189 188 183 181 175 167 166 183 200 222 243 255 255 255 255 255 255 255 255 255 255
255 255 255 255 255 255 255 255 255 255 255 255 255 255 255 255 255 248 206 161 134 113 102 91 107 146 169 181 178 182 185 186 187 190 190 191 194 193 191 190 189 192 194 195 193 194 197 195 193 196 192 191 196 193 197 193 198 193 195 198 194 193 195 193 196 193 191 191 190 192 184 186 183 183 176 172 167 172 182 205 227 245 255 255 255 255 255 255 255 255 255 255
255 255 255 255 255 255 255 255 255 255 255 255 255 255 255 255 255 255 237 188 157 124 108 90 97 112 147 171 177 182 184 183 190 189 190 189 189 195 191 194 193 195 195 192 192 194 194 193 195 193 192 192 193 194 194 197 193 194 195 191 192 193 193 194 194 192 193 191 189 190 189 183 186 180 179 172 165 172 188 208 231 251 255 255 255 255 255 255 255 255 255 255
255 255 255 255 255 255 255 255 255 255 255 255 255 255 255 255 255 255 254 224 178 143 115 104 94 98 118 152 172 174 178 185 186 189 190 192 191 193 190 191 194 193 193 194 196 195 194 195 194 195 195 196 196 196 196 197 197 193 194 196 197 194 192 194 196 192 191 193 189 189 189 185 183 180 175 169 165 179 194 214 236 252 255 255 255 255 255 255 255 255 255 255
255 255 255 255 255 255 255 255 255 255 255 255 255 255 255 255 255 255 255 249 211 169 144 113 102 94 99 118 154 170 177 180 182 187 189 184 186 190 193 191 190 190 191 194 193 194 192 194 196 197 193 191 195 193 195 192 196 193 193 195 197 194 192 194 193 192 192 193 187 189 189 185 183 176 174 166 168 177 202 221 240 254 255 255 255 255 255 255 255 255 255 255
255 255 255 255 255 255 255 255 255 255 255 255 255 255 255 255 255 255 255 255 245 204 168 139 115 98 93 100 124 156 169 177 184 185 183 184 189 184 187 189 195 193 191 192 196 191 191 193 192 191 194 193 189 195 196 194 195 195 193 193 194 192 196 194 190 193 197 190 190 189 183 186 179 179 170 167 170 186 204 227 245 255 255 255 255 255 255 255 255 255 255 255
255 255 255 255 255 255 255 255 255 255 255 255 255 255 255 255 255 255 255 255 255 239 196 158 133 120 100 92 91 120 155 171 175 184 184 188 186 187 192 188 189 190 192 192 193 192 191 196 190 196 192 194 193 195 191 196 193 195 195 192 192 192 194 188 189 192 191 191 185 182 184 184 179 178 166 168 175 189 214 231 250 255 255 255 255 255 255 255 255 255 255 255
255 255 255 255 255 255 255 255 255 255 255 255 255 255 255 255 255 255 255 255 255 255 232 190 158 138 113 107 95 99 121 145 170 175 179 184 183 183 186 188 191 187 193 192 193 193 190 192 194 193 193 195 192 192 195 197 194 190 193 193 195 191 192 193 194 191 191 188 190 182 184 178 176 172 160 166 183 198 219 240 254 255 255 255 255 255 255 255 255 255 255 255
255 255 255 255 255 255 255 255 255 255 255 255 255 255 255 255 255 255 255 255 255 255 254 230 189 154 129 115 106 97 97 110 143 167 176 176 183 179 182 184 184 186 189 190 188 191 193 191 192 192 193 192 194 190 193 193 192 192 194 193 193 193 191 194 195 188 188 189 184 183 179 179 174 168 162 174 191 208 229 247 255 255 255 255 255 255 255 255 255 255 255 255
255 255 255 255 255 255 255 255 255 255 255 255 255 255 255 255 255 255 255 255 255 255 255 254 231 193 161 140 122 103 97 100 101 128 159 170 175 177 180 185 188 187 184 188 190 193 189 193 193 192 191 191 192 192 194 191 189 191 191 192 191 190 193 188 189 187 189 184 183 182 177 171 168 163 166 179 197 217 238 252 255 255 255 255 255 255 255 255 255 255 255 255
255 255 255 255 255 255 255 255 255 255 255 255 255 255 255 255 255 255 255 255 255 255 255 255 254 232 192 162 141 121 107 95 96 102 117 147 167 171 175 175 181 183 186 188 188 189 189 187 192 190 189 190 192 192 191 189 188 190 188 190 189 189 187 189 190 185 185 186 183 179 174 171 162 161 168 185 206 227 245 255 255 255 255 255 255 255 255 255 255 255 255 255
255 255 255 255 255 255 255 255 255 255 255 255 255 255 255 255 255 255 255 255 255 255 255 255 255 255 237 199 167 146 127 117 104 92 100 108 132 157 167 175 177 178 182 184 184 183 185 189 189 188 186 189 188 189 188 187 193 189 187 187 188 186 185 185 187 182 183 177 179 178 169 165 161 168 180 198 217 238 252 255 255 255 255 255 255 255 255 255 255 255 255 255
255 255 255 255 255 255 255 255 255 255 255 255 255 255 255 255 255 255 255 255 255 255 255 255 255 255 255 241 205 176 151 132 114 112 96 97 100 115 136 161 172 173 177 179 183 178 182 186 185 188 185 186 185 190 183 190 191 184 189 186 186 183 183 183 182 178 177 179 172 171 158 155 160 174 191 210 229 247 255 255 255 255 255 255 255 255 255 255 255 255 255 255
255 255 255 255 255 255 255 255 255 255 255 255 255 255 255 255 255 255 255 255 255 255 255 255 255 255 255 255 247 217 187 159 138 124 103 104 99 99 104 111 135 156 164 168 176 180 181 181 181 182 187 186 186 186 185 183 185 188 184 185 185 184 187 178 177 175 172 167 165 156 153 158 166 188 201 224 242 253 255 255 255 255 255 255 255 255 255 255 255 255 255 255
255 255 255 255 255 255 255 255 255 255 255 255 255 255 255 255 255 255 255 255 255 255 255 255 255 255 255 255 255 251 229 199 170 149 135 116 111 109 101 99 105 116 133 152 162 169 171 176 179 182 181 180 180 182 181 182 180 181 183 177 182 178 180 176 169 169 166 162 154 151 157 164 181 200 217 238 251 255 255 255 255 255 255 255 255 255 255 255 255 255 255 255
255 255 255 255 255 255 255 255 255 255 255 255 255 255 255 255 255 255 255 255 255 255 255 255 255 255 255 255 255 255 255 242 214 183 162 141 128 119 108 105 98 98 111 106 128 138 149 164 168 170 175 169 177 175 178 178 179 180 176 179 169 174 170 169 167 160 153 142 141 150 161 178 198 212 231 248 255 255 255 255 255 255 255 255 255 255 255 255 255 255 255 255
255 255 255 255 255 255 255 255 255 255 255 255 255 255 255 255 255 255 255 255 255 255 255 255 255 255 255 255 255 255 255 255 252 230 204 180 157 143 129 127 109 112 98 106 102 105 107 116 130 143 148 158 164 164 163 165 168 169 165 163 158 160 157 146 137 130 133 138 146 160 176 190 211 230 246 254 255 255 255 255 255 255 255 255 255 255 255 255 255 255 255 255
255 255 255 255 255 255 255 255 255 255 255 255 255 255 255 255 255 255 255 255 255 255 255 255 255 255 255 255 255 255 255 255 255 255 247 226 198 177 158 147 138 121 122 112 109 105 99 101 107 106 112 112 120 128 129 134 130 133 133 129 128 123 122 119 125 129 135 147 162 178 194 211 230 245 254 255 255 255 255 255 255 255 255 255 255 255 255 255 255 255 255 255
255 255 255 255 255 255 255 255 255 255 255 255 255 255 255 255 255 255 255 255 255 255 255 255 255 255 255 255 255 255 255 255 255 255 255 255 245 222 204 179 161 149 138 136 122 118 111 115 107 111 113 105 110 109 104 109 110 112 112 110 114 118 115 124 135 140 148 164 182 195 213 230 246 255 255 255 255 255 255 255 255 255 255 255 255 255 255 255 255 255 255 255
255 255 255 255 255 255 255 255 255 255 255 255 255 255 255 255 255 255 255 255 255 255 255 255 255 255 255 255 255 255 255 255 255 255 255 255 255 254 245 227 208 191 174 160 156 140 137 131 124 123 113 115 110 113 112 113 116 112 111 119 120 122 133 140 148 163 172 185 206 222 235 250 255 255 255 255 255 255 255 255 255 255 255 255 255 255 255 255 255 255 255 255
255 255 255 255 255 255 255 255 255 255 255 255 255 255 255 255 255 255 255 255 255 255 255 255 255 255 255 255 255 255 255 255 255 255 255 255 255 255 255 255 250 237 217 203 188 175 165 158 149 148 142 136 137 131 131 132 132 132 135 135 142 147 153 166 174 183 198 211 229 244 253 255 255 255 255 255 255 255 255 255 255 255 255 255 255 255 255 255 255 255 255 255
255 255 255 255 255 255 255 255 255 255 255 255 255 255 255 255 255 255 255 255 255 255 255 255 255 255 255 255 255 255 255 255 255 255 255 255 255 255 255 255 255 255 254 248 237 224 212 200 186 182 174 172 164 163 155 157 157 159 158 162 170 176 188 193 201 215 229 242 252 255 255 255 255 255 255 255 255 255 255 255 255 255 255 255 255 255 255 255 255 255 255 255
255 255 255 255 255 255 255 255 255 255 255 255 255 255 255 255 255 255 255 255 255 255 255 255 255 255 255 255 255 255 255 255 255 255 255 255 255 255 255 255 255 255 255 255 255 255 252 246 238 227 217 213 205 199 197 196 196 198 199 199 206 211 219 228 241 249 254 255 255 255 255 255 255 255 255 255 255 255 255 255 255 255 255 255 255 255 255 255 255 255 255 255
255 255 255 255 255 255 255 255 255 255 255 255 255 255 255 255 255 255 255 255 255 255 255 255 255 255 255 255 255 255 255 255 255 255 255 255 255 255 255 255 255 255 255 255 255 255 255 255 255 255 255 252 251 248 246 243 243 243 244 246 250 252 255 255 255 255 255 255 255 255 255 255 255 255 255 255 255 255 255 255 255 255 255 255 255 255 255 255 255 255 255 255
255 255 255 255 255 255 255 255 255 255 255 255 255 255 255 255 255 255 255 255 255 255 255 255 255 255 255 255 255 255 255 255 255 255 255 255 255 255 255 255 255 255 255 255 255 255 255 255 255 255 255 255 255 255 255 255 255 255 255 255 255 255 255 255 255 255 255 255 255 255 255 255 255 255 255 255 255 255 255 255 255 255 255 255 255 255 255 255 255 255 255 255
255 255 255 255 255 255 255 255 255 255 255 255 255 255 255 255 255 255 255 255 255 255 255 255 255 255 255 255 255 255 255 255 255 255 255 255 255 255 255 255 255 255 255 255 255 255 255 255 255 255 255 255 255 255 255 255 255 255 255 255 255 255 255 255 255 255 255 255 255 255 255 255 255 255 255 255 255 255 255 255 255 255 255 255 255 255 255 255 255 255 255 255
255 255 255 255 255 255 255 255 255 255 255 255 255 255 255 255 255 255 255 255 255 255 255 255 255 255 255 255 255 255 255 255 255 255 255 255 255 255 255 255 255 255 255 255 255 255 255 255 255 255 255 255 255 255 255 255 255 255 255 255 255 255 255 255 255 255 255 255 255 255 255 255 255 255 255 255 255 255 255 255 255 255 255 255 255 255 255 255 255 255 255 255
255 255 255 255 255 255 255 255 255 255 255 255 255 255 255 255 255 255 255 255 255 255 255 255 255 255 255 255 255 255 255 255 255 255 255 255 255 255 255 255 255 255 255 255 255 255 255 255 255 255 255 255 255 255 255 255 255 255 255 255 255 255 255 255 255 255 255 255 255 255 255 255 255 255 255 255 255 255 255 255 255 255 255 255 255 255 255 255 255 255 255 255
255 255 255 255 255 255 255 255 255 255 255 255 255 255 255 255 255 255 255 255 255 255 255 255 255 255 255 255 255 255 255 255 255 255 255 255 255 255 255 255 255 255 255 255 255 255 255 255 255 255 255 255 255 255 255 255 255 255 255 255 255 255 255 255 255 255 255 255 255 255 255 255 255 255 255 255 255 255 255 255 255 255 255 255 255 255 255 255 255 255 255 255
255 255 255 255 255 255 255 255 255 255 255 255 255 255 255 255 255 255 255 255 255 255 255 255 255 255 255 255 255 255 255 255 255 255 255 255 255 255 255 255 255 255 255 255 255 255 255 255 255 255 255 255 255 255 255 255 255 255 255 255 255 255 255 255 255 255 255 255 255 255 255 255 255 255 255 255 255 255 255 255 255 255 255 255 255 255 255 255 255 255 255 255
