P2
96 96
255
255 255 255 255 255 255 255 255 255 255 255 255 255 255 255 255 255 255 255 255 255 255 255 255 255 255 255 255 255 255 255 255 255 255 255 255 255 255 255 255 255 255 255 255 255 255 255 255 255 255 255 255 255 255 255 255 255 255 255 255 255 255 255 255 255 255 255 255 255 255 255 255 255 255 255 255 255 255 255 255 255 255 255 255 255 255 255 255 255 255 255 255 255 255 255 255
255 255 255 255 255 255 255 255 255 255 255 255 255 255 255 255 255 255 255 255 255 255 255 255 255 255 255 255 255 255 255 255 255 255 255 255 255 255 255 255 255 255 255 255 255 255 255 255 255 255 255 255 255 255 255 255 255 255 255 255 255 255 255 255 255 255 255 255 255 255 255 255 255 255 255 255 255 255 255 255 255 255 255 255 255 255 255 255 255 255 255 255 255 255 255 255
255 255 255 255 255 255 255 255 255 255 255 255 255 255 255 255 255 255 255 255 255 255 255 255 255 255 255 255 255 255 255 255 255 255 255 255 255 255 255 255 255 255 255 255 255 255 255 255 255 255 255 255 255 255 255 255 255 255 255 255 255 255 255 255 255 255 255 255 255 255 255 255 255 255 255 255 255 255 255 255 255 255 255 255 255 255 255 255 255 255 255 255 255 255 255 255
255 255 255 255 255 255 255 255 255 255 255 255 255 255 255 255 255 255 255 255 255 255 255 255 255 255 255 255 255 255 255 255 255 255 255 255 255 255 255 255 255 255 255 255 255 255 255 255 255 255 255 255 255 255 255 255 255 255 255 255 255 255 255 255 255 255 255 255 255 255 255 255 255 255 255 255 255 255 255 255 255 255 255 255 255 255 255 255 255 255 255 255 255 255 255 255
255 255 255 255 255 255 255 255 255 255 255 255 255 255 255 255 255 255 255 255 255 255 255 255 255 255 255 255 255 255 255 255 255 255 255 255 255 255 255 255 255 255 255 255 255 255 255 255 255 255 255 255 255 255 255 255 255 255 255 255 255 255 255 255 255 255 255 255 255 255 255 255 255 255 255 255 255 255 255 255 255 255 255 255 255 255 255 255 255 255 255 255 255 255 255 255
255 255 255 255 255 255 255 255 255 255 255 255 255 255 255 255 255 255 255 255 255 255 255 255 255 255 255 255 255 255 255 255 255 255 255 255 255 255 255 255 255 255 255 255 255 255 255 255 255 255 255 255 255 255 255 255 255 255 255 255 255 255 255 255 255 255 255 255 255 255 255 255 255 255 255 255 255 255 255 255 255 255 255 255 255 255 255 255 255 255 255 255 255 255 255 255
255 255 255 255 255 255 255 255 255 255 255 255 255 255 255 255 255 255 255 255 255 255 255 255 255 255 255 255 255 255 255 255 255 255 255 255 255 255 255 255 255 255 255 255 255 255 255 255 255 255 255 255 255 255 255 255 255 255 255 255 255 255 255 255 255 255 255 255 255 255 255 255 255 255 255 255 255 255 255 255 255 255 255 255 255 255 255 255 255 255 255 255 255 255 255 255
255 255 255 255 255 255 255 255 255 255 255 255 255 255 255 255 255 255 255 255 255 255 255 255 255 255 255 255 255 255 255 255 255 255 255 255 255 255 255 255 255 255 255 255 255 255 255 255 255 255 255 255 255 255 255 255 255 255 255 255 255 255 255 255 255 255 255 255 255 255 255 255 255 255 255 255 255 255 255 255 255 255 255 255 255 255 255 255 255 255 255 255 255 255 255 255
255 255 255 255 255 255 255 255 255 255 255 255 255 255 255 255 255 255 255 255 255 255 255 255 255 255 255 255 255 255 255 255 255 255 255 255 255 255 255 255 255 255 255 255 255 255 255 255 255 255 255 255 255 255 255 255 255 255 255 255 255 255 255 255 255 255 255 255 255 255 255 255 255 255 255 255 255 255 255 255 255 255 255 255 255 255 255 255 255 255 255 255 255 255 255 255
255 255 255 255 255 255 255 255 255 255 255 255 255 255 255 255 255 255 255 255 255 255 255 255 255 255 255 255 255 255 255 255 255 255 255 255 255 255 255 255 255 255 255 255 255 255 255 255 255 255 255 255 255 255 255 255 255 255 255 255 255 255 255 255 255 255 255 255 255 255 255 255 255 255 255 255 255 255 255 255 255 255 255 255 255 255 255 255 255 255 255 255 255 255 255 255
255 255 255 255 255 255 255 255 255 255 255 255 255 255 255 255 255 255 255 255 255 255 255 255 255 255 255 255 255 255 255 255 255 255 255 255 255 255 255 255 255 255 255 255 255 255 255 255 255 255 255 255 255 255 255 255 255 255 255 255 255 255 255 255 255 255 255 255 255 255 255 255 255 255 255 255 255 255 255 255 255 255 255 255 255 255 255 255 255 255 255 255 255 255 255 255
255 255 255 255 255 255 255 255 255 255 255 255 255 255 255 255 255 255 255 255 255 255 255 255 255 255 255 255 255 255 255 255 255 255 255 255 255 255 255 255 255 255 255 255 255 255 255 255 255 255 255 255 255 255 255 255 255 255 255 255 255 255 255 255 255 255 255 255 255 255 255 255 255 255 255 255 255 255 255 255 255 255 255 255 255 255 255 255 255 255 255 255 255 255 255 255
255 255 255 255 255 255 255 255 255 255 255 255 255 255 255 255 255 255 255 255 255 255 255 255 255 255 255 255 255 255 255 255 255 255 255 255 255 255 255 255 255 255 255 255 255 255 255 255 255 255 255 255 255 255 255 255 255 255 255 255 255 255 255 255 255 255 255 255 255 255 255 255 255 255 255 255 255 255 255 255 255 255 255 255 255 255 255 255 255 255 255 255 255 255 255 255
255 255 255 255 255 255 255 255 255 255 255 255 255 255 255 255 255 255 255 255 255 255 255 255 255 255 255 255 255 255 255 255 254 253 253 253 254 254 255 255 255 255 255 255 255 255 255 255 255 255 255 255 255 255 255 255 255 255 255 255 255 255 255 255 255 255 255 255 255 255 255 255 255 255 255 255 255 255 255 255 255 255 255 255 255 255 255 255 255 255 255 255 255 255 255 255
255 255 255 255 255 255 255 255 255 255 255 255 255 255 255 255 255 255 255 255 255 255 255 255 255 255 255 254 251 245 242 237 236 232 230 232 236 236 239 244 245 250 253 255 255 255 255 255 255 255 255 255 255 255 255 255 255 255 255 255 255 255 255 255 255 255 255 255 255 255 255 255 255 255 255 255 255 255 255 255 255 255 255 255 255 255 255 255 255 255 255 255 255 255 255 255
255 255 255 255 255 255 255 255 255 255 255 255 255 255 255 255 255 255 255 255 255 255 255 255 255 254 245 235 224 217 212 211 199 198 201 204 205 211 213 215 214 224 231 237 246 251 254 255 255 255 255 255 255 255 255 255 255 255 255 255 255 255 255 255 255 255 255 255 255 255 255 255 255 255 255 255 255 255 255 255 255 255 255 255 255 255 255 255 255 255 255 255 255 255 255 255
255 255 255 255 255 255 255 255 255 255 255 255 255 255 255 255 255 255 255 255 255 255 255 255 251 232 218 203 188 183 177 176 172 177 176 174 174 183 183 186 193 197 206 211 218 225 236 245 252 254 255 255 255 255 255 255 255 255 255 255 255 255 255 255 255 255 255 255 255 255 255 255 255 255 255 255 255 255 255 255 255 255 255 255 255 255 255 255 255 255 255 255 255 255 255 255
255 255 255 255 255 255 255 255 255 255 255 255 255 255 255 255 255 255 255 255 255 255 255 249 221 198 178 166 158 151 151 153 144 151 147 151 155 156 156 158 168 169 173 184 192 197 208 216 225 239 247 253 255 255 255 255 255 255 255 255 255 255 255 255 255 255 255 255 255 255 255 255 255 255 255 255 255 255 255 255 255 255 255 255 255 255 255 255 255 255 255 255 255 255 255 255
255 255 255 255 255 255 255 255 255 255 255 255 255 255 255 255 255 255 255 255 255 255 252 220 187 162 149 145 131 130 128 131 130 139 146 144 142 144 149 146 146 151 152 157 167 175 178 189 196 207 219 233 246 254 255 255 255 255 255 255 255 255 255 255 255 255 255 255 255 255 255 255 255 255 255 255 255 255 255 255 255 255 255 255 255 255 255 255 255 255 255 255 255 255 255 255
255 255 255 255 255 255 255 255 255 255 255 255 255 255 255 255 255 255 255 255 255 255 231 188 160 136 115 116 109 121 130 139 151 145 151 160 147 155 154 152 146 143 138 138 151 150 153 165 172 181 196 205 218 233 247 255 255 255 255 255 255 255 255 255 255 255 255 255 255 255 255 255 255 255 255 255 255 255 255 255 255 255 255 255 255 255 255 255 255 255 255 255 255 255 255 255
255 255 255 255 255 255 255 255 255 255 255 255 255 255 255 255 255 255 255 255 255 247 198 158 126 109 99 97 113 132 150 158 161 162 163 164 166 163 165 161 160 160 150 149 146 138 145 144 156 156 164 175 182 204 216 234 249 255 255 255 255 255 255 255 255 255 255 255 255 255 255 255 255 255 255 255 255 255 255 255 255 255 255 255 255 255 255 255 255 255 255 255 255 255 255 255
255 255 255 255 255 255 255 255 255 255 255 255 255 255 255 255 255 255 255 255 255 227 173 141 114 96 83 97 134 158 162 170 169 167 174 176 169 172 170 171 170 174 166 164 156 154 149 139 140 144 143 159 162 181 191 208 224 241 254 255 255 255 255 255 255 255 255 255 255 255 255 255 255 255 255 255 255 255 255 255 255 255 255 255 255 255 255 255 255 255 255 255 255 255 255 255
255 255 255 255 255 255 255 255 255 255 255 255 255 255 255 255 255 255 255 255 250 201 160 129 96 78 92 122 154 167 170 171 174 176 175 181 178 179 180 178 177 180 178 165 172 165 159 159 146 146 136 143 143 152 169 181 194 213 230 249 255 255 255 255 255 255 255 255 255 255 255 255 255 255 255 255 255 255 255 255 255 255 255 255 255 255 255 255 255 255 255 255 255 255 255 255
255 255 255 255 255 255 255 255 255 255 255 255 255 255 255 255 255 255 255 255 234 184 144 115 90 91 106 156 160 170 178 176 178 177 183 183 184 182 183 184 180 180 171 176 173 170 170 172 162 156 148 140 131 140 144 155 174 183 202 222 243 254 255 255 255 255 255 255 255 255 255 255 255 255 255 255 255 255 255 255 255 255 255 255 255 255 255 255 255 255 255 255 255 255 255 255
255 255 255 255 255 255 255 255 255 255 255 255 255 255 255 255 255 255 255 254 214 170 137 111 88 97 138 164 172 176 177 180 183 186 187 185 185 189 188 182 183 186 183 180 177 177 177 175 173 166 163 158 144 132 133 142 142 166 179 196 216 238 252 255 255 255 255 255 255 255 255 255 255 255 255 255 255 255 255 255 255 255 255 255 255 255 255 255 255 255 255 255 255 255 255 255
255 255 255 255 255 255 255 255 255 255 255 255 255 255 255 255 255 255 255 248 205 160 130 102 102 107 153 166 180 177 181 180 191 187 186 188 193 190 183 183 187 185 187 187 188 183 179 174 174 171 173 166 157 155 143 129 139 142 154 171 183 210 232 248 255 255 255 255 255 255 255 255 255 255 255 255 255 255 255 255 255 255 255 255 255 255 255 255 255 255 255 255 255 255 255 255
255 255 255 255 255 255 255 255 255 255 255 255 255 255 255 255 255 255 255 239 187 153 127 119 103 128 161 168 180 187 188 185 190 189 185 188 187 187 188 193 188 189 184 182 187 182 186 182 181 180 180 176 165 164 151 144 137 141 134 150 160 179 199 227 249 255 255 255 255 255 255 255 255 255 255 255 255 255 255 255 255 255 255 255 255 255 255 255 255 255 255 255 255 255 255 255
255 255 255 255 255 255 255 255 255 255 255 255 255 255 255 255 255 255 255 227 179 146 122 108 112 144 172 171 181 183 186 187 186 190 189 193 191 194 192 188 192 185 189 190 185 185 183 185 181 183 174 175 172 162 168 160 147 137 126 130 147 158 176 203 226 248 255 255 255 255 255 255 255 255 255 255 255 255 255 255 255 255 255 255 255 255 255 255 255 255 255 255 255 255 255 255
255 255 255 255 255 255 255 255 255 255 255 255 255 255 255 255 255 255 254 216 170 140 120 107 118 157 172 178 185 180 188 191 195 193 194 195 196 189 192 196 187 191 190 190 188 190 186 183 190 190 176 176 180 174 170 165 161 146 143 127 131 143 159 176 197 225 248 255 255 255 255 255 255 255 255 255 255 255 255 255 255 255 255 255 255 255 255 255 255 255 255 255 255 255 255 255
255 255 255 255 255 255 255 255 255 255 255 255 255 255 255 255 255 255 249 206 167 135 119 111 131 171 174 176 182 189 187 187 193 189 191 192 191 199 192 191 194 189 193 192 188 189 193 184 184 184 185 188 188 178 176 171 171 158 158 144 128 123 145 154 175 196 227 248 255 255 255 255 255 255 255 255 255 255 255 255 255 255 255 255 255 255 255 255 255 255 255 255 255 255 255 255
255 255 255 255 255 255 255 255 255 255 255 255 255 255 255 255 255 255 245 202 163 131 108 105 139 171 176 186 187 186 193 197 198 192 195 192 192 195 192 197 191 193 193 193 195 195 194 187 188 189 185 184 184 186 185 178 169 169 164 150 143 125 129 140 156 175 203 229 251 255 255 255 255 255 255 255 255 255 255 255 255 255 255 255 255 255 255 255 255 255 255 255 255 255 255 255
255 255 255 255 255 255 255 255 255 255 255 255 255 255 255 255 255 255 241 192 155 133 115 113 150 173 177 186 188 192 187 196 192 197 189 196 193 198 195 198 194 195 195 194 197 191 194 191 192 188 186 186 189 185 181 177 179 173 174 163 161 142 130 126 134 158 180 204 232 253 255 255 255 255 255 255 255 255 255 255 255 255 255 255 255 255 255 255 255 255 255 255 255 255 255 255
255 255 255 255 255 255 255 255 255 255 255 255 255 255 255 255 255 255 237 188 151 120 112 121 152 173 183 184 187 195 193 193 196 196 195 197 196 197 191 194 200 200 194 191 195 191 192 193 190 187 195 187 191 186 184 181 183 175 174 168 159 156 147 129 126 139 155 185 210 238 254 255 255 255 255 255 255 255 255 255 255 255 255 255 255 255 255 255 255 255 255 255 255 255 255 255
255 255 255 255 255 255 255 255 255 255 255 255 255 255 255 255 255 255 228 187 156 129 120 118 160 174 177 187 187 190 190 193 199 190 199 196 194 195 195 196 194 194 198 198 198 197 195 189 194 191 195 191 186 189 192 184 179 180 182 173 174 168 157 137 127 132 142 167 190 213 246 255 255 255 255 255 255 255 255 255 255 255 255 255 255 255 255 255 255 255 255 255 255 255 255 255
255 255 255 255 255 255 255 255 255 255 255 255 255 255 255 255 255 255 225 179 150 132 113 124 165 179 183 189 191 189 192 191 192 198 198 195 199 197 200 198 197 197 196 194 195 193 199 193 198 196 190 190 188 183 189 184 182 187 179 179 173 163 166 151 139 131 130 147 163 196 225 251 255 255 255 255 255 255 255 255 255 255 255 255 255 255 255 255 255 255 255 255 255 255 255 255
255 255 255 255 255 255 255 255 255 255 255 255 255 255 255 255 255 255 225 180 152 128 121 138 166 173 189 190 192 193 191 197 197 195 195 202 196 197 197 196 199 196 194 195 196 195 192 193 194 189 191 191 193 191 187 191 187 186 183 182 174 175 167 161 158 133 130 138 156 172 203 233 253 255 255 255 255 255 255 255 255 255 255 255 255 255 255 255 255 255 255 255 255 255 255 255
255 255 255 255 255 255 255 255 255 255 255 255 255 255 255 255 255 255 222 181 148 130 126 133 166 181 180 182 196 191 195 192 197 201 195 200 198 198 199 196 197 197 198 202 198 197 196 196 195 194 193 197 189 194 187 191 192 183 181 186 181 178 174 167 154 150 133 120 144 158 184 215 244 255 255 255 255 255 255 255 255 255 255 255 255 255 255 255 255 255 255 255 255 255 255 255
255 255 255 255 255 255 255 255 255 255 255 255 255 255 255 255 255 255 222 177 151 131 127 140 169 182 191 186 189 193 199 196 198 197 199 202 202 199 197 196 200 197 198 198 197 200 196 199 193 195 194 196 192 191 193 190 187 189 185 186 182 177 175 171 160 160 140 127 130 146 167 193 225 252 255 255 255 255 255 255 255 255 255 255 255 255 255 255 255 255 255 255 255 255 255 255
255 255 255 255 255 255 255 255 255 255 255 255 255 255 255 255 255 255 223 185 155 127 130 136 174 181 189 190 193 195 195 197 197 199 198 198 198 196 200 204 198 205 194 203 195 197 196 196 196 197 194 196 190 191 192 191 188 188 185 190 181 179 180 175 170 164 157 145 131 138 147 179 212 239 255 255 255 255 255 255 255 255 255 255 255 255 255 255 255 255 255 255 255 255 255 255
255 255 255 255 255 255 255 255 255 255 255 255 255 255 255 255 255 255 224 184 152 131 132 135 173 187 188 190 192 188 193 198 198 200 201 194 199 204 198 199 197 199 195 200 201 198 197 202 197 191 192 195 197 190 194 187 194 186 190 187 186 186 183 179 169 166 161 149 126 127 147 158 189 223 250 255 255 255 255 255 255 255 255 255 255 255 255 255 255 255 255 255 255 255 255 255
255 255 255 255 255 255 255 255 255 255 255 255 255 255 255 255 255 255 226 187 157 143 120 140 168 180 186 189 192 196 196 198 194 200 197 200 198 197 201 201 199 197 200 201 196 197 194 193 197 194 192 200 194 195 193 189 191 189 186 186 191 186 186 178 176 171 168 158 142 122 140 145 172 205 238 255 255 255 255 255 255 255 255 255 255 255 255 255 255 255 255 255 255 255 255 255
255 255 255 255 255 255 255 255 255 255 255 255 255 255 255 255 255 255 234 193 161 144 129 131 162 180 185 191 191 188 195 197 193 195 202 195 197 199 198 202 200 201 202 200 196 200 197 196 194 195 196 195 192 195 191 190 196 189 190 193 187 187 182 185 181 175 169 164 150 132 127 135 170 190 228 251 255 255 255 255 255 255 255 255 255 255 255 255 255 255 255 255 255 255 255 255
255 255 255 255 255 255 255 255 255 255 255 255 255 255 255 255 255 255 233 194 164 142 128 135 168 178 187 191 189 192 196 203 198 202 198 201 199 200 201 198 201 196 198 199 199 198 197 198 195 198 195 196 201 191 195 194 193 188 189 191 190 182 189 183 181 177 169 163 157 145 129 137 152 175 206 241 255 255 255 255 255 255 255 255 255 255 255 255 255 255 255 255 255 255 255 255
255 255 255 255 255 255 255 255 255 255 255 255 255 255 255 255 255 255 239 200 168 151 130 132 166 177 187 188 191 195 196 195 198 197 194 202 200 196 198 197 202 197 200 198 196 200 198 205 196 198 198 198 200 196 193 192 191 193 192 189 190 187 184 183 179 184 171 173 164 151 134 125 140 163 195 231 253 255 255 255 255 255 255 255 255 255 255 255 255 255 255 255 255 255 255 255
255 255 255 255 255 255 255 255 255 255 255 255 255 255 255 255 255 255 243 202 177 155 138 134 155 177 181 185 194 195 193 196 200 196 202 201 199 197 200 199 200 199 201 198 200 201 200 196 198 196 202 196 192 195 199 193 192 193 192 189 186 188 188 186 181 179 176 169 166 163 142 131 144 160 180 212 245 255 255 255 255 255 255 255 255 255 255 255 255 255 255 255 255 255 255 255
255 255 255 255 255 255 255 255 255 255 255 255 255 255 255 255 255 255 248 212 174 151 136 134 155 178 188 190 194 198 197 197 196 200 196 201 197 199 200 202 200 201 204 196 205 202 196 198 199 197 196 197 202 196 194 193 198 192 191 193 194 195 185 190 182 180 177 176 173 163 148 134 135 147 171 205 235 255 255 255 255 255 255 255 255 255 255 255 255 255 255 255 255 255 255 255
255 255 255 255 255 255 255 255 255 255 255 255 255 255 255 255 255 255 252 214 187 163 143 133 144 173 184 189 191 195 197 197 195 203 197 200 198 199 204 202 200 199 200 206 200 202 200 199 202 197 198 197 196 201 202 196 192 191 192 193 188 191 191 186 184 182 186 182 170 171 157 140 125 134 165 188 225 252 255 255 255 255 255 255 255 255 255 255 255 255 255 255 255 255 255 255
255 255 255 255 255 255 255 255 255 255 255 255 255 255 255 255 255 255 255 227 190 160 148 136 141 168 185 184 186 193 193 193 199 199 196 199 202 200 197 198 200 200 198 199 198 196 203 199 199 197 197 198 199 198 196 196 192 196 191 200 188 194 191 191 186 188 189 184 177 168 160 155 135 135 161 181 216 246 255 255 255 255 255 255 255 255 255 255 255 255 255 255 255 255 255 255
255 255 255 255 255 255 255 255 255 255 255 255 255 255 255 255 255 255 255 234 203 168 147 139 138 163 180 183 186 190 196 195 198 202 199 200 201 197 198 197 202 200 200 199 201 198 199 196 199 202 199 200 202 193 195 198 201 196 191 198 192 189 199 185 188 183 186 178 174 171 167 158 136 125 151 178 206 238 255 255 255 255 255 255 255 255 255 255 255 255 255 255 255 255 255 255
255 255 255 255 255 255 255 255 255 255 255 255 255 255 255 255 255 255 255 243 208 178 152 137 139 154 179 181 188 193 194 196 200 193 191 201 202 199 204 203 202 204 202 204 200 201 201 196 203 198 198 197 194 199 198 200 198 202 196 194 195 187 192 191 190 186 183 182 177 181 171 158 142 135 145 165 197 228 253 255 255 255 255 255 255 255 255 255 255 255 255 255 255 255 255 255
255 255 255 255 255 255 255 255 255 255 255 255 255 255 255 255 255 255 255 250 213 187 165 144 133 149 174 177 185 194 190 191 195 196 197 196 196 199 198 197 198 203 204 203 198 199 201 202 199 198 197 205 192 198 200 200 197 194 199 193 199 195 195 187 191 188 189 185 183 177 169 163 151 135 142 167 189 216 250 255 255 255 255 255 255 255 255 255 255 255 255 255 255 255 255 255
255 255 255 255 255 255 255 255 255 255 255 255 255 255 255 255 255 255 255 255 229 195 165 145 137 147 162 181 182 186 195 189 193 199 200 198 201 198 199 200 201 198 202 197 204 199 203 202 198 201 202 200 204 198 200 201 195 192 195 195 198 192 193 193 192 190 185 182 179 175 171 161 158 140 132 153 183 213 246 255 255 255 255 255 255 255 255 255 255 255 255 255 255 255 255 255
255 255 255 255 255 255 255 255 255 255 255 255 255 255 255 255 255 255 255 255 241 203 173 153 144 141 162 177 182 187 188 198 199 196 200 199 200 197 194 205 203 201 203 202 205 200 201 198 201 197 205 196 199 201 197 201 197 199 193 197 195 195 192 193 190 189 188 186 183 184 179 166 161 140 138 145 173 203 238 255 255 255 255 255 255 255 255 255 255 255 255 255 255 255 255 255
255 255 255 255 255 255 255 255 255 255 255 255 255 255 255 255 255 255 255 255 249 216 185 158 148 133 154 171 182 186 188 193 194 198 191 199 196 200 199 200 200 198 201 199 201 198 203 201 199 198 201 197 203 201 198 196 195 196 195 196 194 196 193 192 191 189 191 183 179 181 178 171 160 143 140 151 178 200 233 254 255 255 255 255 255 255 255 255 255 255 255 255 255 255 255 255
255 255 255 255 255 255 255 255 255 255 255 255 255 255 255 255 255 255 255 255 255 231 194 172 157 142 138 164 179 185 187 191 192 195 198 198 198 199 196 200 195 200 200 199 198 205 204 202 199 198 200 203 202 198 200 201 194 198 200 199 191 194 189 189 194 189 188 191 188 181 185 174 164 155 137 145 164 195 226 253 255 255 255 255 255 255 255 255 255 255 255 255 255 255 255 255
255 255 255 255 255 255 255 255 255 255 255 255 255 255 255 255 255 255 255 255 255 243 215 184 160 138 137 149 173 180 186 191 193 194 199 196 192 199 202 199 197 197 201 201 198 200 198 196 202 196 200 201 203 198 194 196 199 196 197 196 195 191 193 193 191 196 189 185 183 178 180 173 164 160 135 141 162 194 221 251 255 255 255 255 255 255 255 255 255 255 255 255 255 255 255 255
255 255 255 255 255 255 255 255 255 255 255 255 255 255 255 255 255 255 255 255 255 253 221 186 173 153 140 147 158 179 185 188 188 193 197 196 201 198 198 198 196 199 203 202 200 200 203 203 202 201 204 195 199 196 198 199 198 194 196 197 197 195 191 193 187 192 191 184 189 182 181 175 167 156 145 144 162 185 217 248 255 255 255 255 255 255 255 255 255 255 255 255 255 255 255 255
255 255 255 255 255 255 255 255 255 255 255 255 255 255 255 255 255 255 255 255 255 255 240 205 181 160 150 138 148 167 179 183 191 195 194 197 197 201 193 197 199 203 199 199 203 205 201 203 203 198 197 200 201 200 198 195 198 197 199 194 199 193 197 196 192 190 189 187 184 188 181 176 179 160 144 142 157 186 214 246 255 255 255 255 255 255 255 255 255 255 255 255 255 255 255 255
255 255 255 255 255 255 255 255 255 255 255 255 255 255 255 255 255 255 255 255 255 255 253 219 194 173 150 142 142 161 175 186 188 190 190 191 196 195 197 199 195 198 202 201 198 197 202 200 196 202 198 198 198 196 196 200 200 195 202 198 193 194 195 196 191 193 188 189 182 182 177 177 163 162 141 141 157 187 211 244 255 255 255 255 255 255 255 255 255 255 255 255 255 255 255 255
255 255 255 255 255 255 255 255 255 255 255 255 255 255 255 255 255 255 255 255 255 255 255 240 206 182 161 156 134 147 166 180 182 190 193 193 193 197 198 198 197 198 195 201 200 197 200 199 197 202 196 197 201 199 199 198 196 198 202 195 198 195 196 189 191 190 193 190 187 186 182 178 171 170 143 142 159 183 211 243 255 255 255 255 255 255 255 255 255 255 255 255 255 255 255 255
255 255 255 255 255 255 255 255 255 255 255 255 255 255 255 255 255 255 255 255 255 255 255 251 228 198 174 161 142 140 158 176 186 187 191 191 195 195 192 198 197 203 199 199 202 200 200 203 205 201 200 198 200 202 197 197 194 199 202 197 194 192 197 189 200 193 192 189 189 182 184 182 168 167 149 139 153 184 213 239 255 255 255 255 255 255 255 255 255 255 255 255 255 255 255 255
255 255 255 255 255 255 255 255 255 255 255 255 255 255 255 255 255 255 255 255 255 255 255 255 243 215 188 168 153 145 139 165 177 182 186 187 186 195 189 196 197 199 196 199 196 197 200 200 199 197 200 203 199 201 198 196 197 196 200 195 195 197 194 194 193 194 193 195 184 181 179 185 173 163 152 146 161 181 213 243 255 255 255 255 255 255 255 255 255 255 255 255 255 255 255 255
255 255 255 255 255 255 255 255 255 255 255 255 255 255 255 255 255 255 255 255 255 255 255 255 255 233 204 181 163 144 147 147 166 182 183 185 191 192 192 197 197 196 198 198 199 199 196 199 201 199 199 197 203 200 200 199 198 199 196 194 195 195 192 192 192 193 192 188 185 184 184 179 171 162 145 147 157 178 209 243 255 255 255 255 255 255 255 255 255 255 255 255 255 255 255 255
255 255 255 255 255 255 255 255 255 255 255 255 255 255 255 255 255 255 255 255 255 255 255 255 255 251 225 194 180 159 143 139 152 166 180 183 188 188 192 198 197 194 195 199 200 200 198 195 199 198 200 197 200 199 198 200 198 197 199 201 193 196 194 187 193 196 190 188 185 185 182 179 176 160 153 148 157 185 211 242 255 255 255 255 255 255 255 255 255 255 255 255 255 255 255 255
255 255 255 255 255 255 255 255 255 255 255 255 255 255 255 255 255 255 255 255 255 255 255 255 255 255 242 214 191 176 158 146 135 154 164 176 184 185 190 196 194 196 197 193 196 195 198 196 198 201 198 195 201 200 198 201 197 198 196 197 196 193 201 196 194 192 188 187 188 183 178 181 167 166 153 144 163 180 212 242 255 255 255 255 255 255 255 255 255 255 255 255 255 255 255 255
255 255 255 255 255 255 255 255 255 255 255 255 255 255 255 255 255 255 255 255 255 255 255 255 255 255 255 238 205 182 163 149 145 144 160 169 185 187 184 187 190 190 193 196 193 192 194 200 196 199 195 196 198 197 199 200 198 198 199 199 198 193 195 194 192 190 188 194 182 190 184 176 172 159 149 145 164 184 216 244 255 255 255 255 255 255 255 255 255 255 255 255 255 255 255 255
255 255 255 255 255 255 255 255 255 255 255 255 255 255 255 255 255 255 255 255 255 255 255 255 255 255 255 254 229 202 178 166 154 144 141 152 168 183 184 188 192 188 191 192 196 193 197 194 192 198 195 201 200 197 196 197 194 198 197 197 192 196 197 191 193 194 188 194 184 187 178 172 171 164 143 151 167 190 221 246 255 255 255 255 255 255 255 255 255 255 255 255 255 255 255 255
255 255 255 255 255 255 255 255 255 255 255 255 255 255 255 255 255 255 255 255 255 255 255 255 255 255 255 255 251 228 198 183 163 151 141 138 156 168 181 181 190 188 185 192 196 196 195 197 196 192 189 192 191 198 198 195 199 195 199 194 200 195 193 194 190 185 193 185 185 184 177 172 169 161 146 147 167 197 224 250 255 255 255 255 255 255 255 255 255 255 255 255 255 255 255 255
255 255 255 255 255 255 255 255 255 255 255 255 255 255 255 255 255 255 255 255 255 255 255 255 255 255 255 255 255 249 220 203 182 164 157 132 139 149 166 171 183 182 183 190 192 194 186 195 196 195 196 195 200 196 197 192 194 198 193 193 193 195 192 189 187 187 186 183 186 185 177 173 165 154 143 155 174 192 229 251 255 255 255 255 255 255 255 255 255 255 255 255 255 255 255 255
255 255 255 255 255 255 255 255 255 255 255 255 255 255 255 255 255 255 255 255 255 255 255 255 255 255 255 255 255 255 246 221 200 177 161 147 139 144 140 163 172 174 182 178 182 191 192 190 191 192 191 196 194 195 194 195 191 192 192 195 193 193 197 189 188 185 181 186 178 174 177 168 165 156 139 154 175 198 232 253 255 255 255 255 255 255 255 255 255 255 255 255 255 255 255 255
255 255 255 255 255 255 255 255 255 255 255 255 255 255 255 255 255 255 255 255 255 255 255 255 255 255 255 255 255 255 255 247 221 197 180 169 154 145 135 137 154 168 176 178 182 184 187 186 188 189 194 189 194 193 194 196 196 194 194 193 194 195 189 191 185 193 184 187 179 174 177 168 162 146 145 161 187 208 237 254 255 255 255 255 255 255 255 255 255 255 255 255 255 255 255 255
255 255 255 255 255 255 255 255 255 255 255 255 255 255 255 255 255 255 255 255 255 255 255 255 255 255 255 255 255 255 255 255 248 223 204 186 165 151 140 135 140 141 153 177 173 181 185 183 189 190 195 189 191 189 195 190 191 195 194 194 196 186 188 189 188 183 190 180 185 173 166 167 157 148 147 168 188 220 244 255 255 255 255 255 255 255 255 255 255 255 255 255 255 255 255 255
255 255 255 255 255 255 255 255 255 255 255 255 255 255 255 255 255 255 255 255 255 255 255 255 255 255 255 255 255 255 255 255 255 250 227 205 188 169 155 148 138 135 138 144 164 168 174 178 183 186 183 189 188 190 185 191 192 190 190 186 188 182 185 190 186 179 182 181 173 172 168 155 148 138 154 168 197 223 250 255 255 255 255 255 255 255 255 255 255 255 255 255 255 255 255 255
255 255 255 255 255 255 255 255 255 255 255 255 255 255 255 255 255 255 255 255 255 255 255 255 255 255 255 255 255 255 255 255 255 255 253 235 211 194 176 168 151 145 135 126 137 151 159 172 179 176 184 183 177 186 185 185 192 187 185 185 188 181 182 186 179 181 178 175 177 167 161 154 136 134 150 177 205 233 254 255 255 255 255 255 255 255 255 255 255 255 255 255 255 255 255 255
255 255 255 255 255 255 255 255 255 255 255 255 255 255 255 255 255 255 255 255 255 255 255 255 255 255 255 255 255 255 255 255 255 255 255 255 244 219 202 185 170 157 143 142 126 133 132 142 154 166 175 178 176 183 178 182 178 184 182 185 184 177 184 179 177 174 173 167 166 164 154 138 127 141 160 187 216 244 255 255 255 255 255 255 255 255 255 255 255 255 255 255 255 255 255 255
255 255 255 255 255 255 255 255 255 255 255 255 255 255 255 255 255 255 255 255 255 255 255 255 255 255 255 255 255 255 255 255 255 255 255 255 255 250 230 208 189 176 167 154 146 132 134 135 131 128 151 160 169 164 177 180 177 179 175 184 178 178 175 169 171 167 168 165 157 155 138 119 128 148 174 197 228 250 255 255 255 255 255 255 255 255 255 255 255 255 255 255 255 255 255 255
255 255 255 255 255 255 255 255 255 255 255 255 255 255 255 255 255 255 255 255 255 255 255 255 255 255 255 255 255 255 255 255 255 255 255 255 255 255 255 240 222 203 186 171 164 147 144 128 131 123 124 121 130 135 144 157 159 163 162 171 168 170 169 169 162 161 153 151 134 109 103 121 130 157 185 209 241 255 255 255 255 255 255 255 255 255 255 255 255 255 255 255 255 255 255 255
255 255 255 255 255 255 255 255 255 255 255 255 255 255 255 255 255 255 255 255 255 255 255 255 255 255 255 255 255 255 255 255 255 255 255 255 255 255 255 255 252 235 216 201 187 170 157 148 148 138 129 132 122 118 120 124 125 124 125 133 127 135 134 128 125 113 109 95 91 91 99 119 139 172 195 228 251 255 255 255 255 255 255 255 255 255 255 255 255 255 255 255 255 255 255 255
255 255 255 255 255 255 255 255 255 255 255 255 255 255 255 255 255 255 255 255 255 255 255 255 255 255 255 255 255 255 255 255 255 255 255 255 255 255 255 255 255 255 251 236 216 200 190 177 161 153 146 136 133 134 124 126 116 110 111 106 100 115 104 102 97 98 83 82 89 90 115 130 155 186 220 245 255 255 255 255 255 255 255 255 255 255 255 255 255 255 255 255 255 255 255 255
255 255 255 255 255 255 255 255 255 255 255 255 255 255 255 255 255 255 255 255 255 255 255 255 255 255 255 255 255 255 255 255 255 255 255 255 255 255 255 255 255 255 255 255 251 238 221 210 196 180 172 161 153 146 141 135 126 122 124 116 108 109 113 108 106 95 102 98 106 114 143 161 182 212 243 255 255 255 255 255 255 255 255 255 255 255 255 255 255 255 255 255 255 255 255 255
255 255 255 255 255 255 255 255 255 255 255 255 255 255 255 255 255 255 255 255 255 255 255 255 255 255 255 255 255 255 255 255 255 255 255 255 255 255 255 255 255 255 255 255 255 255 253 244 233 217 199 189 187 175 162 155 147 139 144 134 136 127 126 123 125 118 113 119 132 146 162 187 214 240 254 255 255 255 255 255 255 255 255 255 255 255 255 255 255 255 255 255 255 255 255 255
255 255 255 255 255 255 255 255 255 255 255 255 255 255 255 255 255 255 255 255 255 255 255 255 255 255 255 255 255 255 255 255 255 255 255 255 255 255 255 255 255 255 255 255 255 255 255 255 255 252 246 231 218 208 196 192 184 174 175 167 163 160 158 158 155 154 156 155 170 188 199 217 247 255 255 255 255 255 255 255 255 255 255 255 255 255 255 255 255 255 255 255 255 255 255 255
255 255 255 255 255 255 255 255 255 255 255 255 255 255 255 255 255 255 255 255 255 255 255 255 255 255 255 255 255 255 255 255 255 255 255 255 255 255 255 255 255 255 255 255 255 255 255 255 255 255 255 255 254 251 245 236 223 221 209 208 200 198 192 194 197 195 200 209 218 234 246 255 255 255 255 255 255 255 255 255 255 255 255 255 255 255 255 255 255 255 255 255 255 255 255 255
255 255 255 255 255 255 255 255 255 255 255 255 255 255 255 255 255 255 255 255 255 255 255 255 255 255 255 255 255 255 255 255 255 255 255 255 255 255 255 255 255 255 255 255 255 255 255 255 255 255 255 255 255 255 255 255 255 255 254 250 248 247 245 244 246 249 251 254 255 255 255 255 255 255 255 255 255 255 255 255 255 255 255 255 255 255 255 255 255 255 255 255 255 255 255 255
255 255 255 255 255 255 255 255 255 255 255 255 255 255 255 255 255 255 255 255 255 255 255 255 255 255 255 255 255 255 255 255 255 255 255 255 255 255 255 255 255 255 255 255 255 255 255 255 255 255 255 255 255 255 255 255 255 255 255 255 255 255 255 255 255 255 255 255 255 255 255 255 255 255 255 255 255 255 255 255 255 255 255 255 255 255 255 255 255 255 255 255 255 255 255 255
255 255 255 255 255 255 255 255 255 255 255 255 255 255 255 255 255 255 255 255 255 255 255 255 255 255 255 255 255 255 255 255 255 255 255 255 255 255 255 255 255 255 255 255 255 255 255 255 255 255 255 255 255 255 255 255 255 255 255 255 255 255 255 255 255 255 255 255 255 255 255 255 255 255 255 255 255 255 255 255 255 255 255 255 255 255 255 255 255 255 255 255 255 255 255 255
255 255 255 255 255 255 255 255 255 255 255 255 255 255 255 255 255 255 255 255 255 255 255 255 255 255 255 255 255 255 255 255 255 255 255 255 255 255 255 255 255 255 255 255 255 255 255 255 255 255 255 255 255 255 255 255 255 255 255 255 255 255 255 255 255 255 255 255 255 255 255 255 255 255 255 255 255 255 255 255 255 255 255 255 255 255 255 255 255 255 255 255 255 255 255 255
255 255 255 255 255 255 255 255 255 255 255 255 255 255 255 255 255 255 255 255 255 255 255 255 255 255 255 255 255 255 255 255 255 255 255 255 255 255 255 255 255 255 255 255 255 255 255 255 255 255 255 255 255 255 255 255 255 255 255 255 255 255 255 255 255 255 255 255 255 255 255 255 255 255 255 255 255 255 255 255 255 255 255 255 255 255 255 255 255 255 255 255 255 255 255 255
255 255 255 255 255 255 255 255 255 255 255 255 255 255 255 255 255 255 255 255 255 255 255 255 255 255 255 255 255 255 255 255 255 255 255 255 255 255 255 255 255 255 255 255 255 255 255 255 255 255 255 255 255 255 255 255 255 255 255 255 255 255 255 255 255 255 255 255 255 255 255 255 255 255 255 255 255 255 255 255 255 255 255 255 255 255 255 255 255 255 255 255 255 255 255 255
255 255 255 255 255 255 255 255 255 255 255 255 255 255 255 255 255 255 255 255 255 255 255 255 255 255 255 255 255 255 255 255 255 255 255 255 255 255 255 255 255 255 255 255 255 255 255 255 255 255 255 255 255 255 255 255 255 255 255 255 255 255 255 255 255 255 255 255 255 255 255 255 255 255 255 255 255 255 255 255 255 255 255 255 255 255 255 255 255 255 255 255 255 255 255 255
255 255 255 255 255 255 255 255 255 255 255 255 255 255 255 255 255 255 255 255 255 255 255 255 255 255 255 255 255 255 255 255 255 255 255 255 255 255 255 255 255 255 255 255 255 255 255 255 255 255 255 255 255 255 255 255 255 255 255 255 255 255 255 255 255 255 255 255 255 255 255 255 255 255 255 255 255 255 255 255 255 255 255 255 255 255 255 255 255 255 255 255 255 255 255 255
255 255 255 255 255 255 255 255 255 255 255 255 255 255 255 255 255 255 255 255 255 255 255 255 255 255 255 255 255 255 255 255 255 255 255 255 255 255 255 255 255 255 255 255 255 255 255 255 255 255 255 255 255 255 255 255 255 255 255 255 255 255 255 255 255 255 255 255 255 255 255 255 255 255 255 255 255 255 255 255 255 255 255 255 255 255 255 255 255 255 255 255 255 255 255 255
255 255 255 255 255 255 255 255 255 255 255 255 255 255 255 255 255 255 255 255 255 255 255 255 255 255 255 255 255 255 255 255 255 255 255 255 255 255 255 255 255 255 255 255 255 255 255 255 255 255 255 255 255 255 255 255 255 255 255 255 255 255 255 255 255 255 255 255 255 255 255 255 255 255 255 255 255 255 255 255 255 255 255 255 255 255 255 255 255 255 255 255 255 255 255 255
255 255 255 255 255 255 255 255 255 255 255 255 255 255 255 255 255 255 255 255 255 255 255 255 255 255 255 255 255 255 255 255 255 255 255 255 255 255 255 255 255 255 255 255 255 255 255 255 255 255 255 255 255 255 255 255 255 255 255 255 255 255 255 255 255 255 255 255 255 255 255 255 255 255 255 255 255 255 255 255 255 255 255 255 255 255 255 255 255 255 255 255 255 255 255 255
255 255 255 255 255 255 255 255 255 255 255 255 255 255 255 255 255 255 255 255 255 255 255 255 255 255 255 255 255 255 255 255 255 255 255 255 255 255 255 255 255 255 255 255 255 255 255 255 255 255 255 255 255 255 255 255 255 255 255 255 255 255 255 255 255 255 255 255 255 255 255 255 255 255 255 255 255 255 255 255 255 255 255 255 255 255 255 255 255 255 255 255 255 255 255 255
255 255 255 255 255 255 255 255 255 255 255 255 255 255 255 255 255 255 255 255 255 255 255 255 255 255 255 255 255 255 255 255 255 255 255 255 255 255 255 255 255 255 255 255 255 255 255 255 255 255 255 255 255 255 255 255 255 255 255 255 255 255 255 255 255 255 255 255 255 255 255 255 255 255 255 255 255 255 255 255 255 255 255 255 255 255 255 255 255 255 255 255 255 255 255 255
