P2
92 92
255
255 255 255 255 255 255 255 255 255 255 255 255 255 255 255 255 255 255 255 255 255 255 255 255 255 255 255 255 255 255 255 255 255 255 255 255 255 255 255 255 255 255 255 255 255 255 255 255 255 255 255 255 255 255 255 255 255 255 255 255 255 255 255 255 255 255 255 255 255 255 255 255 255 255 255 255 255 255 255 255 255 255 255 255 255 255 255 255 255 255 255 255
255 255 255 255 255 255 255 255 255 255 255 255 255 255 255 255 255 255 255 255 255 255 255 255 255 255 255 255 255 255 255 255 255 255 255 255 255 255 255 255 254 254 254 253 252 254 253 254 254 255 255 255 255 255 255 255 255 255 255 255 255 255 255 255 255 255 255 255 255 255 255 255 255 255 255 255 255 255 255 255 255 255 255 255 255 255 255 255 255 255 255 255
255 255 255 255 255 255 255 255 255 255 255 255 255 255 255 255 255 255 255 255 255 255 255 255 255 255 255 255 255 255 255 255 255 255 255 254 251 249 247 245 243 241 239 240 240 241 241 241 243 243 246 248 251 252 255 255 255 255 255 255 255 255 255 255 255 255 255 255 255 255 255 255 255 255 255 255 255 255 255 255 255 255 255 255 255 255 255 255 255 255 255 255
255 255 255 255 255 255 255 255 255 255 255 255 255 255 255 255 255 255 255 255 255 255 255 255 255 255 255 255 255 255 255 254 252 249 244 241 236 231 231 228 226 222 223 222 220 222 223 222 226 226 231 233 235 239 243 246 249 253 254 255 255 255 255 255 255 255 255 255 255 255 255 255 255 255 255 255 255 255 255 255 255 255 255 255 255 255 255 255 255 255 255 255
255 255 255 255 255 255 255 255 255 255 255 255 255 255 255 255 255 255 255 255 255 255 255 255 255 255 255 255 255 253 248 242 240 232 227 221 217 214 209 210 209 206 201 206 203 204 204 202 209 208 211 216 219 222 226 230 234 240 245 248 253 255 255 255 255 255 255 255 255 255 255 255 255 255 255 255 255 255 255 255 255 255 255 255 255 255 255 255 255 255 255 255
255 255 255 255 255 255 255 255 255 255 255 255 255 255 255 255 255 255 255 255 255 255 255 255 255 255 255 251 245 238 231 224 218 215 210 205 199 196 194 189 190 187 187 187 188 184 189 186 188 191 194 197 203 202 209 212 217 221 227 236 240 246 252 255 255 255 255 255 255 255 255 255 255 255 255 255 255 255 255 255 255 255 255 255 255 255 255 255 255 255 255 255
255 255 255 255 255 255 255 255 255 255 255 255 255 255 255 255 255 255 255 255 255 255 255 255 255 252 245 236 231 219 213 208 198 196 192 188 185 180 179 178 179 179 175 177 180 179 182 183 180 185 183 182 188 187 189 196 200 205 212 216 224 231 238 244 251 254 255 255 255 255 255 255 255 255 255 255 255 255 255 255 255 255 255 255 255 255 255 255 255 255 255 255
255 255 255 255 255 255 255 255 255 255 255 255 255 255 255 255 255 255 255 255 255 255 255 254 246 239 226 217 209 201 192 190 185 180 183 174 175 174 176 179 177 179 178 179 183 183 180 178 178 181 177 178 177 179 180 186 182 187 198 201 207 216 220 227 237 246 251 255 255 255 255 255 255 255 255 255 255 255 255 255 255 255 255 255 255 255 255 255 255 255 255 255
255 255 255 255 255 255 255 255 255 255 255 255 255 255 255 255 255 255 255 255 255 255 250 241 229 219 211 201 193 186 179 179 177 171 171 175 175 180 181 184 182 182 186 187 186 183 185 184 182 185 184 185 184 177 176 179 175 180 186 187 191 198 205 212 221 229 239 246 253 255 255 255 255 255 255 255 255 255 255 255 255 255 255 255 255 255 255 255 255 255 255 255
255 255 255 255 255 255 255 255 255 255 255 255 255 255 255 255 255 255 255 255 254 246 235 224 212 202 194 184 177 171 170 168 176 177 182 183 184 188 184 191 186 188 187 189 188 190 188 187 187 188 186 187 187 183 180 183 183 182 179 180 181 185 190 196 202 209 222 233 240 250 254 255 255 255 255 255 255 255 255 255 255 255 255 255 255 255 255 255 255 255 255 255
255 255 255 255 255 255 255 255 255 255 255 255 255 255 255 255 255 255 255 254 243 231 217 205 194 184 176 173 172 170 174 176 179 180 183 185 187 189 190 189 191 189 189 189 191 190 193 190 190 189 186 188 189 189 191 184 186 183 185 182 178 180 179 187 191 203 206 215 224 236 246 253 255 255 255 255 255 255 255 255 255 255 255 255 255 255 255 255 255 255 255 255
255 255 255 255 255 255 255 255 255 255 255 255 255 255 255 255 255 255 252 240 222 211 199 190 181 171 169 163 174 177 178 183 187 189 190 191 190 191 195 197 189 192 191 193 192 190 192 196 190 197 190 190 189 188 189 190 189 187 188 185 180 179 183 178 183 183 190 204 211 221 233 242 251 255 255 255 255 255 255 255 255 255 255 255 255 255 255 255 255 255 255 255
255 255 255 255 255 255 255 255 255 255 255 255 255 255 255 255 255 252 238 221 210 196 183 177 171 162 167 175 180 182 184 189 187 190 188 190 194 193 192 192 192 193 193 193 192 197 193 191 196 192 192 192 193 192 188 188 189 191 189 193 184 183 184 183 178 182 183 188 196 206 215 229 239 249 255 255 255 255 255 255 255 255 255 255 255 255 255 255 255 255 255 255
255 255 255 255 255 255 255 255 255 255 255 255 255 255 255 255 253 238 223 208 196 180 171 163 164 170 173 180 183 186 185 190 194 188 191 192 193 194 194 192 193 195 196 192 195 195 197 195 195 191 193 196 193 188 196 192 188 192 190 194 187 182 188 187 181 183 178 180 186 193 207 215 225 236 247 254 255 255 255 255 255 255 255 255 255 255 255 255 255 255 255 255
255 255 255 255 255 255 255 255 255 255 255 255 255 255 255 254 241 221 206 193 178 168 163 164 169 178 180 185 189 191 191 189 191 193 193 194 194 193 192 194 196 193 194 197 197 195 197 195 194 194 193 196 199 195 193 192 197 193 190 189 194 189 191 183 185 184 183 179 180 181 189 200 212 220 235 247 254 255 255 255 255 255 255 255 255 255 255 255 255 255 255 255
255 255 255 255 255 255 255 255 255 255 255 255 255 255 255 243 226 208 192 179 166 159 162 170 178 183 183 187 189 189 192 197 192 194 194 197 197 196 194 197 192 197 194 191 195 198 194 195 195 197 196 194 194 195 193 194 191 194 192 192 193 191 191 187 189 188 187 185 179 178 180 187 194 211 220 233 247 254 255 255 255 255 255 255 255 255 255 255 255 255 255 255
255 255 255 255 255 255 255 255 255 255 255 255 255 255 246 232 209 193 176 168 157 158 168 177 181 186 188 190 188 192 195 193 196 193 192 194 196 194 197 197 197 199 196 196 199 197 192 196 195 198 194 197 197 192 196 194 194 194 193 194 192 192 191 193 191 189 187 186 181 186 177 179 185 194 209 223 235 245 254 255 255 255 255 255 255 255 255 255 255 255 255 255
255 255 255 255 255 255 255 255 255 255 255 255 255 251 233 214 196 181 168 158 157 168 176 181 186 186 186 192 194 191 193 194 191 196 197 193 195 198 199 196 198 197 196 197 197 195 200 196 197 197 196 196 193 196 195 198 197 196 194 197 196 194 195 195 191 190 189 187 189 185 180 180 178 185 196 208 222 235 247 255 255 255 255 255 255 255 255 255 255 255 255 255
255 255 255 255 255 255 255 255 255 255 255 255 254 241 220 199 182 168 160 159 165 175 178 191 188 186 189 190 194 195 194 198 198 194 196 198 197 197 195 198 199 197 195 198 197 194 196 199 198 198 196 195 194 198 195 195 196 195 196 199 196 194 196 193 192 192 188 190 187 188 183 182 182 179 188 198 209 220 235 248 255 255 255 255 255 255 255 255 255 255 255 255
255 255 255 255 255 255 255 255 255 255 255 255 247 226 208 185 170 161 155 162 176 179 186 187 190 193 193 196 192 197 194 197 194 197 195 197 196 198 196 193 196 198 200 198 198 199 198 193 195 193 197 194 196 194 194 196 198 199 194 192 196 192 191 196 194 196 190 192 191 186 187 185 183 180 182 188 195 210 222 238 251 255 255 255 255 255 255 255 255 255 255 255
255 255 255 255 255 255 255 255 255 255 255 253 235 214 193 177 165 152 158 168 177 185 185 189 190 191 194 195 195 193 197 196 196 196 196 196 198 198 195 198 196 197 200 196 195 199 197 194 199 198 197 195 200 196 196 197 197 196 196 195 194 196 197 195 193 193 193 191 192 190 189 187 186 185 179 184 190 200 214 228 240 251 255 255 255 255 255 255 255 255 255 255
255 255 255 255 255 255 255 255 255 255 255 244 225 201 181 166 157 155 167 173 182 185 188 191 189 192 192 196 199 194 194 197 198 195 194 196 195 196 198 194 198 197 195 197 197 194 197 196 193 194 196 198 197 195 197 199 195 195 197 193 196 198 192 194 198 192 191 195 197 192 191 187 184 183 179 183 179 188 202 217 230 244 254 255 255 255 255 255 255 255 255 255
255 255 255 255 255 255 255 255 255 255 252 231 211 192 171 159 152 160 172 183 186 187 190 192 192 194 194 191 194 194 193 200 195 198 197 197 196 197 196 199 197 199 198 198 200 195 197 194 198 198 199 195 197 195 196 194 198 194 195 196 195 197 194 195 197 195 195 194 194 188 188 187 190 188 186 183 179 179 191 204 219 235 247 255 255 255 255 255 255 255 255 255
255 255 255 255 255 255 255 255 255 255 246 221 200 178 160 153 153 170 178 179 186 189 192 190 196 191 197 197 194 200 196 195 196 195 197 197 199 199 198 196 197 198 198 194 194 193 196 196 194 196 194 195 196 197 197 197 197 194 197 194 196 196 194 194 195 196 193 190 195 192 193 191 189 186 188 181 179 176 184 194 209 222 239 252 255 255 255 255 255 255 255 255
255 255 255 255 255 255 255 255 255 253 235 211 188 170 155 148 157 174 179 185 188 189 192 192 195 196 195 194 194 197 195 197 198 197 194 194 196 197 199 197 196 194 194 196 197 198 199 195 195 194 194 193 198 198 194 194 198 198 193 196 196 197 196 198 195 195 196 193 193 195 192 192 192 192 186 184 183 178 180 186 198 213 228 244 254 255 255 255 255 255 255 255
255 255 255 255 255 255 255 255 255 248 224 197 180 163 150 151 166 181 183 188 189 192 194 193 190 195 194 199 196 196 198 198 198 198 195 196 198 194 199 200 198 198 196 197 197 195 197 196 194 195 194 196 197 195 193 197 196 193 194 197 195 191 196 194 194 194 194 192 194 193 191 189 193 192 193 190 186 183 176 182 188 204 221 234 249 255 255 255 255 255 255 255
255 255 255 255 255 255 255 255 255 239 212 189 166 151 149 155 172 176 186 188 187 191 196 195 198 195 195 197 193 199 194 198 199 199 197 197 198 198 196 196 195 198 195 197 197 195 197 195 195 196 194 193 194 197 195 193 196 194 194 196 195 193 195 192 197 198 197 196 193 196 191 194 193 189 190 192 185 181 181 177 185 192 209 226 240 253 255 255 255 255 255 255
255 255 255 255 255 255 255 255 253 228 204 183 161 150 145 163 179 183 184 188 188 195 191 196 195 195 199 198 197 196 197 196 198 195 196 199 198 196 195 194 197 197 196 195 197 194 194 196 194 196 194 196 192 196 196 194 193 195 195 197 195 195 195 196 193 197 194 197 194 195 193 192 190 193 190 190 188 185 183 181 182 188 202 216 233 249 255 255 255 255 255 255
255 255 255 255 255 255 255 255 247 217 195 169 160 144 151 170 178 184 186 190 190 194 194 198 194 198 194 195 193 197 198 196 197 193 195 195 197 195 198 193 198 191 194 195 191 193 190 194 196 195 189 194 192 197 195 194 198 193 195 199 191 200 195 198 197 193 193 193 193 193 190 194 189 189 193 193 187 185 187 184 178 181 192 208 225 241 253 255 255 255 255 255
255 255 255 255 255 255 255 255 239 212 188 164 151 149 154 171 182 183 188 189 192 191 196 196 195 199 197 197 199 197 198 196 198 195 194 198 200 198 195 195 196 195 194 196 194 195 198 193 195 193 195 196 192 197 194 193 195 194 195 195 194 197 196 192 196 194 195 197 198 196 194 193 193 194 191 191 189 189 189 182 179 178 185 200 215 233 248 255 255 255 255 255
255 255 255 255 255 255 255 254 232 203 175 163 145 144 162 173 183 184 191 192 193 195 195 195 193 195 197 195 197 197 198 196 197 197 194 194 196 196 195 197 194 197 196 195 196 193 197 196 196 192 191 193 193 193 190 192 195 194 196 197 193 194 198 195 196 194 195 195 198 197 196 193 193 194 193 191 190 189 188 189 181 177 183 194 207 226 241 253 255 255 255 255
255 255 255 255 255 255 255 251 225 193 173 159 145 144 169 176 184 189 187 192 193 191 193 195 196 196 199 199 199 192 197 196 197 196 197 196 193 190 194 192 195 193 196 194 194 191 191 193 193 192 194 194 190 194 190 193 195 196 198 192 195 194 196 193 193 195 197 194 197 194 193 198 194 190 194 192 194 190 188 184 182 180 179 186 202 218 236 249 255 255 255 255
255 255 255 255 255 255 255 246 214 190 166 146 139 149 169 182 182 187 191 188 194 195 192 192 197 196 195 196 198 193 198 196 194 192 197 197 193 194 196 196 196 197 197 194 193 192 193 191 190 192 191 196 194 190 194 194 195 194 193 196 192 191 194 194 196 195 193 196 194 193 193 194 197 194 196 194 191 192 188 189 185 182 179 181 196 210 228 244 255 255 255 255
255 255 255 255 255 255 255 242 208 183 160 149 141 149 169 180 186 189 189 190 192 190 198 197 194 197 194 196 195 195 197 196 195 195 194 197 192 197 192 191 196 191 192 196 195 192 197 193 191 193 193 189 192 195 195 190 190 192 193 196 194 194 195 194 193 196 196 196 195 194 197 197 195 196 194 195 192 194 193 186 187 183 181 178 188 204 222 239 252 255 255 255
255 255 255 255 255 255 255 236 203 179 160 147 139 150 172 183 186 188 191 196 194 195 194 198 196 197 197 198 199 196 194 196 195 198 195 194 195 195 189 196 196 193 191 192 195 196 192 194 195 191 192 192 193 193 195 193 194 193 197 193 196 195 194 190 192 199 196 193 197 196 194 194 197 192 196 194 194 193 193 188 190 186 182 177 185 200 214 235 249 255 255 255
255 255 255 255 255 255 255 232 201 178 158 139 139 159 179 182 188 188 190 190 191 195 199 197 195 192 196 196 195 199 197 192 193 194 197 195 196 199 194 195 195 196 196 193 195 193 191 190 193 191 194 194 192 193 193 191 193 194 197 192 193 195 193 196 196 196 195 197 192 197 195 196 195 193 193 197 194 194 190 194 185 184 187 177 177 195 209 229 244 254 255 255
255 255 255 255 255 255 254 229 196 169 151 137 138 163 178 183 189 189 189 191 197 194 194 195 197 197 193 194 194 198 197 198 197 195 195 197 192 193 193 195 196 192 191 189 194 195 193 194 193 192 194 191 194 190 192 192 196 196 195 194 197 193 193 192 192 195 197 193 198 195 196 192 195 196 193 194 194 196 189 191 185 187 186 179 179 188 205 223 240 253 255 255
255 255 255 255 255 255 253 224 194 166 148 134 139 170 177 187 186 189 188 190 196 194 193 197 193 197 194 196 196 197 194 193 193 197 194 191 195 195 197 193 193 194 192 193 190 192 194 190 190 191 192 191 193 193 194 190 194 193 192 193 191 193 194 193 194 194 193 193 196 196 193 195 196 194 193 197 194 193 192 195 192 188 189 181 178 188 199 216 235 250 255 255
255 255 255 255 255 255 252 220 190 165 138 138 140 172 178 183 188 189 192 191 192 195 199 196 199 194 195 195 197 192 197 195 193 194 197 194 194 198 194 192 196 188 191 191 193 192 191 192 192 194 192 194 193 190 191 189 192 190 193 190 195 194 194 193 195 194 194 196 193 195 194 195 196 196 192 196 196 196 194 195 188 185 190 182 177 181 197 211 231 248 255 255
255 255 255 255 255 255 252 217 187 162 137 131 138 166 178 182 188 187 192 191 191 193 194 196 196 197 193 193 195 194 197 194 196 193 197 194 198 192 191 194 194 192 190 193 190 189 194 190 194 191 194 195 191 193 192 193 193 188 188 194 191 195 191 192 195 194 194 198 196 197 195 194 197 194 195 195 196 191 192 192 188 188 188 187 179 181 192 209 228 243 255 255
255 255 255 255 255 255 251 218 184 160 136 126 136 168 178 182 187 188 190 194 196 192 196 197 194 195 198 195 196 195 194 194 195 193 195 194 192 193 194 194 193 193 190 194 192 190 190 192 191 189 192 190 193 191 193 190 195 192 191 196 197 197 190 196 193 193 195 196 196 195 193 196 199 196 194 196 191 196 195 192 187 190 187 185 181 177 191 207 222 240 253 255
255 255 255 255 255 255 252 218 182 164 140 131 134 171 175 184 189 192 192 196 192 193 195 196 196 195 193 196 196 199 198 195 194 192 195 193 196 194 194 189 194 194 194 191 192 189 192 192 192 194 191 192 191 190 193 192 193 192 187 192 193 194 196 192 192 196 193 195 196 194 194 195 198 197 192 191 196 194 193 196 190 192 189 185 184 182 183 201 221 237 252 255
255 255 255 255 255 255 252 220 185 161 138 126 135 166 176 188 188 183 193 194 191 191 197 193 195 200 194 194 194 195 195 197 191 197 198 192 192 195 195 189 192 189 191 195 190 190 190 194 193 190 191 190 192 186 191 197 192 191 192 192 197 192 192 194 193 192 193 191 195 196 195 196 195 196 196 197 195 194 189 192 192 189 187 189 183 178 186 197 217 235 250 255
255 255 255 255 255 255 253 220 183 157 142 130 135 165 175 184 187 189 190 189 193 194 196 194 197 194 195 195 196 196 197 196 194 193 192 194 194 194 191 192 192 192 191 190 194 194 189 191 191 193 189 190 197 193 194 195 187 190 193 190 193 191 193 194 190 193 193 194 194 193 198 194 197 194 195 197 198 193 195 197 195 191 186 188 184 177 185 198 215 231 247 255
255 255 255 255 255 255 253 219 189 159 133 127 128 163 176 185 183 191 191 191 190 193 196 195 196 196 195 192 200 194 197 192 197 191 195 193 192 191 192 193 193 192 188 190 190 192 189 189 191 189 190 189 188 190 192 193 193 192 192 193 195 194 196 195 190 192 191 196 197 194 199 195 195 193 194 194 195 196 192 194 193 195 187 186 187 182 183 194 211 231 247 255
255 255 255 255 255 255 255 223 189 158 139 128 126 159 175 179 187 184 193 192 193 195 193 190 195 195 196 198 191 195 196 197 194 195 193 194 195 194 190 192 193 190 189 194 192 190 191 189 189 190 189 190 190 193 191 193 194 192 190 193 194 193 193 196 193 196 193 195 197 193 196 198 196 197 195 195 196 194 193 193 191 193 187 188 184 179 181 192 208 227 245 255
255 255 255 255 255 255 255 227 192 163 142 126 124 154 176 179 185 184 194 193 191 194 195 193 196 195 198 198 198 194 193 194 196 194 191 191 193 191 193 192 192 194 192 190 190 189 190 188 191 192 191 192 192 190 192 191 190 193 193 192 193 190 198 196 193 195 197 194 193 195 194 194 193 194 195 195 194 195 194 194 195 193 190 189 185 179 179 194 210 224 245 254
255 255 255 255 255 255 255 235 198 161 146 127 122 143 174 183 183 188 187 190 195 190 195 197 196 196 196 193 193 196 196 195 195 195 196 195 194 195 193 188 190 193 192 192 189 194 194 194 191 189 195 191 192 191 190 193 191 192 192 192 190 193 195 196 195 191 192 193 198 194 194 197 196 196 193 195 197 199 196 196 195 193 191 190 185 178 181 188 205 226 244 254
255 255 255 255 255 255 255 240 203 167 141 129 124 140 170 180 183 186 188 190 192 191 191 194 198 195 196 194 197 192 193 198 196 195 192 195 193 192 195 194 194 191 192 189 191 196 193 191 188 193 191 192 191 192 191 190 193 190 195 194 194 197 194 193 197 194 194 198 197 195 196 195 195 194 195 196 192 194 196 195 198 193 191 188 184 180 178 193 207 227 244 255
255 255 255 255 255 255 255 245 206 172 145 130 123 134 166 177 182 186 191 188 192 194 193 195 193 199 196 193 196 192 192 193 197 196 193 196 196 191 189 193 195 194 192 189 191 191 190 192 193 190 193 191 188 195 193 196 193 195 189 188 193 196 193 194 194 195 197 197 194 197 195 196 198 195 196 197 194 197 194 192 190 194 193 188 185 178 180 190 208 224 243 254
255 255 255 255 255 255 255 252 213 179 152 131 119 125 161 174 184 187 187 186 189 194 195 196 193 196 196 196 195 195 189 193 191 195 195 192 194 191 190 194 195 194 193 191 193 190 193 193 193 190 193 189 189 196 192 192 191 191 194 188 193 194 194 194 194 196 199 197 195 194 193 196 197 195 197 197 195 197 192 193 194 194 188 190 186 182 177 189 204 227 243 254
255 255 255 255 255 255 255 255 223 187 154 134 123 126 148 174 180 188 188 190 190 190 193 191 193 196 193 194 196 195 192 195 195 195 193 196 192 192 194 192 191 194 195 193 192 192 193 195 191 194 192 195 191 190 192 193 192 195 191 192 194 195 194 194 195 194 194 196 195 196 199 197 196 195 194 193 197 191 194 195 192 191 188 189 186 178 183 192 207 226 245 255
255 255 255 255 255 255 255 255 234 193 158 138 124 117 135 168 178 181 188 190 192 187 191 194 193 193 197 196 196 193 194 198 195 195 195 191 193 194 193 189 194 194 191 191 192 193 195 195 191 191 191 189 187 192 193 192 194 194 195 194 193 197 197 195 194 194 200 194 194 195 194 198 196 197 197 196 193 196 196 192 194 194 190 188 185 181 180 194 211 228 245 255
255 255 255 255 255 255 255 255 245 204 169 144 122 115 127 160 173 184 184 190 191 193 193 193 193 192 197 193 196 196 194 196 195 196 195 195 196 193 195 192 194 194 190 189 193 195 193 193 193 194 191 195 192 192 191 192 194 194 192 192 192 197 193 198 194 197 198 197 195 193 197 197 198 198 196 197 195 197 195 192 188 194 192 187 184 181 182 196 213 229 247 255
255 255 255 255 255 255 255 255 252 212 178 149 128 120 115 149 174 181 185 186 188 190 192 192 195 194 189 191 195 195 196 194 197 196 193 197 192 191 192 193 194 194 192 193 194 191 191 193 193 192 196 191 194 196 195 191 192 196 196 193 193 192 196 195 195 195 198 196 197 196 195 195 199 197 196 193 195 192 193 195 191 188 189 186 183 176 183 196 216 231 249 255
255 255 255 255 255 255 255 255 255 228 183 161 137 123 118 138 169 174 183 184 186 190 192 193 192 195 194 194 194 196 198 196 191 194 194 195 196 192 192 196 198 193 191 191 196 192 192 194 194 194 193 195 193 194 193 193 195 193 196 195 194 192 197 196 197 193 198 196 197 196 198 195 198 197 194 199 195 195 193 192 192 189 190 186 184 177 184 199 217 237 250 255
255 255 255 255 255 255 255 255 255 241 199 168 143 125 118 123 157 173 182 184 188 189 189 194 189 197 197 195 194 197 190 197 197 193 199 195 195 193 196 195 194 192 192 193 192 194 191 191 193 195 198 192 194 192 195 196 197 195 193 196 195 193 197 195 197 194 197 194 196 193 196 200 199 193 192 195 196 195 193 195 190 191 192 181 181 177 189 204 219 237 253 255
255 255 255 255 255 255 255 255 255 253 215 180 150 132 117 120 146 174 179 185 186 187 187 192 192 192 189 193 196 195 192 195 193 195 194 192 191 197 195 192 194 197 192 193 194 192 191 194 194 193 193 195 191 191 190 191 196 195 195 195 195 192 195 196 197 197 196 197 197 198 197 195 197 198 199 196 196 195 195 193 195 191 187 185 180 177 188 204 222 240 253 255
255 255 255 255 255 255 255 255 255 255 233 193 167 145 128 112 126 162 174 183 186 185 186 194 194 196 193 194 194 194 194 193 193 193 192 194 198 194 193 195 194 195 190 192 194 194 190 193 194 194 192 192 191 195 192 193 196 192 198 196 195 194 197 195 193 196 196 201 197 197 198 199 197 193 197 194 198 195 193 189 191 192 187 183 177 184 194 208 226 244 254 255
255 255 255 255 255 255 255 255 255 255 247 208 174 147 129 119 119 141 174 178 182 184 186 188 190 194 193 194 193 193 193 195 195 197 193 197 196 193 194 192 194 196 193 191 195 193 197 195 191 193 196 192 192 193 194 194 197 198 195 198 197 197 194 193 195 194 197 198 197 198 194 199 198 194 194 195 194 195 195 191 191 187 189 181 176 183 196 215 230 248 255 255
255 255 255 255 255 255 255 255 255 255 255 226 190 159 136 127 113 125 164 171 182 186 190 190 191 187 191 190 193 197 194 194 193 196 195 194 195 194 193 196 193 196 195 193 191 198 197 194 196 198 190 195 196 192 195 196 195 194 195 196 196 193 197 199 197 195 193 200 198 195 196 196 194 197 199 197 193 193 194 191 190 187 183 178 176 186 202 217 236 251 255 255
255 255 255 255 255 255 255 255 255 255 255 245 208 172 148 131 117 116 141 172 180 181 187 190 191 191 194 193 190 193 193 195 193 195 197 197 194 198 194 196 197 193 195 193 194 193 197 198 195 197 194 191 194 195 193 194 195 197 196 199 197 196 199 195 195 199 198 195 197 196 193 196 196 196 198 196 193 196 192 190 190 191 184 177 177 192 205 227 240 254 255 255
255 255 255 255 255 255 255 255 255 255 255 255 227 187 160 137 125 114 124 150 175 180 185 187 187 190 186 190 191 191 197 197 193 193 194 196 194 191 195 197 194 191 195 192 194 195 194 197 195 193 197 197 195 196 196 197 198 197 197 195 197 196 198 198 194 196 197 197 197 199 196 198 193 195 197 197 196 195 191 188 186 184 183 174 183 192 211 229 244 255 255 255
255 255 255 255 255 255 255 255 255 255 255 255 246 206 178 148 132 120 114 134 167 177 184 180 185 190 191 190 192 191 193 196 193 194 194 194 197 195 193 195 196 192 194 196 193 196 193 193 195 194 197 198 196 196 197 195 195 196 196 195 196 200 196 198 196 197 198 199 196 200 196 196 195 195 196 197 193 193 190 192 186 184 179 174 185 202 220 234 249 255 255 255
255 255 255 255 255 255 255 255 255 255 255 255 255 231 192 162 147 125 115 122 144 168 179 181 186 186 188 192 193 191 194 195 196 191 194 194 197 195 195 198 199 195 198 195 195 195 198 196 195 196 196 192 196 195 195 197 196 196 196 195 200 195 198 198 199 198 197 197 197 199 197 197 194 196 195 191 197 190 189 186 180 185 177 177 191 207 224 241 253 255 255 255
255 255 255 255 255 255 255 255 255 255 255 255 255 251 215 183 154 134 117 116 122 156 172 179 180 185 191 189 190 195 191 192 193 193 196 196 195 199 193 192 196 196 193 196 195 194 194 195 194 195 195 194 196 193 196 196 197 197 196 197 197 198 199 198 195 198 198 199 198 197 194 197 194 195 194 191 191 190 191 185 180 174 174 183 198 215 232 248 255 255 255 255
255 255 255 255 255 255 255 255 255 255 255 255 255 255 238 201 170 149 124 116 116 128 160 176 178 181 183 189 188 193 193 193 193 192 194 193 196 195 197 192 197 197 196 196 194 195 197 196 197 195 197 195 196 198 200 200 197 197 197 197 196 198 196 198 200 199 196 198 193 197 195 193 196 195 194 195 191 189 190 187 181 179 181 187 203 219 239 252 255 255 255 255
255 255 255 255 255 255 255 255 255 255 255 255 255 255 254 227 192 162 145 129 120 126 137 160 179 183 179 186 190 188 189 194 195 192 194 193 194 191 191 195 195 194 196 195 195 193 197 197 197 199 195 196 198 194 193 197 198 196 193 197 196 198 197 195 193 197 193 199 194 198 195 196 192 194 193 193 191 186 187 185 180 177 181 195 212 229 245 255 255 255 255 255
255 255 255 255 255 255 255 255 255 255 255 255 255 255 255 250 213 180 155 139 126 123 123 139 163 173 182 184 187 188 188 191 192 191 191 195 193 193 193 195 195 199 196 197 195 195 194 195 198 196 195 197 198 195 194 198 194 196 195 197 195 198 196 198 195 196 194 195 196 191 193 194 194 193 190 192 188 186 184 178 174 177 188 203 220 238 252 255 255 255 255 255
255 255 255 255 255 255 255 255 255 255 255 255 255 255 255 255 242 208 176 150 140 122 117 119 144 167 174 181 183 187 187 186 191 192 192 193 194 197 194 197 195 193 193 194 197 195 193 196 196 193 197 195 194 198 197 196 197 198 195 196 198 201 197 198 197 196 195 198 198 196 195 194 195 194 190 189 187 185 176 174 172 185 197 215 231 246 255 255 255 255 255 255
255 255 255 255 255 255 255 255 255 255 255 255 255 255 255 255 255 234 198 174 150 138 123 119 117 145 168 177 181 181 186 188 187 192 191 191 194 193 195 194 195 195 196 195 197 194 194 196 197 195 196 197 196 198 194 195 194 198 198 194 198 197 196 194 195 193 194 194 198 196 191 192 190 193 191 190 186 184 175 171 181 192 207 224 240 253 255 255 255 255 255 255
255 255 255 255 255 255 255 255 255 255 255 255 255 255 255 255 255 254 231 193 170 150 130 124 119 120 139 166 174 180 183 184 186 189 189 189 193 191 192 192 194 193 195 195 196 195 195 193 195 198 196 196 197 196 195 200 198 200 199 195 196 192 196 195 197 198 194 197 193 194 190 192 189 190 187 181 184 175 171 177 183 201 219 231 248 255 255 255 255 255 255 255
255 255 255 255 255 255 255 255 255 255 255 255 255 255 255 255 255 255 253 222 191 169 146 132 120 116 119 135 167 177 178 180 179 185 188 190 186 188 193 194 193 192 195 194 194 195 198 197 198 191 193 198 197 196 198 197 198 198 195 194 195 194 192 194 198 195 192 192 191 195 193 190 188 185 186 186 178 173 175 184 199 213 228 245 254 255 255 255 255 255 255 255
255 255 255 255 255 255 255 255 255 255 255 255 255 255 255 255 255 255 255 251 220 189 165 146 134 121 119 121 134 157 172 179 180 182 185 186 188 191 188 190 192 192 193 192 192 194 196 196 195 195 195 193 195 196 198 195 195 193 195 197 196 196 193 196 192 191 192 194 191 192 189 188 189 185 184 176 174 167 186 192 207 224 240 252 255 255 255 255 255 255 255 255
255 255 255 255 255 255 255 255 255 255 255 255 255 255 255 255 255 255 255 255 251 219 188 165 153 138 123 116 115 129 145 168 172 178 182 187 186 185 188 189 185 190 189 192 193 194 193 197 198 195 192 191 194 195 195 193 197 197 196 195 191 195 193 192 192 190 192 191 191 188 187 182 183 176 174 164 170 175 191 207 221 235 249 255 255 255 255 255 255 255 255 255
255 255 255 255 255 255 255 255 255 255 255 255 255 255 255 255 255 255 255 255 255 249 223 196 175 154 136 127 123 116 126 143 167 170 177 179 182 183 184 188 188 189 187 191 188 189 187 193 193 193 190 194 196 192 195 191 191 196 193 192 193 193 193 190 191 191 191 190 188 182 183 183 177 174 167 168 175 186 204 218 233 247 254 255 255 255 255 255 255 255 255 255
255 255 255 255 255 255 255 255 255 255 255 255 255 255 255 255 255 255 255 255 255 255 251 223 196 175 157 141 129 122 117 118 128 150 167 175 180 181 183 183 187 188 187 188 189 190 189 191 190 194 193 193 193 192 194 197 195 194 192 193 195 190 186 188 189 189 188 187 187 183 180 173 168 166 170 176 187 203 217 231 246 254 255 255 255 255 255 255 255 255 255 255
255 255 255 255 255 255 255 255 255 255 255 255 255 255 255 255 255 255 255 255 255 255 255 253 229 203 179 162 144 131 126 116 117 126 135 162 168 171 177 181 183 183 187 185 187 188 188 189 186 192 192 191 192 190 191 191 189 190 188 191 189 188 187 185 187 184 182 186 181 177 171 161 166 169 175 183 199 215 230 244 254 255 255 255 255 255 255 255 255 255 255 255
255 255 255 255 255 255 255 255 255 255 255 255 255 255 255 255 255 255 255 255 255 255 255 255 254 239 212 188 167 151 138 128 123 118 127 128 140 156 168 173 174 171 183 182 187 185 184 186 187 189 188 187 186 189 189 186 190 190 186 187 189 183 185 185 183 180 178 175 171 164 160 164 169 175 190 200 216 232 244 253 255 255 255 255 255 255 255 255 255 255 255 255
255 255 255 255 255 255 255 255 255 255 255 255 255 255 255 255 255 255 255 255 255 255 255 255 255 255 247 221 193 177 163 151 134 133 127 120 118 125 138 156 164 173 173 177 179 184 182 186 179 186 184 185 188 182 185 184 182 183 183 186 182 182 181 178 175 174 170 164 162 162 162 168 180 191 205 219 230 245 254 255 255 255 255 255 255 255 255 255 255 255 255 255
255 255 255 255 255 255 255 255 255 255 255 255 255 255 255 255 255 255 255 255 255 255 255 255 255 255 255 252 231 207 185 170 154 146 136 129 127 127 128 125 132 144 157 164 172 175 175 175 178 180 179 175 179 181 177 183 182 179 180 181 180 176 172 169 161 162 160 158 161 169 173 184 197 207 223 234 249 254 255 255 255 255 255 255 255 255 255 255 255 255 255 255
255 255 255 255 255 255 255 255 255 255 255 255 255 255 255 255 255 255 255 255 255 255 255 255 255 255 255 255 255 245 220 201 184 170 157 151 143 135 129 126 125 132 129 138 146 148 159 166 169 172 175 172 175 172 170 172 175 173 170 170 162 163 158 154 153 161 162 164 180 183 189 199 214 226 239 250 255 255 255 255 255 255 255 255 255 255 255 255 255 255 255 255
255 255 255 255 255 255 255 255 255 255 255 255 255 255 255 255 255 255 255 255 255 255 255 255 255 255 255 255 255 255 254 237 216 202 183 172 161 156 147 141 136 132 133 134 133 132 136 139 135 144 149 153 153 154 151 153 153 152 148 152 150 149 156 159 161 168 177 181 190 197 208 220 232 244 253 255 255 255 255 255 255 255 255 255 255 255 255 255 255 255 255 255
255 255 255 255 255 255 255 255 255 255 255 255 255 255 255 255 255 255 255 255 255 255 255 255 255 255 255 255 255 255 255 255 251 238 216 201 190 179 171 162 155 146 142 141 138 138 136 141 136 137 143 144 142 141 143 141 146 153 153 155 155 159 165 172 178 182 191 198 209 216 228 239 249 255 255 255 255 255 255 255 255 255 255 255 255 255 255 255 255 255 255 255
255 255 255 255 255 255 255 255 255 255 255 255 255 255 255 255 255 255 255 255 255 255 255 255 255 255 255 255 255 255 255 255 255 255 251 238 224 208 197 188 177 174 164 158 155 152 153 149 147 149 150 148 151 150 152 157 157 158 161 170 171 174 184 186 192 202 213 222 228 240 247 254 255 255 255 255 255 255 255 255 255 255 255 255 255 255 255 255 255 255 255 255
255 255 255 255 255 255 255 255 255 255 255 255 255 255 255 255 255 255 255 255 255 255 255 255 255 255 255 255 255 255 255 255 255 255 255 255 254 246 231 218 208 200 190 187 182 178 177 173 166 166 166 166 167 169 168 169 172 178 183 189 193 193 203 209 215 225 233 242 248 254 255 255 255 255 255 255 255 255 255 255 255 255 255 255 255 255 255 255 255 255 255 255
255 255 255 255 255 255 255 255 255 255 255 255 255 255 255 255 255 255 255 255 255 255 255 255 255 255 255 255 255 255 255 255 255 255 255 255 255 255 255 252 244 233 226 217 209 209 198 197 195 189 190 187 190 195 190 199 199 201 206 208 215 220 226 232 240 246 252 255 255 255 255 255 255 255 255 255 255 255 255 255 255 255 255 255 255 255 255 255 255 255 255 255
255 255 255 255 255 255 255 255 255 255 255 255 255 255 255 255 255 255 255 255 255 255 255 255 255 255 255 255 255 255 255 255 255 255 255 255 255 255 255 255 255 255 254 249 244 236 231 228 222 220 220 217 219 219 220 220 224 226 232 235 241 246 250 253 255 255 255 255 255 255 255 255 255 255 255 255 255 255 255 255 255 255 255 255 255 255 255 255 255 255 255 255
255 255 255 255 255 255 255 255 255 255 255 255 255 255 255 255 255 255 255 255 255 255 255 255 255 255 255 255 255 255 255 255 255 255 255 255 255 255 255 255 255 255 255 255 255 255 255 254 252 250 249 246 248 247 246 248 251 251 253 254 255 255 255 255 255 255 255 255 255 255 255 255 255 255 255 255 255 255 255 255 255 255 255 255 255 255 255 255 255 255 255 255
255 255 255 255 255 255 255 255 255 255 255 255 255 255 255 255 255 255 255 255 255 255 255 255 255 255 255 255 255 255 255 255 255 255 255 255 255 255 255 255 255 255 255 255 255 255 255 255 255 255 255 255 255 255 255 255 255 255 255 255 255 255 255 255 255 255 255 255 255 255 255 255 255 255 255 255 255 255 255 255 255 255 255 255 255 255 255 255 255 255 255 255
255 255 255 255 255 255 255 255 255 255 255 255 255 255 255 255 255 255 255 255 255 255 255 255 255 255 255 255 255 255 255 255 255 255 255 255 255 255 255 255 255 255 255 255 255 255 255 255 255 255 255 255 255 255 255 255 255 255 255 255 255 255 255 255 255 255 255 255 255 255 255 255 255 255 255 255 255 255 255 255 255 255 255 255 255 255 255 255 255 255 255 255
255 255 255 255 255 255 255 255 255 255 255 255 255 255 255 255 255 255 255 255 255 255 255 255 255 255 255 255 255 255 255 255 255 255 255 255 255 255 255 255 255 255 255 255 255 255 255 255 255 255 255 255 255 255 255 255 255 255 255 255 255 255 255 255 255 255 255 255 255 255 255 255 255 255 255 255 255 255 255 255 255 255 255 255 255 255 255 255 255 255 255 255
