P2
89 93
255
255 255 255 255 255 255 255 255 255 255 255 255 255 255 255 255 255 255 255 255 255 255 255 255 255 255 255 255 255 255 255 255 255 255 255 255 255 255 133 255 255 255 255 255 255 133 255 255 255 255 255 255 255 255 255 255 255 255 255 255 255 255 255 255 255 255 255 255 255 255 255 255 255 255 255 255 255 255 255 255 255 255 255 255 255 255 255 255 255
255 255 255 255 255 255 255 255 255 255 255 255 255 255 255 255 255 255 255 255 255 255 255 255 255 255 255 255 255 255 255 255 255 255 255 255 255 255 255 255 255 255 133 255 255 255 255 255 255 255 255 255 255 255 255 255 255 255 255 255 255 255 255 255 255 255 255 255 255 255 255 255 255 255 255 255 255 255 255 255 255 255 255 255 255 255 255 255 255
255 255 255 255 255 255 255 255 255 255 255 255 255 255 255 255 255 255 255 255 255 255 255 255 255 255 255 255 255 255 255 255 133 255 255 255 255 133 10 255 255 255 255 133 133 255 255 255 255 255 255 133 255 255 255 255 255 255 255 255 255 255 255 255 255 255 255 255 255 255 255 255 255 255 255 255 255 255 255 255 255 255 255 255 255 255 255 255 255
255 255 255 255 255 255 255 255 255 255 255 255 255 255 255 255 255 255 255 255 255 255 255 255 255 255 255 255 255 255 133 255 255 255 255 255 133 255 255 255 255 255 255 255 255 255 255 255 255 255 10 255 255 255 255 255 255 255 255 255 255 255 255 255 255 255 255 255 255 255 255 255 255 255 255 255 255 255 255 255 255 255 255 255 255 255 255 255 255
255 255 255 255 255 255 255 255 255 255 255 255 255 255 255 255 255 255 255 255 255 255 255 255 255 255 255 255 133 255 133 255 255 255 255 255 255 255 255 133 255 255 133 133 255 255 255 133 255 255 255 255 255 255 255 255 255 255 133 255 255 255 255 255 255 255 255 255 255 255 255 255 255 255 255 255 255 255 255 255 255 255 255 255 255 255 255 255 255
255 255 255 255 255 255 255 255 255 255 255 255 255 255 255 255 255 255 255 255 255 255 255 255 255 255 133 255 255 255 133 255 255 133 255 255 133 255 0 255 255 133 133 255 255 255 255 255 255 133 255 133 255 133 133 255 255 255 255 255 255 255 255 255 255 255 255 255 255 255 255 255 255 255 255 255 255 255 255 255 255 255 255 255 255 255 255 255 255
255 255 255 255 255 255 255 255 255 255 255 255 255 255 255 255 255 255 255 255 255 255 133 255 10 133 255 133 255 0 255 133 255 255 133 133 255 133 255 255 255 255 255 133 255 255 255 255 133 255 133 255 255 255 255 133 255 255 255 255 133 133 255 255 255 255 255 255 255 255 255 255 255 255 255 255 255 255 255 255 255 255 255 255 255 255 255 255 255
255 255 255 255 255 255 255 255 255 255 255 255 255 255 255 255 255 255 255 255 133 255 255 255 255 133 0 133 133 10 255 133 133 255 255 10 133 133 133 133 255 255 255 133 255 10 133 133 133 133 255 10 255 10 133 255 255 255 0 133 255 255 133 255 255 255 255 255 255 255 255 255 255 255 255 255 255 255 255 255 255 255 255 255 255 255 255 255 255
255 255 255 255 255 255 255 255 255 255 255 255 255 255 255 255 255 255 255 255 255 255 133 10 255 255 255 255 255 133 255 255 133 255 133 255 133 10 255 133 133 10 133 255 255 255 255 133 133 255 255 133 133 255 133 255 133 255 255 10 255 255 255 255 133 133 255 255 255 255 255 255 255 255 255 255 255 255 255 255 255 255 255 255 255 255 255 255 255
255 255 255 255 255 255 255 255 255 255 255 255 255 255 255 255 255 255 255 133 255 133 255 255 133 133 133 255 133 10 255 133 255 255 255 133 255 255 255 255 133 255 255 255 133 255 255 0 255 133 255 255 133 133 255 133 255 255 133 255 255 10 255 255 255 255 133 255 255 255 255 255 255 255 255 255 255 255 255 255 255 255 255 255 255 255 255 255 255
255 255 255 255 255 255 255 255 255 255 255 255 255 255 255 255 255 255 255 133 255 255 10 255 133 255 255 133 255 133 255 133 133 255 255 255 133 255 255 255 255 133 255 255 255 255 255 133 133 133 255 255 255 255 10 255 255 255 255 255 133 133 133 133 10 255 10 255 133 255 255 255 255 255 255 255 255 255 255 255 255 255 255 255 255 255 255 255 255
255 255 255 255 255 255 255 255 255 255 255 255 255 255 255 255 255 255 255 133 133 133 133 133 255 133 255 255 255 255 255 133 133 255 255 133 10 255 255 255 133 255 255 10 133 255 255 255 255 255 255 255 255 255 255 255 255 133 133 255 133 133 133 133 10 255 255 255 255 255 255 255 255 255 255 255 255 255 255 255 255 255 255 255 255 255 255 255 255
255 255 255 255 255 255 255 255 255 255 255 255 255 255 255 255 255 133 133 255 255 133 255 133 255 133 133 255 255 255 255 133 255 10 255 133 255 255 133 255 133 255 255 255 255 255 10 10 133 255 255 255 255 255 133 133 255 133 133 255 10 10 255 255 255 133 255 255 255 255 255 133 255 255 255 255 255 255 255 255 255 255 255 255 255 255 255 255 255
255 255 255 255 255 255 255 255 255 255 255 255 133 133 133 255 255 0 133 133 133 255 10 255 255 133 10 255 255 255 255 133 255 255 133 255 255 133 133 133 255 255 133 255 255 255 10 255 255 255 255 255 255 255 0 255 255 255 10 10 255 255 133 255 255 255 255 255 255 255 255 133 255 255 255 255 255 255 255 255 255 255 255 255 255 255 255 255 255
255 255 255 255 255 255 255 255 255 255 255 255 255 255 255 10 255 255 255 255 255 255 133 255 255 255 255 10 133 255 10 255 10 255 255 255 255 255 255 10 133 255 133 255 255 133 133 255 255 255 255 133 133 133 255 255 133 133 133 255 255 255 255 133 255 133 255 255 255 255 133 133 255 255 133 133 255 255 255 255 255 255 255 255 255 255 255 255 255
255 255 255 255 255 255 255 255 255 255 255 255 255 255 255 133 255 10 255 255 255 0 133 133 133 133 255 255 133 255 255 10 255 133 255 255 255 133 133 133 255 255 133 255 133 255 255 133 255 133 255 133 255 255 255 133 255 0 133 255 255 133 255 255 255 255 255 255 133 133 255 133 255 255 255 255 255 255 255 255 255 255 255 255 255 255 255 255 255
255 255 255 255 255 255 255 255 255 255 255 133 255 255 133 255 255 133 133 255 255 255 255 255 133 255 255 255 133 133 255 255 133 133 255 255 133 255 255 133 255 255 255 255 133 255 133 255 10 255 255 255 255 133 255 255 255 255 10 255 133 255 255 133 133 133 133 0 255 255 255 255 255 255 255 255 255 255 255 255 255 255 255 255 255 255 255 255 255
255 255 255 255 255 255 255 255 133 255 255 255 133 255 255 255 255 133 255 255 255 133 133 255 10 255 255 255 255 133 255 133 0 133 133 133 133 255 133 133 255 133 255 255 255 133 10 255 133 255 133 255 255 255 255 255 255 255 255 255 10 255 255 255 255 255 0 255 255 255 255 255 255 255 133 255 255 255 255 255 255 255 255 255 255 255 255 255 255
255 255 255 255 255 255 255 255 255 255 255 255 255 255 255 255 0 255 133 133 255 255 133 133 255 255 255 255 255 255 10 255 133 255 133 0 255 255 255 255 133 255 255 133 10 255 255 133 133 133 255 255 255 255 0 133 255 255 133 255 133 255 255 255 255 255 255 255 255 133 133 255 133 133 133 255 255 133 255 255 255 255 255 255 255 255 255 255 255
255 255 255 255 255 255 255 255 255 133 255 133 255 10 10 255 255 255 10 255 255 133 255 255 10 133 133 255 133 255 255 255 133 10 133 255 133 133 255 10 133 255 133 255 255 255 255 255 133 133 255 255 133 255 255 255 255 255 255 133 255 133 133 133 133 255 255 255 255 255 10 255 255 133 255 255 255 255 255 133 255 255 255 255 255 255 255 255 255
255 255 255 255 255 255 255 133 255 133 10 255 255 133 255 133 133 255 255 255 133 255 255 133 255 255 255 255 255 255 255 255 255 133 255 133 133 255 255 255 133 255 255 133 255 255 255 255 10 255 133 255 255 133 255 133 133 255 133 255 255 133 10 255 133 10 133 133 255 255 10 133 255 255 133 255 133 255 255 255 255 255 255 255 255 255 255 255 255
255 255 255 255 255 255 255 255 255 255 133 133 255 133 133 133 10 133 255 10 10 255 255 255 255 255 255 255 255 255 255 10 255 133 255 10 255 133 133 255 255 255 255 255 133 255 255 133 255 133 10 255 255 255 10 255 255 255 133 255 133 255 255 133 133 255 133 255 133 255 255 255 133 10 255 133 255 255 255 255 255 255 255 255 255 255 255 255 255
255 255 255 255 255 255 255 255 133 255 255 133 255 10 133 133 255 133 255 133 255 255 10 133 133 133 255 255 255 255 255 255 255 255 255 255 133 255 133 255 133 255 255 255 255 133 255 10 255 255 255 255 255 133 133 255 255 255 133 255 133 255 255 255 255 255 10 133 133 133 255 255 133 10 255 10 133 133 255 255 255 255 255 255 255 255 255 255 255
255 255 255 255 255 255 255 255 255 10 133 255 255 133 255 255 133 133 133 255 133 255 255 255 255 133 255 255 133 255 255 255 255 255 255 133 133 255 255 133 255 255 255 255 255 255 133 133 255 255 133 255 133 133 255 133 255 255 255 133 255 133 255 255 133 255 255 255 255 133 133 255 133 255 255 255 133 255 133 133 255 255 255 255 255 255 255 255 255
255 255 255 255 255 133 255 133 10 0 0 255 255 255 255 255 255 255 255 255 255 10 255 133 133 255 255 133 255 255 133 133 133 133 133 255 0 255 133 255 255 255 10 255 133 133 133 255 255 255 133 255 133 133 133 133 133 133 255 255 255 255 255 255 255 255 133 133 133 133 255 255 255 133 133 0 133 255 255 255 133 255 255 255 255 255 255 255 255
255 255 255 255 255 255 255 255 255 255 133 255 255 10 255 255 133 133 133 255 10 255 133 255 255 255 133 133 255 133 133 255 255 255 255 255 255 255 255 255 255 133 255 255 255 133 10 133 255 255 255 10 255 255 255 255 133 133 255 255 133 255 133 255 133 133 255 255 255 10 133 255 10 133 133 255 0 133 255 255 133 133 255 255 255 255 255 255 255
255 255 133 255 255 255 133 133 133 133 0 255 255 10 255 255 255 255 255 255 133 255 255 255 133 133 133 255 133 133 255 255 133 255 133 255 255 255 133 255 133 133 255 133 255 133 255 133 255 255 133 255 133 255 255 133 255 255 10 255 133 10 255 133 255 255 133 255 133 255 133 133 255 255 133 255 255 133 255 133 10 255 255 255 255 255 255 255 255
255 255 255 255 255 133 133 133 133 10 255 133 255 133 255 255 0 255 255 255 255 133 255 255 133 255 133 255 255 255 255 133 255 255 10 255 255 255 255 255 255 255 0 255 255 255 255 0 255 133 10 255 255 255 255 255 255 255 255 133 133 255 255 255 133 133 255 255 255 0 133 133 0 255 255 255 255 133 255 255 255 255 255 255 133 255 255 255 255
255 255 255 255 133 10 133 255 255 255 255 255 255 255 255 255 255 255 133 255 255 255 133 255 255 133 133 255 255 255 255 255 255 10 133 133 255 133 133 133 255 10 255 133 133 0 255 255 255 255 255 255 255 133 133 255 255 255 255 255 133 255 133 255 133 133 255 255 133 255 255 133 255 255 133 255 133 255 255 255 133 133 255 255 255 255 255 255 255
255 255 255 255 255 133 133 133 10 255 133 133 255 255 133 133 255 255 133 255 133 133 133 255 133 133 255 255 255 133 10 133 255 10 255 255 255 255 255 255 255 133 255 255 255 255 255 255 255 133 10 255 133 255 133 10 10 10 255 255 255 255 255 133 255 10 133 10 133 133 133 255 255 255 255 133 133 255 255 255 255 255 255 255 255 255 255 255 255
255 255 255 255 255 255 133 133 133 10 133 255 133 255 255 255 10 255 255 255 133 133 255 0 10 255 255 255 133 10 133 255 255 133 133 255 255 133 255 133 133 10 255 255 255 133 255 255 255 255 133 255 255 255 133 133 255 255 255 255 255 133 255 255 255 255 255 133 10 133 133 133 133 255 255 255 255 255 133 133 133 133 10 255 255 255 255 255 255
255 255 133 10 255 255 133 10 10 255 255 255 133 133 133 255 133 255 10 255 255 133 133 255 255 255 255 10 255 255 255 255 255 133 133 255 255 255 255 133 255 255 10 255 255 255 133 133 255 255 133 255 255 255 255 255 255 255 255 255 133 133 133 255 133 255 255 133 255 255 255 255 133 10 255 133 255 255 255 255 255 255 0 133 10 133 255 255 255
255 255 133 10 133 133 255 255 255 133 255 255 255 255 133 255 255 255 255 255 133 255 133 255 133 255 0 10 255 133 255 255 255 255 255 255 255 255 255 255 133 133 133 255 255 133 133 255 255 255 255 255 255 255 133 133 133 255 255 255 133 255 255 255 255 255 133 10 255 255 10 255 255 255 255 255 133 255 255 255 133 255 255 133 255 255 255 255 255
255 133 255 255 255 255 255 133 133 255 133 255 133 255 133 133 255 133 0 255 10 255 255 133 255 133 255 255 255 255 255 133 255 255 255 255 255 255 255 10 255 255 133 255 133 133 10 133 255 10 133 255 133 255 255 255 133 133 255 255 255 255 255 255 255 255 255 133 133 133 133 255 255 255 133 255 255 133 255 255 255 133 255 255 255 10 255 255 255
255 255 255 133 133 10 255 255 10 255 133 255 255 133 255 255 255 255 255 255 255 255 255 255 10 255 255 255 133 133 255 255 255 133 255 255 255 133 133 255 133 255 133 255 133 255 133 10 133 133 255 133 133 133 133 255 255 255 255 255 10 10 133 255 133 255 255 255 133 10 255 255 255 255 255 133 255 255 255 133 10 255 255 255 133 255 255 255 255
255 255 255 10 255 10 255 255 255 255 255 255 133 255 133 255 255 133 255 133 133 133 133 255 133 133 255 255 10 133 255 255 255 133 255 133 255 133 255 133 255 255 255 255 255 255 133 255 255 255 133 255 255 10 255 255 133 255 255 255 133 255 133 133 255 10 255 255 255 255 255 255 255 133 255 255 10 133 133 133 133 255 255 10 10 255 255 255 255
255 255 255 10 255 10 255 255 133 255 255 255 255 255 255 255 133 255 133 255 255 255 255 255 255 133 133 0 133 255 255 10 10 10 133 255 133 255 255 133 133 133 10 133 255 133 255 133 255 133 255 255 255 133 133 133 255 133 255 255 255 255 255 10 10 133 133 133 255 133 255 255 255 255 133 255 255 255 255 133 133 255 133 133 133 10 255 255 255
255 255 133 255 255 255 10 133 255 10 255 255 133 255 133 255 133 255 255 255 255 255 133 255 255 133 133 255 255 255 255 10 255 133 255 255 255 255 255 255 255 10 255 255 255 255 133 255 133 255 255 255 133 133 10 255 255 133 255 255 255 255 133 255 255 133 133 133 133 133 133 255 255 133 255 255 133 255 255 255 255 255 255 255 255 255 255 133 255
255 133 255 133 133 255 255 255 255 255 255 255 133 255 10 255 255 133 133 0 255 10 255 255 255 10 133 255 255 255 255 255 133 255 255 133 133 10 255 133 255 10 255 255 255 255 133 255 255 133 133 255 255 133 133 133 255 255 133 255 255 255 133 10 133 255 255 133 255 255 255 255 255 255 255 0 255 133 255 10 255 255 133 0 255 255 255 133 255
255 133 255 133 255 133 255 133 255 133 255 133 133 10 133 10 255 255 255 133 133 133 133 255 133 255 255 255 133 255 255 255 133 255 255 255 255 255 255 255 255 133 255 255 133 255 255 133 255 255 255 255 133 255 255 255 133 255 255 255 255 255 255 255 255 133 255 133 133 255 133 255 133 255 10 255 255 133 133 255 255 133 255 255 133 255 255 255 255
133 255 255 133 133 255 255 133 133 0 133 255 255 133 133 255 133 255 255 255 133 255 255 255 10 255 255 255 255 255 0 255 133 255 133 255 133 133 133 255 133 133 255 133 255 133 255 255 10 255 255 133 255 255 255 255 133 255 133 255 10 255 255 10 255 133 255 255 255 10 133 255 255 133 255 255 255 10 255 255 255 255 255 255 255 133 255 133 133
255 255 255 255 255 133 10 255 255 133 133 255 255 255 133 10 255 133 255 255 133 255 255 255 255 255 10 255 255 255 255 133 10 255 255 133 255 255 10 255 255 133 133 133 133 255 255 255 255 255 10 255 255 133 255 255 255 255 255 255 133 255 133 133 255 133 255 133 133 255 255 133 10 255 255 133 255 255 133 255 255 10 255 255 133 133 255 255 133
255 255 0 10 133 255 10 255 255 255 133 133 255 255 255 255 255 255 255 255 133 255 133 255 255 255 255 255 255 10 255 255 133 133 255 255 10 255 10 133 255 255 255 255 133 133 255 255 255 255 10 255 255 133 255 255 255 255 255 255 255 255 255 255 255 255 133 255 255 255 255 255 0 133 133 133 255 10 133 133 133 10 255 255 133 133 133 255 255
255 255 255 133 255 133 133 133 255 255 255 255 133 255 255 133 133 133 133 255 0 10 133 255 133 133 133 10 133 255 10 255 10 133 255 255 133 255 255 255 255 255 255 133 255 10 10 133 133 255 255 255 255 10 255 255 255 255 255 255 133 255 255 133 255 133 255 255 255 255 133 255 255 255 255 255 255 255 133 255 255 255 255 255 133 255 255 255 255
133 133 10 255 255 133 133 133 133 133 133 255 255 255 255 133 133 255 255 133 255 255 255 133 255 255 255 133 255 255 255 255 255 133 133 255 255 255 255 10 133 255 133 255 133 133 10 133 255 255 255 133 255 10 133 10 133 133 255 133 255 133 255 255 255 255 255 133 133 255 255 255 133 255 255 133 133 133 255 255 133 133 133 255 133 133 133 133 133
133 255 255 10 255 10 255 255 133 255 255 255 133 255 255 10 255 255 255 255 255 133 133 255 255 255 255 133 133 133 133 133 255 255 255 10 255 255 255 255 133 133 255 255 255 255 133 10 133 255 133 10 255 255 255 133 255 255 255 255 255 255 255 0 255 255 255 255 10 255 133 10 255 133 133 255 255 255 255 10 255 255 255 255 133 133 255 255 255
255 255 133 255 255 255 133 255 133 133 10 255 255 255 133 133 255 255 133 255 133 255 133 255 10 255 133 255 255 255 255 255 255 255 133 255 133 133 255 255 255 133 255 133 133 255 133 255 255 10 133 10 255 255 255 255 255 255 255 255 10 255 255 0 255 133 255 133 133 255 133 133 133 255 133 133 255 10 255 133 255 255 255 133 133 255 255 133 133
255 10 133 255 133 133 133 255 133 255 255 255 255 255 255 255 255 255 133 255 255 255 133 10 133 133 133 255 255 10 10 133 255 10 255 255 255 255 133 255 10 255 133 255 255 133 133 133 133 255 255 255 255 255 255 133 255 255 133 255 255 255 255 255 255 133 255 255 255 133 133 133 255 133 255 255 133 133 255 255 255 133 255 133 255 255 255 255 255
255 255 255 255 255 133 255 133 255 255 133 255 255 255 255 10 255 255 255 255 133 133 255 133 255 255 255 133 255 255 255 133 255 133 133 133 255 133 133 255 255 255 133 255 255 255 133 255 133 255 0 255 255 133 10 133 133 255 133 255 133 255 255 255 133 255 133 255 255 133 10 255 255 255 133 133 255 255 255 133 255 255 255 255 10 255 255 255 255
255 255 255 255 255 255 255 10 255 255 255 255 133 255 133 10 133 133 255 255 133 255 255 255 133 133 255 255 255 255 255 10 255 10 255 133 133 255 255 255 255 133 255 133 133 10 255 255 255 255 255 10 255 255 255 10 133 255 133 255 255 255 255 255 255 133 10 255 255 255 255 133 255 133 255 255 10 133 255 133 133 10 133 255 255 133 133 133 255
255 255 255 255 133 255 133 255 255 133 255 133 255 255 133 255 255 10 255 255 10 255 255 255 255 255 255 255 255 133 255 133 255 133 255 133 255 255 255 255 255 255 133 133 255 255 255 133 255 255 255 255 255 133 255 255 255 255 255 255 133 255 255 255 255 255 255 255 133 255 255 255 255 255 255 255 10 133 133 255 255 133 133 255 10 133 255 255 255
255 255 133 10 255 133 255 255 133 255 133 255 133 255 255 255 133 255 255 255 255 133 10 255 255 255 255 133 255 10 133 133 133 10 255 255 255 255 255 255 255 10 133 133 133 255 133 255 133 133 133 255 133 255 255 255 133 255 255 255 255 255 255 255 255 255 133 255 133 10 255 133 255 133 255 133 255 255 133 255 255 255 255 133 0 133 255 255 255
255 255 133 255 255 133 133 255 133 133 133 255 0 255 133 133 133 133 255 133 255 255 255 255 255 255 133 133 255 255 133 255 255 10 133 255 133 133 133 133 255 255 133 133 10 255 133 133 133 133 10 255 255 10 133 133 133 255 133 255 133 10 255 255 133 255 133 133 10 133 255 133 255 133 133 255 255 133 133 133 255 255 255 133 255 255 255 133 255
255 10 133 133 0 255 133 133 255 133 255 10 133 10 255 255 255 255 133 255 255 255 255 255 255 133 133 255 255 10 255 133 133 133 255 10 10 255 255 133 255 133 10 255 133 255 255 255 10 10 255 255 255 255 255 133 255 133 255 255 133 133 133 255 133 255 255 255 10 255 255 255 0 255 255 255 10 255 255 255 255 10 10 133 255 10 255 255 255
255 133 255 255 255 255 255 133 255 255 10 255 255 133 133 255 255 255 133 255 255 133 255 133 255 133 133 255 255 255 255 133 255 133 255 255 255 255 133 255 255 133 255 255 133 255 255 255 255 133 255 255 255 255 255 10 10 255 133 255 255 255 133 255 255 255 255 255 133 133 133 133 255 255 255 255 255 255 255 255 255 133 255 255 133 133 255 255 255
255 255 255 0 133 133 10 255 133 133 255 133 255 255 10 255 10 255 255 255 133 255 255 133 255 133 133 255 255 255 255 255 10 133 255 255 10 255 255 10 255 255 255 255 133 133 255 255 255 255 10 255 255 255 255 255 255 255 255 10 255 133 255 255 255 255 255 255 133 255 255 133 255 255 255 133 255 255 133 133 255 10 133 133 255 255 255 255 255
255 255 255 255 255 133 255 255 255 133 255 133 255 255 255 133 255 10 133 133 255 255 133 133 10 255 255 255 255 255 255 255 255 255 255 255 133 133 0 255 133 10 133 133 133 255 133 255 133 255 133 255 255 255 255 133 133 133 255 255 133 255 133 255 255 255 255 255 133 255 255 133 255 133 255 10 133 255 255 255 255 255 133 133 255 255 255 255 255
255 255 255 133 255 10 133 0 255 133 133 255 133 133 10 255 255 255 10 255 133 255 133 255 255 255 133 255 255 133 133 255 255 255 133 255 133 255 255 255 255 133 255 255 255 133 133 255 133 255 255 255 255 10 133 255 0 255 0 255 255 10 255 255 255 133 255 133 255 255 255 255 133 255 10 255 133 255 133 255 255 133 255 255 10 133 255 255 255
255 255 255 255 133 255 10 255 133 133 0 133 133 133 255 10 133 133 133 133 255 10 133 255 255 255 255 133 255 133 133 255 255 255 255 255 255 255 255 133 133 255 133 255 255 133 133 255 10 255 255 255 255 133 133 133 255 255 10 255 133 255 255 255 133 255 10 133 133 133 255 133 255 133 133 10 255 0 255 133 133 255 133 133 255 255 255 255 255
255 255 255 10 255 133 255 0 255 255 255 255 133 133 255 133 255 133 133 255 255 255 133 133 255 133 255 255 133 255 133 255 255 10 255 255 255 255 255 255 10 133 133 255 255 133 255 133 10 255 133 133 255 10 255 255 133 255 255 10 255 255 255 255 133 133 255 255 255 255 255 133 10 255 255 255 255 0 133 255 255 133 10 133 10 133 0 255 255
255 255 255 255 133 255 255 133 255 0 255 133 255 255 10 133 10 255 133 10 255 255 255 255 255 255 133 255 255 255 133 133 255 133 10 0 10 133 255 133 10 10 255 133 255 255 133 10 133 255 255 133 255 133 255 0 133 255 10 255 255 255 133 255 255 255 255 255 255 133 255 255 255 133 255 255 133 255 255 10 133 255 133 255 255 255 255 255 255
255 255 255 255 10 255 255 133 255 133 255 133 255 255 255 255 255 133 133 133 255 255 255 255 133 133 255 255 133 255 255 10 255 133 255 255 255 255 255 133 10 255 133 255 255 255 255 10 255 255 255 133 255 255 133 133 255 255 255 255 255 255 255 255 133 255 255 255 255 255 255 133 255 133 133 133 255 255 133 255 255 255 133 133 255 133 255 255 255
255 255 255 255 255 133 255 255 255 133 255 10 133 133 255 133 133 255 255 255 255 0 255 133 133 255 255 255 133 255 255 255 255 255 255 255 255 10 255 255 133 255 255 255 133 255 133 10 133 255 255 255 10 255 0 255 255 133 133 255 255 133 255 255 255 133 255 133 10 255 255 255 133 255 10 255 133 255 255 133 0 255 133 255 255 255 255 255 255
255 255 255 255 255 133 255 10 133 255 255 255 133 255 255 133 255 133 255 133 255 255 255 255 255 133 255 255 133 255 10 255 255 133 255 255 133 133 10 133 133 133 255 10 10 133 255 133 133 255 255 133 133 10 255 255 255 255 133 255 255 255 133 10 255 255 133 255 10 255 133 255 255 10 133 133 133 10 10 255 133 255 255 255 133 255 255 255 255
255 255 255 255 255 255 133 255 255 255 133 133 255 10 255 133 10 255 255 133 255 133 255 133 255 255 255 255 133 255 255 133 255 133 133 255 133 133 255 255 133 255 255 255 255 255 255 255 255 255 255 133 133 133 133 133 133 255 255 133 255 255 133 255 255 133 255 255 0 255 255 255 255 133 255 255 255 133 255 255 0 133 255 255 0 255 255 255 255
255 255 255 255 255 255 133 255 255 255 133 255 133 255 133 255 255 255 255 255 10 255 255 255 255 0 255 133 255 255 133 255 255 255 133 10 255 255 255 133 133 255 10 255 255 255 0 133 255 255 255 133 133 133 133 255 133 133 255 255 255 10 255 0 255 255 255 255 255 255 255 10 255 255 133 255 255 255 133 255 255 133 10 133 133 255 255 255 255
255 255 255 255 255 255 255 255 255 133 255 0 10 133 255 255 133 0 255 133 10 255 255 255 133 255 10 133 133 255 10 255 133 255 255 255 255 133 10 133 133 255 133 133 255 133 255 133 255 255 255 133 133 133 255 255 255 133 255 133 133 133 255 255 255 255 255 255 133 255 255 255 255 255 133 255 255 133 255 133 133 255 255 255 255 255 133 255 255
255 255 255 255 255 255 133 133 10 133 255 133 133 0 255 255 255 255 133 255 10 255 255 255 255 0 255 133 255 133 133 255 133 255 255 255 255 255 255 133 255 133 255 255 255 0 255 255 255 255 255 133 255 255 255 255 255 255 255 255 133 255 255 255 255 255 10 255 133 10 10 133 133 133 255 133 255 255 133 133 133 255 255 10 133 255 255 255 255
255 255 255 255 255 255 255 255 255 255 0 0 0 0 255 255 255 133 133 255 255 255 133 255 255 133 255 255 133 255 10 255 133 255 255 133 255 255 255 133 133 255 255 255 255 133 255 255 255 255 255 133 133 255 255 255 255 133 133 133 255 133 255 255 255 255 255 255 255 255 10 255 0 133 255 133 255 255 133 133 133 0 255 255 255 133 255 255 255
255 255 255 255 255 255 255 133 255 133 133 133 255 133 133 133 133 255 133 255 133 133 133 255 133 255 10 133 133 133 133 133 255 10 255 255 133 255 255 133 255 10 10 133 255 255 255 133 255 10 255 255 255 10 255 255 255 133 255 255 133 10 255 255 255 133 255 255 255 255 255 10 255 255 10 255 255 255 133 133 255 133 133 133 255 255 255 255 255
255 255 255 255 255 255 255 255 255 255 133 133 255 133 133 255 255 133 133 255 255 133 255 255 0 255 133 133 255 255 10 255 255 255 255 133 255 255 255 255 255 255 133 133 255 255 133 255 255 133 0 133 255 255 255 255 133 255 255 255 133 255 255 10 10 255 255 133 255 0 255 255 255 255 133 255 133 10 255 10 255 133 255 255 255 255 255 255 255
255 255 255 255 255 255 255 255 255 255 133 255 255 133 10 0 133 10 10 133 0 255 255 255 255 255 255 255 133 133 133 10 133 255 255 255 10 255 255 255 255 255 255 255 133 255 133 133 255 133 133 133 255 255 255 10 133 255 133 255 255 255 10 133 133 133 255 133 255 255 255 133 133 255 255 133 0 133 255 255 255 255 255 255 255 255 255 255 255
255 255 255 255 255 255 255 255 255 133 255 133 255 133 133 133 255 10 0 255 255 133 255 133 10 255 255 133 255 255 255 133 255 133 255 255 10 255 133 255 255 255 255 255 133 255 133 255 255 255 10 255 255 255 255 255 255 255 255 133 255 255 255 133 255 255 133 255 133 255 255 255 255 10 255 133 10 255 255 255 133 255 255 255 255 255 255 255 255
255 255 255 255 255 255 255 255 255 255 255 133 133 255 255 255 133 10 255 133 133 255 255 255 10 255 133 255 133 255 255 255 133 255 255 255 133 255 133 10 255 255 255 255 255 133 255 255 255 133 255 255 10 255 133 255 255 255 133 255 133 255 10 255 255 255 255 133 255 255 255 255 255 255 133 133 255 255 255 255 255 133 255 255 255 255 255 255 255
255 255 255 255 255 255 255 255 255 255 133 10 255 133 133 255 255 133 255 255 255 133 255 255 255 255 255 255 255 133 133 10 133 133 133 255 255 255 255 255 255 255 133 255 255 133 255 133 255 255 10 255 255 133 255 133 133 255 255 255 255 255 255 255 10 133 255 255 255 255 133 133 255 255 255 255 10 133 255 133 133 255 255 255 255 255 255 255 255
255 255 255 255 255 255 255 255 255 255 255 255 255 255 255 133 133 0 133 133 255 255 255 255 255 255 255 255 255 255 255 255 255 255 255 255 255 133 255 255 255 255 133 255 10 255 255 255 10 133 255 133 133 255 255 133 133 10 133 255 10 255 255 133 255 255 255 133 255 255 255 255 133 255 255 255 133 133 133 255 255 255 255 255 255 255 255 255 255
255 255 255 255 255 255 255 255 255 255 255 255 255 255 255 255 255 255 255 10 0 255 255 133 255 255 255 133 255 255 255 255 255 133 133 255 255 133 255 133 255 255 255 133 10 10 255 255 255 255 255 133 133 255 133 255 133 133 255 255 133 255 0 255 255 255 133 133 255 255 133 133 255 255 255 255 255 255 255 255 255 255 255 255 255 255 255 255 255
255 255 255 255 255 255 255 255 255 255 255 255 255 255 255 255 133 255 10 133 10 255 133 133 255 255 255 255 255 133 133 255 133 10 255 255 133 255 255 255 255 255 255 255 133 133 255 255 133 255 133 255 255 133 133 255 255 255 255 133 255 255 255 133 10 10 133 10 255 255 133 133 133 10 255 255 133 133 255 255 255 255 255 255 255 255 255 255 255
255 255 255 255 255 255 255 255 255 255 255 255 255 255 255 255 255 10 133 255 133 0 255 133 133 133 255 255 255 255 255 10 255 133 255 255 255 255 10 133 255 255 255 255 255 255 255 255 133 255 255 133 133 133 133 255 133 133 133 255 255 133 255 133 0 255 255 133 255 255 255 255 133 10 255 255 255 255 255 255 255 255 255 255 255 255 255 255 255
255 255 255 255 255 255 255 255 255 255 255 255 255 255 255 255 255 255 255 133 133 255 255 255 255 133 133 255 255 255 133 0 255 133 133 255 255 255 255 255 133 255 133 255 0 255 0 133 255 255 255 255 133 255 255 10 255 255 255 133 255 255 255 255 255 133 255 10 255 255 133 133 255 133 133 255 255 255 255 255 255 255 255 255 255 255 255 255 255
255 255 255 255 255 255 255 255 255 255 255 255 255 255 255 255 255 10 255 255 133 255 255 255 255 133 133 10 255 255 255 255 255 10 133 133 255 255 133 255 255 133 255 133 133 255 255 133 255 133 255 255 133 133 133 133 133 133 10 10 255 133 10 133 133 133 255 255 255 255 133 255 255 255 255 255 255 255 255 255 255 255 255 255 255 255 255 255 255
255 255 255 255 255 255 255 255 255 255 255 255 255 255 255 255 255 255 133 133 255 255 133 133 10 255 133 133 255 133 255 0 10 255 0 255 255 133 133 255 10 255 255 255 10 255 255 255 255 133 133 255 0 133 133 255 0 133 255 133 255 255 255 0 255 133 255 133 255 133 133 255 255 133 133 133 255 255 255 255 255 255 255 255 255 255 255 255 255
255 255 255 255 255 255 255 255 255 255 255 255 255 255 255 255 255 255 255 133 255 255 255 255 255 133 255 255 255 255 255 255 10 255 10 133 133 133 255 255 133 255 133 10 255 255 133 10 255 133 255 255 255 133 133 255 133 255 255 255 255 255 255 255 133 255 255 255 133 133 255 255 255 255 255 255 255 255 255 255 255 255 255 255 255 255 255 255 255
255 255 255 255 255 255 255 255 255 255 255 255 255 255 255 255 255 255 255 255 255 255 255 255 10 133 133 133 133 133 10 255 255 255 133 133 133 133 133 133 255 133 133 133 133 133 133 255 133 10 255 133 10 133 255 255 133 255 10 255 255 133 133 255 133 255 255 255 255 255 133 133 255 255 255 255 255 255 255 255 255 255 255 255 255 255 255 255 255
255 255 255 255 255 255 255 255 255 255 255 255 255 255 255 255 255 255 255 255 255 255 255 255 255 255 255 255 133 133 10 255 255 10 255 133 255 255 10 255 255 255 255 133 133 10 255 133 255 255 133 133 255 255 255 255 255 133 255 133 0 10 133 133 133 133 255 0 255 255 133 255 255 255 255 255 255 255 255 255 255 255 255 255 255 255 255 255 255
255 255 255 255 255 255 255 255 255 255 255 255 255 255 255 255 255 255 255 255 255 255 255 255 255 255 133 255 255 255 255 133 133 255 133 10 255 133 255 133 133 133 255 255 255 255 10 255 133 133 133 133 133 255 255 255 133 255 255 133 133 255 255 133 255 255 255 255 255 255 255 255 255 255 255 255 255 255 255 255 255 255 255 255 255 255 255 255 255
255 255 255 255 255 255 255 255 255 255 255 255 255 255 255 255 255 255 255 255 255 255 255 255 255 255 133 255 255 255 255 255 133 255 255 133 255 255 255 133 133 255 255 10 133 255 133 255 255 255 133 133 255 133 255 255 133 133 0 255 255 133 133 255 255 133 133 133 255 255 255 255 255 255 255 255 255 255 255 255 255 255 255 255 255 255 255 255 255
255 255 255 255 255 255 255 255 255 255 255 255 255 255 255 255 255 255 255 255 255 255 255 255 255 255 255 255 255 255 255 255 255 255 133 133 255 0 255 255 133 255 133 255 255 10 0 133 10 10 255 133 255 255 255 133 255 255 255 255 133 133 133 255 255 133 255 255 255 255 255 255 255 255 255 255 255 255 255 255 255 255 255 255 255 255 255 255 255
255 255 255 255 255 255 255 255 255 255 255 255 255 255 255 255 255 255 255 255 255 255 255 255 255 255 255 255 255 255 255 255 255 255 255 255 133 255 255 255 255 10 0 255 255 255 255 255 10 255 255 255 133 133 255 133 255 133 255 255 133 255 133 255 255 255 255 255 255 255 255 255 255 255 255 255 255 255 255 255 255 255 255 255 255 255 255 255 255
255 255 255 255 255 255 255 255 255 255 255 255 255 255 255 255 255 255 255 255 255 255 255 255 255 255 255 255 255 255 255 255 255 255 10 255 133 10 0 255 255 133 255 10 255 255 133 133 255 255 133 133 255 255 255 255 255 255 133 133 133 255 255 255 255 255 255 255 255 255 255 255 255 255 255 255 255 255 255 255 255 255 255 255 255 255 255 255 255
255 255 255 255 255 255 255 255 255 255 255 255 255 255 255 255 255 255 255 255 255 255 255 255 255 255 255 255 255 255 255 255 255 255 255 133 255 255 255 255 255 10 255 133 133 133 255 133 255 255 133 255 10 255 255 255 255 255 255 255 255 255 255 255 255 255 255 255 255 255 255 255 255 255 255 255 255 255 255 255 255 255 255 255 255 255 255 255 255
255 255 255 255 255 255 255 255 255 255 255 255 255 255 255 255 255 255 255 255 255 255 255 255 255 255 255 255 255 255 255 255 255 255 255 255 133 255 255 133 255 255 255 255 255 255 255 255 255 133 255 255 255 255 255 255 133 255 255 255 255 255 255 255 255 255 255 255 255 255 255 255 255 255 255 255 255 255 255 255 255 255 255 255 255 255 255 255 255
255 255 255 255 255 255 255 255 255 255 255 255 255 255 255 255 255 255 255 255 255 255 255 255 255 255 255 255 255 255 255 255 255 255 255 255 255 255 255 255 255 255 255 255 255 255 133 255 255 255 255 255 255 255 255 255 255 255 255 255 255 255 255 255 255 255 255 255 255 255 255 255 255 255 255 255 255 255 255 255 255 255 255 255 255 255 255 255 255
