P2
109 109
255
255 255 255 255 255 255 255 255 255 255 255 255 255 255 255 255 255 255 255 255 255 255 255 255 255 255 255 255 255 255 255 255 255 255 255 255 255 255 255 255 255 255 255 255 255 255 255 255 255 255 255 255 255 255 255 255 255 255 255 255 255 255 255 255 255 255 255 255 255 255 255 255 255 255 255 255 255 255 255 255 255 255 255 255 255 255 255 255 255 255 255 255 255 255 255 255 255 255 255 255 255 255 255 255 255 255 255 255 255
255 255 255 255 255 255 255 255 255 255 255 255 255 255 255 255 255 255 255 255 255 255 255 255 255 255 255 255 255 255 255 255 255 255 255 255 255 255 255 255 255 255 255 255 255 255 255 255 255 255 255 255 255 255 255 255 255 255 255 255 255 255 255 255 255 255 255 255 255 255 255 255 255 255 255 255 255 255 255 255 255 255 255 255 255 255 255 255 255 255 255 255 255 255 255 255 255 255 255 255 255 255 255 255 255 255 255 255 255
255 255 255 255 255 255 255 255 255 255 255 255 255 255 255 255 255 255 255 255 255 255 255 255 255 255 255 255 255 255 255 255 255 255 255 255 255 255 255 255 255 255 255 255 255 255 255 255 255 255 255 255 255 255 255 255 255 255 255 255 255 255 255 255 255 255 255 255 255 255 255 255 255 255 255 255 255 255 255 255 255 255 255 255 255 255 255 255 255 255 255 255 255 255 255 255 255 255 255 255 255 255 255 255 255 255 255 255 255
255 255 255 255 255 255 255 255 255 255 255 255 255 255 255 255 255 255 255 255 255 255 255 255 255 255 255 255 255 255 255 255 255 255 255 255 255 255 255 255 255 255 255 255 255 255 255 255 255 255 255 255 255 255 255 255 255 255 255 255 255 255 255 255 255 255 255 255 255 255 255 255 255 255 255 255 255 255 255 255 255 255 255 255 255 255 255 255 255 255 255 255 255 255 255 255 255 255 255 255 255 255 255 255 255 255 255 255 255
255 255 255 255 255 255 255 255 255 255 255 255 255 255 255 255 255 255 255 255 255 255 255 255 255 255 255 255 255 255 255 255 255 255 255 255 255 255 255 255 255 255 255 255 255 255 255 255 255 255 255 255 255 255 255 255 255 255 255 255 255 255 255 255 255 255 255 255 255 255 255 255 255 255 255 255 255 255 255 255 255 255 255 255 255 255 255 255 255 255 255 255 255 255 255 255 255 255 255 255 255 255 255 255 255 255 255 255 255
255 255 255 255 255 255 255 255 255 255 255 255 255 255 255 255 255 255 255 255 255 255 255 255 255 255 255 255 255 255 255 255 255 255 255 255 255 255 255 255 255 255 255 255 255 255 255 255 255 255 255 255 255 255 255 255 255 255 255 255 255 255 255 255 255 255 255 255 255 255 255 255 255 255 255 255 255 255 255 255 255 255 255 255 255 255 255 255 255 255 255 255 255 255 255 255 255 255 255 255 255 255 255 255 255 255 255 255 255
255 255 255 255 255 255 255 255 255 255 255 255 255 255 255 255 255 255 255 255 255 255 255 255 255 255 255 255 255 255 255 255 255 255 255 255 255 255 255 255 255 255 255 255 255 255 255 255 255 255 255 255 255 255 255 255 255 255 255 255 255 255 255 255 255 255 255 255 255 255 255 255 255 255 255 255 255 255 255 255 255 255 255 255 255 255 255 255 255 255 255 255 255 255 255 255 255 255 255 255 255 255 255 255 255 255 255 255 255
255 255 255 255 255 255 255 255 255 255 255 255 255 255 255 255 255 255 255 255 255 255 255 255 255 255 255 255 255 255 255 255 255 255 255 255 255 255 255 255 255 255 255 255 255 255 255 255 255 255 255 255 255 255 255 255 255 255 255 255 255 255 255 255 255 255 255 255 255 255 255 255 255 255 255 255 255 255 255 255 255 255 255 255 255 255 255 255 255 255 255 255 255 255 255 255 255 255 255 255 255 255 255 255 255 255 255 255 255
255 255 255 255 255 255 255 255 255 255 255 255 255 255 255 255 255 255 255 255 255 255 255 255 255 255 255 255 255 255 255 255 255 255 255 255 255 255 255 255 255 255 255 255 255 255 255 255 255 255 255 255 255 255 255 255 255 255 255 255 255 255 255 255 255 255 255 255 255 255 255 255 255 255 255 255 255 255 255 255 255 255 255 255 255 255 255 255 255 255 255 255 255 255 255 255 255 255 255 255 255 255 255 255 255 255 255 255 255
255 255 255 255 255 255 255 255 255 255 255 255 255 255 255 255 255 255 255 255 255 255 255 255 255 255 255 255 255 255 255 255 255 255 255 255 255 255 255 255 255 255 255 255 255 255 255 255 255 255 255 255 255 255 255 255 255 255 255 255 255 255 255 255 255 255 255 255 255 255 255 255 255 255 255 255 255 255 255 255 255 255 255 255 255 255 255 255 255 255 255 255 255 255 255 255 255 255 255 255 255 255 255 255 255 255 255 255 255
255 255 255 255 255 255 255 255 255 255 255 255 255 255 255 255 255 255 255 255 255 255 255 255 255 255 255 255 255 255 255 255 255 255 255 255 255 255 255 255 255 255 255 255 255 255 255 255 255 255 255 255 255 255 255 255 255 255 255 255 255 255 255 255 255 255 255 255 255 255 255 255 255 255 255 255 255 255 255 255 255 255 255 255 255 255 255 255 255 255 255 255 255 255 255 255 255 255 255 255 255 255 255 255 255 255 255 255 255
255 255 255 255 255 255 255 255 255 255 255 255 255 255 255 255 255 255 255 255 255 255 255 255 255 255 255 255 255 255 255 255 255 255 255 255 255 255 255 255 255 255 255 255 255 255 255 255 255 255 255 255 255 255 255 255 255 255 255 255 255 255 255 255 255 255 255 255 255 255 255 255 255 255 255 255 255 255 255 255 255 255 255 255 255 255 255 255 255 255 255 255 255 255 255 255 255 255 255 255 255 255 255 255 255 255 255 255 255
255 255 255 255 255 255 255 255 255 255 255 255 255 255 255 255 255 255 255 255 255 255 255 255 255 255 255 255 255 255 255 255 255 255 255 255 255 255 255 255 255 255 255 255 255 255 255 255 255 255 255 255 255 255 255 255 255 255 255 255 255 255 255 255 255 255 255 255 255 255 255 255 255 255 255 255 255 255 255 255 255 255 255 255 255 255 255 255 255 255 255 255 255 255 255 255 255 255 255 255 255 255 255 255 255 255 255 255 255
255 255 255 255 255 255 255 255 255 255 255 255 255 255 255 255 255 255 255 255 255 255 255 255 255 255 255 255 255 255 255 255 255 255 255 255 255 255 255 255 255 255 255 255 255 255 255 255 255 255 255 255 255 255 255 255 255 255 255 255 255 255 255 255 255 255 255 255 255 255 255 255 255 255 255 255 255 255 255 255 255 255 255 255 255 255 255 255 255 255 255 255 255 255 255 255 255 255 255 255 255 255 255 255 255 255 255 255 255
255 255 255 255 255 255 255 255 255 255 255 255 255 255 255 255 255 255 255 255 255 255 255 255 255 255 255 255 255 255 255 255 255 254 250 247 242 237 241 239 242 244 247 252 253 255 255 255 255 255 255 255 255 255 255 255 255 255 255 255 255 255 255 255 255 255 255 255 255 255 255 255 255 255 255 255 255 255 255 255 255 255 255 255 255 255 255 255 255 255 255 255 255 255 255 255 255 255 255 255 255 255 255 255 255 255 255 255 255
255 255 255 255 255 255 255 255 255 255 255 255 255 255 255 255 255 255 255 255 255 255 255 255 255 255 255 255 255 255 255 252 238 219 210 201 197 200 195 201 206 208 209 218 224 233 241 247 253 255 255 255 255 255 255 255 255 255 255 255 255 255 255 255 255 255 255 255 255 255 255 255 255 255 255 255 255 255 255 255 255 255 255 255 255 255 255 255 255 255 255 255 255 255 255 255 255 255 255 255 255 255 255 255 255 255 255 255 255
255 255 255 255 255 255 255 255 255 255 255 255 255 255 255 255 255 255 255 255 255 255 255 255 255 255 255 255 255 255 241 217 197 183 172 168 164 164 166 171 178 178 181 188 191 195 201 216 222 234 246 252 255 255 255 255 255 255 255 255 255 255 255 255 255 255 255 255 255 255 255 255 255 255 255 255 255 255 255 255 255 255 255 255 255 255 255 255 255 255 255 255 255 255 255 255 255 255 255 255 255 255 255 255 255 255 255 255 255
255 255 255 255 255 255 255 255 255 255 255 255 255 255 255 255 255 255 255 255 255 255 255 255 255 255 255 255 253 232 199 175 159 146 142 140 141 148 154 159 157 157 159 158 162 166 172 182 189 198 210 224 237 250 255 255 255 255 255 255 255 255 255 255 255 255 255 255 255 255 255 255 255 255 255 255 255 255 255 255 255 255 255 255 255 255 255 255 255 255 255 255 255 255 255 255 255 255 255 255 255 255 255 255 255 255 255 255 255
255 255 255 255 255 255 255 255 255 255 255 255 255 255 255 255 255 255 255 255 255 255 255 255 255 255 255 254 230 188 162 149 136 127 136 146 159 162 171 166 170 166 167 164 159 154 163 160 164 171 180 190 200 213 231 246 254 255 255 255 255 255 255 255 255 255 255 255 255 255 255 255 255 255 255 255 255 255 255 255 255 255 255 255 255 255 255 255 255 255 255 255 255 255 255 255 255 255 255 255 255 255 255 255 255 255 255 255 255
255 255 255 255 255 255 255 255 255 255 255 255 255 255 255 255 255 255 255 255 255 255 255 255 255 255 255 233 191 163 141 128 126 147 163 174 181 183 186 187 184 184 182 185 183 180 169 160 160 162 160 168 172 182 196 212 229 246 254 255 255 255 255 255 255 255 255 255 255 255 255 255 255 255 255 255 255 255 255 255 255 255 255 255 255 255 255 255 255 255 255 255 255 255 255 255 255 255 255 255 255 255 255 255 255 255 255 255 255
255 255 255 255 255 255 255 255 255 255 255 255 255 255 255 255 255 255 255 255 255 255 255 255 255 255 244 195 160 139 125 128 151 182 185 189 193 189 193 195 195 196 193 195 191 192 189 184 178 175 161 160 156 158 169 178 194 208 230 247 255 255 255 255 255 255 255 255 255 255 255 255 255 255 255 255 255 255 255 255 255 255 255 255 255 255 255 255 255 255 255 255 255 255 255 255 255 255 255 255 255 255 255 255 255 255 255 255 255
255 255 255 255 255 255 255 255 255 255 255 255 255 255 255 255 255 255 255 255 255 255 255 255 255 252 212 167 135 125 128 150 180 187 197 196 189 199 198 201 201 198 199 200 200 195 195 196 190 189 184 174 164 155 154 159 162 175 187 208 233 251 255 255 255 255 255 255 255 255 255 255 255 255 255 255 255 255 255 255 255 255 255 255 255 255 255 255 255 255 255 255 255 255 255 255 255 255 255 255 255 255 255 255 255 255 255 255 255
255 255 255 255 255 255 255 255 255 255 255 255 255 255 255 255 255 255 255 255 255 255 255 255 255 236 183 145 129 126 151 184 188 196 198 204 202 205 203 205 205 206 206 205 202 203 204 200 199 193 192 188 185 174 165 158 148 157 166 180 194 216 238 253 255 255 255 255 255 255 255 255 255 255 255 255 255 255 255 255 255 255 255 255 255 255 255 255 255 255 255 255 255 255 255 255 255 255 255 255 255 255 255 255 255 255 255 255 255
255 255 255 255 255 255 255 255 255 255 255 255 255 255 255 255 255 255 255 255 255 255 255 255 250 207 163 141 123 134 179 190 195 200 199 205 204 206 205 205 208 204 205 208 206 207 205 201 200 200 197 198 195 194 186 179 165 151 157 153 167 179 202 224 248 255 255 255 255 255 255 255 255 255 255 255 255 255 255 255 255 255 255 255 255 255 255 255 255 255 255 255 255 255 255 255 255 255 255 255 255 255 255 255 255 255 255 255 255
255 255 255 255 255 255 255 255 255 255 255 255 255 255 255 255 255 255 255 255 255 255 255 255 235 188 155 128 126 163 189 198 198 202 208 203 207 205 205 210 208 210 208 208 209 205 206 207 205 207 204 199 202 194 194 182 187 178 160 154 146 162 169 189 212 240 254 255 255 255 255 255 255 255 255 255 255 255 255 255 255 255 255 255 255 255 255 255 255 255 255 255 255 255 255 255 255 255 255 255 255 255 255 255 255 255 255 255 255
255 255 255 255 255 255 255 255 255 255 255 255 255 255 255 255 255 255 255 255 255 255 255 251 213 170 141 133 143 192 197 199 205 202 206 210 210 210 207 211 209 209 212 209 208 214 205 209 208 209 207 203 201 201 203 198 192 194 183 169 155 149 153 158 174 201 231 253 255 255 255 255 255 255 255 255 255 255 255 255 255 255 255 255 255 255 255 255 255 255 255 255 255 255 255 255 255 255 255 255 255 255 255 255 255 255 255 255 255
255 255 255 255 255 255 255 255 255 255 255 255 255 255 255 255 255 255 255 255 255 255 255 242 195 155 137 132 169 192 199 204 202 205 212 212 210 211 211 209 212 212 212 214 209 213 211 213 211 209 206 211 207 206 206 200 196 199 196 189 180 167 150 147 157 170 191 219 249 255 255 255 255 255 255 255 255 255 255 255 255 255 255 255 255 255 255 255 255 255 255 255 255 255 255 255 255 255 255 255 255 255 255 255 255 255 255 255 255
255 255 255 255 255 255 255 255 255 255 255 255 255 255 255 255 255 255 255 255 255 255 255 220 175 159 136 150 186 196 201 204 209 211 210 217 212 215 210 212 210 215 212 212 211 215 215 212 212 209 210 209 212 206 209 206 203 199 198 195 189 183 169 152 149 152 164 186 215 245 255 255 255 255 255 255 255 255 255 255 255 255 255 255 255 255 255 255 255 255 255 255 255 255 255 255 255 255 255 255 255 255 255 255 255 255 255 255 255
255 255 255 255 255 255 255 255 255 255 255 255 255 255 255 255 255 255 255 255 255 255 251 204 170 145 139 164 193 201 204 205 206 211 211 214 212 214 216 215 213 213 212 211 214 211 213 211 217 212 210 213 209 211 210 206 205 206 203 201 196 193 190 174 158 144 153 164 183 209 238 255 255 255 255 255 255 255 255 255 255 255 255 255 255 255 255 255 255 255 255 255 255 255 255 255 255 255 255 255 255 255 255 255 255 255 255 255 255
255 255 255 255 255 255 255 255 255 255 255 255 255 255 255 255 255 255 255 255 255 255 240 194 161 143 147 177 196 202 209 206 210 211 213 213 216 216 218 214 215 214 213 212 218 215 213 214 213 214 211 211 211 210 211 208 207 205 207 201 197 193 192 187 180 162 142 143 159 178 206 241 255 255 255 255 255 255 255 255 255 255 255 255 255 255 255 255 255 255 255 255 255 255 255 255 255 255 255 255 255 255 255 255 255 255 255 255 255
255 255 255 255 255 255 255 255 255 255 255 255 255 255 255 255 255 255 255 255 255 255 224 183 153 143 152 189 196 202 208 209 212 212 214 214 214 216 218 217 218 218 216 212 215 214 214 214 211 215 217 209 211 211 212 211 211 209 207 205 204 202 195 196 193 179 165 140 137 153 167 202 237 254 255 255 255 255 255 255 255 255 255 255 255 255 255 255 255 255 255 255 255 255 255 255 255 255 255 255 255 255 255 255 255 255 255 255 255
255 255 255 255 255 255 255 255 255 255 255 255 255 255 255 255 255 255 255 255 255 252 214 176 151 146 170 194 205 204 207 209 211 214 216 216 217 216 217 216 219 218 213 219 217 214 216 218 214 216 213 214 214 215 214 215 208 210 214 211 207 207 205 196 197 189 183 177 145 138 145 171 203 236 255 255 255 255 255 255 255 255 255 255 255 255 255 255 255 255 255 255 255 255 255 255 255 255 255 255 255 255 255 255 255 255 255 255 255
255 255 255 255 255 255 255 255 255 255 255 255 255 255 255 255 255 255 255 255 255 246 203 164 147 145 177 201 206 207 205 210 215 213 214 221 219 219 219 219 215 219 217 218 217 218 218 218 212 218 214 217 215 217 214 213 212 212 207 212 209 208 204 203 203 195 187 181 169 146 136 149 174 200 239 255 255 255 255 255 255 255 255 255 255 255 255 255 255 255 255 255 255 255 255 255 255 255 255 255 255 255 255 255 255 255 255 255 255
255 255 255 255 255 255 255 255 255 255 255 255 255 255 255 255 255 255 255 255 255 237 195 162 143 154 189 202 204 205 215 214 214 211 217 213 214 217 216 218 217 214 219 217 215 214 215 216 219 217 219 215 218 215 215 212 213 211 214 213 211 203 206 203 202 197 195 192 182 175 145 137 151 172 206 243 255 255 255 255 255 255 255 255 255 255 255 255 255 255 255 255 255 255 255 255 255 255 255 255 255 255 255 255 255 255 255 255 255
255 255 255 255 255 255 255 255 255 255 255 255 255 255 255 255 255 255 255 255 255 229 187 153 149 163 191 205 211 209 211 214 216 216 215 211 214 218 222 218 216 217 217 216 219 218 218 220 217 220 219 216 210 218 216 215 216 209 214 210 213 210 208 208 209 200 201 192 191 186 172 144 138 150 176 211 247 255 255 255 255 255 255 255 255 255 255 255 255 255 255 255 255 255 255 255 255 255 255 255 255 255 255 255 255 255 255 255 255
255 255 255 255 255 255 255 255 255 255 255 255 255 255 255 255 255 255 255 255 254 220 185 158 151 168 201 205 205 213 212 213 213 216 215 215 215 217 222 218 219 217 221 222 220 219 217 218 220 218 216 217 220 218 214 217 215 216 212 212 209 209 211 208 210 204 206 202 194 192 185 170 134 137 152 180 219 250 255 255 255 255 255 255 255 255 255 255 255 255 255 255 255 255 255 255 255 255 255 255 255 255 255 255 255 255 255 255 255
255 255 255 255 255 255 255 255 255 255 255 255 255 255 255 255 255 255 255 255 252 213 178 158 155 181 196 206 210 211 214 214 213 215 218 217 219 216 222 216 218 220 217 220 217 219 219 216 219 220 220 216 217 216 215 217 216 213 214 213 215 212 207 209 211 205 202 203 198 198 193 187 165 141 140 158 188 225 254 255 255 255 255 255 255 255 255 255 255 255 255 255 255 255 255 255 255 255 255 255 255 255 255 255 255 255 255 255 255
255 255 255 255 255 255 255 255 255 255 255 255 255 255 255 255 255 255 255 255 249 205 172 155 152 189 197 208 209 209 214 219 214 217 218 219 220 217 220 219 217 225 220 218 221 217 221 219 219 216 219 221 218 217 215 216 213 217 218 214 213 212 209 209 208 204 204 204 204 194 193 187 181 156 135 149 161 193 236 255 255 255 255 255 255 255 255 255 255 255 255 255 255 255 255 255 255 255 255 255 255 255 255 255 255 255 255 255 255
255 255 255 255 255 255 255 255 255 255 255 255 255 255 255 255 255 255 255 255 245 201 172 156 163 194 199 205 208 214 213 217 222 220 215 218 220 219 217 220 221 221 216 218 218 222 218 218 216 221 219 218 218 218 219 216 216 215 218 216 216 211 211 212 210 209 205 206 206 204 199 191 186 183 155 137 138 168 208 246 255 255 255 255 255 255 255 255 255 255 255 255 255 255 255 255 255 255 255 255 255 255 255 255 255 255 255 255 255
255 255 255 255 255 255 255 255 255 255 255 255 255 255 255 255 255 255 255 255 241 200 171 153 165 194 202 209 215 215 214 216 216 217 216 219 219 217 218 218 221 221 221 217 219 221 221 219 220 219 217 221 222 215 218 218 216 216 216 213 213 213 213 213 213 209 209 206 206 204 201 198 191 189 176 142 134 152 179 220 253 255 255 255 255 255 255 255 255 255 255 255 255 255 255 255 255 255 255 255 255 255 255 255 255 255 255 255 255
255 255 255 255 255 255 255 255 255 255 255 255 255 255 255 255 255 255 255 255 238 196 169 157 162 196 204 209 207 214 214 213 219 217 220 217 220 220 218 222 218 217 218 220 221 220 220 222 219 219 220 218 218 217 218 221 217 219 215 217 212 218 211 212 211 214 209 210 211 205 203 202 201 192 185 168 139 141 158 191 238 255 255 255 255 255 255 255 255 255 255 255 255 255 255 255 255 255 255 255 255 255 255 255 255 255 255 255 255
255 255 255 255 255 255 255 255 255 255 255 255 255 255 255 255 255 255 255 255 235 194 166 156 172 198 206 207 212 213 214 217 216 220 218 220 220 218 219 218 222 219 219 223 221 219 221 220 218 220 219 220 219 220 216 218 215 218 217 217 218 212 213 215 214 211 212 210 208 206 206 200 205 192 188 183 160 138 145 169 213 249 255 255 255 255 255 255 255 255 255 255 255 255 255 255 255 255 255 255 255 255 255 255 255 255 255 255 255
255 255 255 255 255 255 255 255 255 255 255 255 255 255 255 255 255 255 255 255 233 192 169 154 175 198 204 210 213 215 213 217 218 220 221 221 220 219 219 219 223 220 220 222 221 218 219 221 219 219 218 217 219 219 216 220 215 220 218 216 217 217 212 212 214 212 213 211 208 207 208 200 202 199 191 184 170 146 139 158 185 227 255 255 255 255 255 255 255 255 255 255 255 255 255 255 255 255 255 255 255 255 255 255 255 255 255 255 255
255 255 255 255 255 255 255 255 255 255 255 255 255 255 255 255 255 255 255 255 229 193 168 158 174 201 208 211 209 215 215 217 213 221 221 219 220 221 222 221 220 221 222 223 223 217 218 221 221 221 221 221 219 217 219 216 217 219 215 217 217 214 215 215 214 212 210 212 212 211 207 207 208 203 198 188 186 168 133 142 163 205 245 255 255 255 255 255 255 255 255 255 255 255 255 255 255 255 255 255 255 255 255 255 255 255 255 255 255
255 255 255 255 255 255 255 255 255 255 255 255 255 255 255 255 255 255 255 255 229 189 166 161 175 199 208 207 211 212 213 215 218 219 218 221 221 220 220 221 220 221 218 222 225 222 219 217 222 220 221 221 221 219 221 222 218 219 217 219 216 216 216 216 217 213 214 214 212 210 207 208 206 208 201 194 187 182 152 134 147 177 224 254 255 255 255 255 255 255 255 255 255 255 255 255 255 255 255 255 255 255 255 255 255 255 255 255 255
255 255 255 255 255 255 255 255 255 255 255 255 255 255 255 255 255 255 255 255 230 199 169 162 176 200 206 207 210 218 216 217 218 217 218 219 219 219 220 218 220 226 221 219 218 219 221 218 220 221 220 222 216 217 219 218 219 214 219 218 218 217 215 217 217 212 215 214 216 210 213 207 210 206 200 199 191 187 172 142 137 167 200 244 255 255 255 255 255 255 255 255 255 255 255 255 255 255 255 255 255 255 255 255 255 255 255 255 255
255 255 255 255 255 255 255 255 255 255 255 255 255 255 255 255 255 255 255 255 229 195 171 159 181 198 205 210 214 216 215 215 218 219 221 220 219 221 222 221 219 222 220 221 222 222 217 221 218 216 221 222 216 219 219 221 220 218 218 218 218 218 217 216 214 212 214 215 214 208 214 211 201 205 201 200 194 191 182 156 141 151 182 225 254 255 255 255 255 255 255 255 255 255 255 255 255 255 255 255 255 255 255 255 255 255 255 255 255
255 255 255 255 255 255 255 255 255 255 255 255 255 255 255 255 255 255 255 255 235 190 174 162 179 196 206 209 211 214 216 213 223 217 219 219 221 222 220 221 220 219 224 220 223 218 219 218 221 219 222 221 222 220 220 220 221 220 217 218 220 216 219 215 216 215 214 213 211 210 208 213 207 207 202 200 201 190 189 174 134 143 165 204 247 255 255 255 255 255 255 255 255 255 255 255 255 255 255 255 255 255 255 255 255 255 255 255 255
255 255 255 255 255 255 255 255 255 255 255 255 255 255 255 255 255 255 255 255 233 200 179 158 177 200 207 207 212 215 213 216 218 219 221 218 222 222 218 220 220 222 219 221 218 220 222 220 222 220 216 216 217 220 218 220 219 221 218 216 219 216 213 215 219 216 218 215 214 212 209 210 208 208 207 202 201 193 191 185 151 129 152 183 229 255 255 255 255 255 255 255 255 255 255 255 255 255 255 255 255 255 255 255 255 255 255 255 255
255 255 255 255 255 255 255 255 255 255 255 255 255 255 255 255 255 255 255 255 238 203 177 160 173 195 205 214 211 213 218 220 217 220 219 219 222 223 219 221 218 222 223 221 222 219 221 219 222 219 222 221 220 221 221 223 217 219 217 220 221 217 218 219 216 215 216 217 213 214 209 208 210 207 206 207 199 199 192 190 170 137 145 171 211 251 255 255 255 255 255 255 255 255 255 255 255 255 255 255 255 255 255 255 255 255 255 255 255
255 255 255 255 255 255 255 255 255 255 255 255 255 255 255 255 255 255 255 255 243 202 174 163 173 195 207 208 212 215 216 214 218 214 220 220 218 220 216 222 222 221 224 223 221 220 223 221 221 220 218 217 220 219 220 220 221 219 218 217 217 221 219 219 217 215 218 214 215 214 212 213 214 207 206 205 205 201 196 194 183 153 141 160 198 238 255 255 255 255 255 255 255 255 255 255 255 255 255 255 255 255 255 255 255 255 255 255 255
255 255 255 255 255 255 255 255 255 255 255 255 255 255 255 255 255 255 255 255 245 207 184 168 170 196 202 208 213 212 215 219 217 218 218 223 221 222 219 219 218 222 219 220 221 219 221 220 220 222 221 221 222 219 218 220 222 218 217 216 219 218 218 216 215 213 217 213 215 212 214 214 212 208 208 207 205 198 202 192 187 162 136 151 179 220 254 255 255 255 255 255 255 255 255 255 255 255 255 255 255 255 255 255 255 255 255 255 255
255 255 255 255 255 255 255 255 255 255 255 255 255 255 255 255 255 255 255 255 249 215 187 167 173 192 203 207 212 214 216 217 219 218 218 221 223 218 221 223 220 222 223 223 223 221 221 221 222 222 220 220 221 221 220 219 221 217 219 220 222 215 218 220 215 216 215 213 218 214 213 217 212 209 211 210 207 202 202 194 189 175 143 143 168 206 249 255 255 255 255 255 255 255 255 255 255 255 255 255 255 255 255 255 255 255 255 255 255
255 255 255 255 255 255 255 255 255 255 255 255 255 255 255 255 255 255 255 255 253 220 191 169 164 191 201 210 210 217 213 217 216 217 217 219 217 221 219 220 220 223 220 224 222 223 222 220 220 224 219 220 220 220 219 218 220 217 218 222 218 221 216 218 220 217 217 220 218 218 212 215 212 213 210 213 208 201 201 200 195 182 153 137 158 190 235 255 255 255 255 255 255 255 255 255 255 255 255 255 255 255 255 255 255 255 255 255 255
255 255 255 255 255 255 255 255 255 255 255 255 255 255 255 255 255 255 255 255 254 226 194 175 166 181 204 206 211 214 215 215 219 217 221 219 220 221 218 221 222 221 221 221 218 225 219 220 221 218 221 220 219 224 222 220 221 219 217 221 220 220 221 217 218 216 220 216 216 217 216 214 210 211 213 209 209 207 205 202 193 188 166 141 152 183 222 255 255 255 255 255 255 255 255 255 255 255 255 255 255 255 255 255 255 255 255 255 255
255 255 255 255 255 255 255 255 255 255 255 255 255 255 255 255 255 255 255 255 255 235 203 178 171 178 197 205 210 214 217 218 216 218 219 220 216 220 221 222 220 220 222 220 221 222 222 222 222 221 220 221 220 219 218 220 222 221 222 219 219 220 219 220 219 217 218 217 218 215 220 212 212 213 210 210 210 205 202 203 194 186 177 146 148 174 210 251 255 255 255 255 255 255 255 255 255 255 255 255 255 255 255 255 255 255 255 255 255
255 255 255 255 255 255 255 255 255 255 255 255 255 255 255 255 255 255 255 255 255 241 203 184 170 176 194 204 207 213 217 215 216 215 219 217 218 221 219 223 221 222 219 221 218 220 217 222 220 222 220 219 223 223 219 221 221 223 218 218 219 221 222 221 219 216 215 221 216 214 214 215 216 214 212 213 209 208 202 203 196 193 188 155 144 161 194 244 255 255 255 255 255 255 255 255 255 255 255 255 255 255 255 255 255 255 255 255 255
255 255 255 255 255 255 255 255 255 255 255 255 255 255 255 255 255 255 255 255 255 248 216 187 173 172 190 204 209 214 214 216 216 220 220 221 219 219 222 219 220 224 222 220 221 221 220 221 221 220 221 222 222 219 220 219 221 220 222 222 219 218 217 219 216 219 217 218 217 213 215 213 212 213 212 214 211 207 206 205 201 193 188 163 143 158 190 231 255 255 255 255 255 255 255 255 255 255 255 255 255 255 255 255 255 255 255 255 255
255 255 255 255 255 255 255 255 255 255 255 255 255 255 255 255 255 255 255 255 255 253 224 189 175 170 189 202 204 206 215 215 219 213 221 221 221 221 217 219 222 219 221 220 222 219 221 220 222 223 220 219 225 222 220 220 224 221 219 220 219 219 220 218 220 220 218 215 216 220 214 216 217 212 211 211 210 207 208 203 204 194 190 178 143 147 179 223 254 255 255 255 255 255 255 255 255 255 255 255 255 255 255 255 255 255 255 255 255
255 255 255 255 255 255 255 255 255 255 255 255 255 255 255 255 255 255 255 255 255 255 233 200 180 167 177 202 203 212 212 214 215 217 220 218 218 219 220 220 220 218 221 221 221 220 221 220 222 222 222 223 222 224 222 221 222 223 219 224 219 220 218 217 218 220 220 217 215 218 214 214 210 217 216 214 206 207 206 207 200 199 194 180 150 152 177 212 252 255 255 255 255 255 255 255 255 255 255 255 255 255 255 255 255 255 255 255 255
255 255 255 255 255 255 255 255 255 255 255 255 255 255 255 255 255 255 255 255 255 255 243 210 183 168 176 195 204 208 215 213 214 217 217 219 218 221 220 219 220 220 220 222 223 222 222 219 223 220 222 222 222 222 221 222 222 223 222 221 222 219 216 219 221 217 217 218 219 217 216 216 215 215 214 213 211 209 209 207 200 202 192 183 155 146 174 203 247 255 255 255 255 255 255 255 255 255 255 255 255 255 255 255 255 255 255 255 255
255 255 255 255 255 255 255 255 255 255 255 255 255 255 255 255 255 255 255 255 255 255 251 219 193 177 166 187 202 209 211 216 215 217 218 217 222 219 219 218 221 222 219 220 221 224 222 220 222 224 222 221 222 219 223 219 220 219 217 224 220 224 222 221 218 219 219 215 220 219 215 216 216 214 211 212 213 212 211 207 206 201 198 185 167 152 171 196 241 255 255 255 255 255 255 255 255 255 255 255 255 255 255 255 255 255 255 255 255
255 255 255 255 255 255 255 255 255 255 255 255 255 255 255 255 255 255 255 255 255 255 255 233 202 181 172 179 196 206 209 217 214 217 221 215 219 218 217 218 221 220 219 220 222 223 222 220 220 221 221 220 224 219 219 220 219 222 222 221 223 219 220 217 221 218 220 222 218 218 217 215 216 215 213 212 214 213 206 207 208 201 199 188 168 140 158 189 233 255 255 255 255 255 255 255 255 255 255 255 255 255 255 255 255 255 255 255 255
255 255 255 255 255 255 255 255 255 255 255 255 255 255 255 255 255 255 255 255 255 255 255 243 213 187 177 172 191 203 208 211 213 212 218 217 218 218 221 217 221 222 221 222 223 218 219 221 222 221 221 221 223 223 220 225 220 218 222 220 220 221 218 218 221 214 218 220 220 218 219 216 215 219 214 212 213 213 210 207 207 202 196 192 174 154 154 186 227 255 255 255 255 255 255 255 255 255 255 255 255 255 255 255 255 255 255 255 255
255 255 255 255 255 255 255 255 255 255 255 255 255 255 255 255 255 255 255 255 255 255 255 253 226 197 177 172 189 200 204 209 212 212 217 218 216 219 219 219 221 219 222 221 221 217 221 221 220 221 220 220 221 221 220 222 222 223 223 222 218 219 219 221 220 222 219 219 219 218 218 222 218 216 215 216 213 213 208 210 207 199 202 195 176 152 152 185 222 254 255 255 255 255 255 255 255 255 255 255 255 255 255 255 255 255 255 255 255
255 255 255 255 255 255 255 255 255 255 255 255 255 255 255 255 255 255 255 255 255 255 255 255 239 208 191 170 178 194 205 210 211 214 211 214 216 216 217 220 218 218 218 222 222 221 222 221 221 219 220 221 223 222 219 219 218 221 220 219 220 223 223 219 218 220 217 217 216 218 217 218 216 214 216 213 210 214 212 210 209 205 200 195 179 155 155 174 217 253 255 255 255 255 255 255 255 255 255 255 255 255 255 255 255 255 255 255 255
255 255 255 255 255 255 255 255 255 255 255 255 255 255 255 255 255 255 255 255 255 255 255 255 248 222 198 176 168 185 200 210 209 210 217 215 217 217 221 216 220 218 220 219 221 221 222 221 221 222 223 222 222 225 224 218 221 220 223 218 221 220 221 220 221 221 223 219 216 217 219 216 216 215 216 215 212 212 208 209 204 204 200 196 182 156 156 172 214 251 255 255 255 255 255 255 255 255 255 255 255 255 255 255 255 255 255 255 255
255 255 255 255 255 255 255 255 255 255 255 255 255 255 255 255 255 255 255 255 255 255 255 255 255 236 207 188 175 174 196 203 206 214 214 212 216 213 216 218 220 221 222 218 219 218 218 224 224 222 221 223 219 223 220 221 219 222 220 222 219 219 221 221 220 219 217 218 219 219 220 217 216 221 217 214 216 214 214 212 209 204 197 197 189 159 160 178 206 251 255 255 255 255 255 255 255 255 255 255 255 255 255 255 255 255 255 255 255
255 255 255 255 255 255 255 255 255 255 255 255 255 255 255 255 255 255 255 255 255 255 255 255 255 250 219 198 172 174 183 203 203 211 211 213 216 211 218 217 220 222 219 219 219 220 221 218 223 222 221 223 218 221 223 219 222 221 220 220 221 220 220 222 217 217 218 221 217 219 220 217 219 215 216 212 215 212 213 210 210 206 201 196 185 162 147 179 208 248 255 255 255 255 255 255 255 255 255 255 255 255 255 255 255 255 255 255 255
255 255 255 255 255 255 255 255 255 255 255 255 255 255 255 255 255 255 255 255 255 255 255 255 255 255 237 212 188 174 176 192 201 206 209 211 214 216 217 218 217 222 216 221 220 219 220 220 220 219 224 223 223 219 220 220 221 221 224 220 221 220 221 221 220 217 219 220 216 218 219 218 217 215 214 215 212 213 213 208 213 204 200 196 188 166 158 174 206 249 255 255 255 255 255 255 255 255 255 255 255 255 255 255 255 255 255 255 255
255 255 255 255 255 255 255 255 255 255 255 255 255 255 255 255 255 255 255 255 255 255 255 255 255 255 250 223 200 184 172 177 198 205 209 212 212 215 217 217 221 220 217 220 217 220 220 221 222 220 219 219 222 222 218 223 220 221 221 218 220 221 220 223 221 219 219 220 218 219 218 220 217 218 214 216 215 211 213 207 205 205 201 195 188 171 162 176 208 246 255 255 255 255 255 255 255 255 255 255 255 255 255 255 255 255 255 255 255
255 255 255 255 255 255 255 255 255 255 255 255 255 255 255 255 255 255 255 255 255 255 255 255 255 255 255 241 212 196 178 173 186 197 206 208 212 213 216 218 214 219 216 220 221 219 218 219 218 219 220 222 221 222 221 222 223 217 217 219 218 220 224 219 221 223 220 218 220 222 218 218 215 216 220 214 213 211 215 210 205 204 199 196 187 166 156 177 210 246 255 255 255 255 255 255 255 255 255 255 255 255 255 255 255 255 255 255 255
255 255 255 255 255 255 255 255 255 255 255 255 255 255 255 255 255 255 255 255 255 255 255 255 255 255 255 253 231 202 185 173 175 190 201 208 210 213 212 214 214 213 216 216 218 219 220 221 222 222 218 221 222 219 222 220 218 217 220 220 221 220 218 222 218 219 218 219 218 216 221 219 216 216 217 214 213 214 210 215 211 209 202 193 188 164 155 174 210 247 255 255 255 255 255 255 255 255 255 255 255 255 255 255 255 255 255 255 255
255 255 255 255 255 255 255 255 255 255 255 255 255 255 255 255 255 255 255 255 255 255 255 255 255 255 255 255 248 222 204 180 166 176 196 200 205 209 208 212 213 215 215 217 219 218 219 220 221 219 219 220 221 222 219 219 222 221 223 220 222 222 221 222 219 219 219 220 220 220 217 219 217 215 214 218 213 213 211 212 206 207 200 195 185 168 154 177 210 248 255 255 255 255 255 255 255 255 255 255 255 255 255 255 255 255 255 255 255
255 255 255 255 255 255 255 255 255 255 255 255 255 255 255 255 255 255 255 255 255 255 255 255 255 255 255 255 255 241 214 195 178 175 184 194 205 207 212 210 215 214 219 219 216 219 217 220 217 221 219 221 221 221 219 218 221 220 219 220 218 217 222 220 222 217 218 219 219 219 220 220 216 215 217 217 211 213 209 211 210 204 203 193 186 164 159 174 211 248 255 255 255 255 255 255 255 255 255 255 255 255 255 255 255 255 255 255 255
255 255 255 255 255 255 255 255 255 255 255 255 255 255 255 255 255 255 255 255 255 255 255 255 255 255 255 255 255 253 233 203 188 173 173 183 200 202 209 211 214 215 218 217 218 216 218 221 215 216 218 219 222 221 220 219 218 220 218 220 221 219 216 217 219 218 218 220 219 218 216 214 217 215 219 215 214 214 210 211 206 201 198 196 185 168 157 178 214 250 255 255 255 255 255 255 255 255 255 255 255 255 255 255 255 255 255 255 255
255 255 255 255 255 255 255 255 255 255 255 255 255 255 255 255 255 255 255 255 255 255 255 255 255 255 255 255 255 255 251 227 206 185 177 171 186 201 202 208 209 216 214 213 215 218 217 220 219 217 218 219 222 219 221 221 221 221 218 218 218 220 219 220 219 219 220 220 219 221 217 220 219 215 214 216 215 216 213 210 204 202 203 193 187 164 155 186 220 251 255 255 255 255 255 255 255 255 255 255 255 255 255 255 255 255 255 255 255
255 255 255 255 255 255 255 255 255 255 255 255 255 255 255 255 255 255 255 255 255 255 255 255 255 255 255 255 255 255 255 248 224 202 183 172 175 185 198 205 207 212 211 213 216 216 218 218 218 216 216 217 220 218 218 219 220 220 220 220 219 215 217 219 219 217 216 219 217 219 217 218 214 218 213 214 213 212 212 209 206 205 199 193 185 163 164 190 227 253 255 255 255 255 255 255 255 255 255 255 255 255 255 255 255 255 255 255 255
255 255 255 255 255 255 255 255 255 255 255 255 255 255 255 255 255 255 255 255 255 255 255 255 255 255 255 255 255 255 255 255 244 220 198 184 171 173 182 195 206 206 208 212 215 216 216 215 214 217 216 215 217 219 217 219 218 223 218 221 220 217 219 217 218 218 216 217 219 219 216 219 220 213 217 216 210 214 209 208 204 200 198 191 180 157 166 194 228 254 255 255 255 255 255 255 255 255 255 255 255 255 255 255 255 255 255 255 255
255 255 255 255 255 255 255 255 255 255 255 255 255 255 255 255 255 255 255 255 255 255 255 255 255 255 255 255 255 255 255 255 255 243 217 197 185 170 172 185 196 202 206 208 206 212 213 217 215 214 216 217 214 218 217 217 218 218 223 219 218 217 221 223 217 219 219 220 218 215 214 219 216 212 215 214 209 210 211 211 207 205 196 192 180 160 166 199 234 255 255 255 255 255 255 255 255 255 255 255 255 255 255 255 255 255 255 255 255
255 255 255 255 255 255 255 255 255 255 255 255 255 255 255 255 255 255 255 255 255 255 255 255 255 255 255 255 255 255 255 255 255 255 239 216 202 181 175 168 180 195 201 204 209 208 210 218 217 217 215 215 219 215 218 215 217 220 216 216 221 218 219 220 219 219 217 215 214 216 214 219 214 214 210 213 211 209 212 209 203 205 196 190 171 155 173 203 242 255 255 255 255 255 255 255 255 255 255 255 255 255 255 255 255 255 255 255 255
255 255 255 255 255 255 255 255 255 255 255 255 255 255 255 255 255 255 255 255 255 255 255 255 255 255 255 255 255 255 255 255 255 255 255 243 216 197 183 173 168 174 190 201 208 204 211 211 211 215 213 214 217 216 215 214 218 216 216 218 219 219 217 219 215 217 216 220 216 214 215 216 215 211 213 211 211 208 207 208 202 200 192 190 163 157 176 210 247 255 255 255 255 255 255 255 255 255 255 255 255 255 255 255 255 255 255 255 255
255 255 255 255 255 255 255 255 255 255 255 255 255 255 255 255 255 255 255 255 255 255 255 255 255 255 255 255 255 255 255 255 255 255 255 255 245 222 205 180 175 169 168 189 196 203 205 206 210 211 211 213 218 218 213 217 214 216 214 218 219 218 215 216 212 216 216 211 220 212 216 213 213 213 215 213 209 208 205 206 202 200 192 184 161 165 184 220 252 255 255 255 255 255 255 255 255 255 255 255 255 255 255 255 255 255 255 255 255
255 255 255 255 255 255 255 255 255 255 255 255 255 255 255 255 255 255 255 255 255 255 255 255 255 255 255 255 255 255 255 255 255 255 255 255 255 247 223 208 186 174 172 170 174 192 199 204 210 206 212 208 212 215 212 212 211 216 217 212 214 215 215 218 217 217 214 215 210 214 216 216 213 212 210 208 212 206 203 204 203 193 188 171 157 166 194 233 254 255 255 255 255 255 255 255 255 255 255 255 255 255 255 255 255 255 255 255 255
255 255 255 255 255 255 255 255 255 255 255 255 255 255 255 255 255 255 255 255 255 255 255 255 255 255 255 255 255 255 255 255 255 255 255 255 255 255 249 231 209 190 180 170 163 173 185 197 202 202 206 209 209 210 211 212 213 215 211 212 214 217 214 216 215 212 215 215 214 212 214 214 211 210 210 211 206 202 207 199 197 190 181 157 154 171 204 240 255 255 255 255 255 255 255 255 255 255 255 255 255 255 255 255 255 255 255 255 255
255 255 255 255 255 255 255 255 255 255 255 255 255 255 255 255 255 255 255 255 255 255 255 255 255 255 255 255 255 255 255 255 255 255 255 255 255 255 255 253 236 213 198 182 172 163 167 171 190 198 200 205 206 208 208 205 210 213 212 212 214 213 215 213 214 213 213 215 214 212 212 211 209 210 209 208 207 204 201 200 193 183 174 152 153 183 219 250 255 255 255 255 255 255 255 255 255 255 255 255 255 255 255 255 255 255 255 255 255
255 255 255 255 255 255 255 255 255 255 255 255 255 255 255 255 255 255 255 255 255 255 255 255 255 255 255 255 255 255 255 255 255 255 255 255 255 255 255 255 254 244 224 208 194 173 168 160 165 176 184 196 203 205 202 206 211 210 208 212 210 213 212 210 210 215 213 211 209 208 208 211 209 207 209 205 204 203 198 198 195 176 165 152 165 193 230 254 255 255 255 255 255 255 255 255 255 255 255 255 255 255 255 255 255 255 255 255 255
255 255 255 255 255 255 255 255 255 255 255 255 255 255 255 255 255 255 255 255 255 255 255 255 255 255 255 255 255 255 255 255 255 255 255 255 255 255 255 255 255 255 252 233 214 194 181 171 161 158 164 170 182 193 196 201 205 205 212 205 208 210 207 207 209 210 211 209 208 212 210 207 205 205 204 203 201 196 197 192 180 165 140 146 177 210 246 255 255 255 255 255 255 255 255 255 255 255 255 255 255 255 255 255 255 255 255 255 255
255 255 255 255 255 255 255 255 255 255 255 255 255 255 255 255 255 255 255 255 255 255 255 255 255 255 255 255 255 255 255 255 255 255 255 255 255 255 255 255 255 255 255 254 246 226 210 192 180 168 162 161 158 164 175 188 197 201 200 203 205 205 201 204 208 206 205 205 202 206 208 203 201 204 199 196 198 192 188 182 163 133 143 161 194 227 254 255 255 255 255 255 255 255 255 255 255 255 255 255 255 255 255 255 255 255 255 255 255
255 255 255 255 255 255 255 255 255 255 255 255 255 255 255 255 255 255 255 255 255 255 255 255 255 255 255 255 255 255 255 255 255 255 255 255 255 255 255 255 255 255 255 255 255 253 242 221 204 190 180 173 160 165 155 162 163 171 184 191 197 200 198 199 205 204 202 200 199 201 201 202 199 201 193 191 189 185 174 156 136 129 151 177 208 246 255 255 255 255 255 255 255 255 255 255 255 255 255 255 255 255 255 255 255 255 255 255 255
255 255 255 255 255 255 255 255 255 255 255 255 255 255 255 255 255 255 255 255 255 255 255 255 255 255 255 255 255 255 255 255 255 255 255 255 255 255 255 255 255 255 255 255 255 255 255 252 240 220 203 193 183 173 165 161 153 156 154 161 165 172 185 184 194 190 196 193 196 195 195 194 188 185 184 180 171 156 141 126 135 149 168 196 237 255 255 255 255 255 255 255 255 255 255 255 255 255 255 255 255 255 255 255 255 255 255 255 255
255 255 255 255 255 255 255 255 255 255 255 255 255 255 255 255 255 255 255 255 255 255 255 255 255 255 255 255 255 255 255 255 255 255 255 255 255 255 255 255 255 255 255 255 255 255 255 255 255 253 240 226 211 192 184 176 171 160 150 156 149 153 152 151 152 153 160 159 166 164 166 161 159 152 147 136 119 114 125 133 140 167 195 227 253 255 255 255 255 255 255 255 255 255 255 255 255 255 255 255 255 255 255 255 255 255 255 255 255
255 255 255 255 255 255 255 255 255 255 255 255 255 255 255 255 255 255 255 255 255 255 255 255 255 255 255 255 255 255 255 255 255 255 255 255 255 255 255 255 255 255 255 255 255 255 255 255 255 255 255 254 247 232 216 200 193 184 173 166 160 157 154 147 146 145 147 141 133 138 131 138 132 129 126 117 121 124 136 158 173 202 231 253 255 255 255 255 255 255 255 255 255 255 255 255 255 255 255 255 255 255 255 255 255 255 255 255 255
255 255 255 255 255 255 255 255 255 255 255 255 255 255 255 255 255 255 255 255 255 255 255 255 255 255 255 255 255 255 255 255 255 255 255 255 255 255 255 255 255 255 255 255 255 255 255 255 255 255 255 255 255 255 253 245 231 223 204 192 186 175 172 159 170 160 152 151 150 139 142 141 142 139 135 141 143 154 169 189 216 241 254 255 255 255 255 255 255 255 255 255 255 255 255 255 255 255 255 255 255 255 255 255 255 255 255 255 255
255 255 255 255 255 255 255 255 255 255 255 255 255 255 255 255 255 255 255 255 255 255 255 255 255 255 255 255 255 255 255 255 255 255 255 255 255 255 255 255 255 255 255 255 255 255 255 255 255 255 255 255 255 255 255 255 255 254 247 240 229 214 207 196 187 186 179 175 174 173 171 173 169 166 169 175 182 198 215 238 253 255 255 255 255 255 255 255 255 255 255 255 255 255 255 255 255 255 255 255 255 255 255 255 255 255 255 255 255
255 255 255 255 255 255 255 255 255 255 255 255 255 255 255 255 255 255 255 255 255 255 255 255 255 255 255 255 255 255 255 255 255 255 255 255 255 255 255 255 255 255 255 255 255 255 255 255 255 255 255 255 255 255 255 255 255 255 255 255 255 254 251 246 239 232 229 221 216 211 213 214 215 217 223 234 242 250 255 255 255 255 255 255 255 255 255 255 255 255 255 255 255 255 255 255 255 255 255 255 255 255 255 255 255 255 255 255 255
255 255 255 255 255 255 255 255 255 255 255 255 255 255 255 255 255 255 255 255 255 255 255 255 255 255 255 255 255 255 255 255 255 255 255 255 255 255 255 255 255 255 255 255 255 255 255 255 255 255 255 255 255 255 255 255 255 255 255 255 255 255 255 255 255 255 255 255 255 254 254 254 254 255 255 255 255 255 255 255 255 255 255 255 255 255 255 255 255 255 255 255 255 255 255 255 255 255 255 255 255 255 255 255 255 255 255 255 255
255 255 255 255 255 255 255 255 255 255 255 255 255 255 255 255 255 255 255 255 255 255 255 255 255 255 255 255 255 255 255 255 255 255 255 255 255 255 255 255 255 255 255 255 255 255 255 255 255 255 255 255 255 255 255 255 255 255 255 255 255 255 255 255 255 255 255 255 255 255 255 255 255 255 255 255 255 255 255 255 255 255 255 255 255 255 255 255 255 255 255 255 255 255 255 255 255 255 255 255 255 255 255 255 255 255 255 255 255
255 255 255 255 255 255 255 255 255 255 255 255 255 255 255 255 255 255 255 255 255 255 255 255 255 255 255 255 255 255 255 255 255 255 255 255 255 255 255 255 255 255 255 255 255 255 255 255 255 255 255 255 255 255 255 255 255 255 255 255 255 255 255 255 255 255 255 255 255 255 255 255 255 255 255 255 255 255 255 255 255 255 255 255 255 255 255 255 255 255 255 255 255 255 255 255 255 255 255 255 255 255 255 255 255 255 255 255 255
255 255 255 255 255 255 255 255 255 255 255 255 255 255 255 255 255 255 255 255 255 255 255 255 255 255 255 255 255 255 255 255 255 255 255 255 255 255 255 255 255 255 255 255 255 255 255 255 255 255 255 255 255 255 255 255 255 255 255 255 255 255 255 255 255 255 255 255 255 255 255 255 255 255 255 255 255 255 255 255 255 255 255 255 255 255 255 255 255 255 255 255 255 255 255 255 255 255 255 255 255 255 255 255 255 255 255 255 255
255 255 255 255 255 255 255 255 255 255 255 255 255 255 255 255 255 255 255 255 255 255 255 255 255 255 255 255 255 255 255 255 255 255 255 255 255 255 255 255 255 255 255 255 255 255 255 255 255 255 255 255 255 255 255 255 255 255 255 255 255 255 255 255 255 255 255 255 255 255 255 255 255 255 255 255 255 255 255 255 255 255 255 255 255 255 255 255 255 255 255 255 255 255 255 255 255 255 255 255 255 255 255 255 255 255 255 255 255
255 255 255 255 255 255 255 255 255 255 255 255 255 255 255 255 255 255 255 255 255 255 255 255 255 255 255 255 255 255 255 255 255 255 255 255 255 255 255 255 255 255 255 255 255 255 255 255 255 255 255 255 255 255 255 255 255 255 255 255 255 255 255 255 255 255 255 255 255 255 255 255 255 255 255 255 255 255 255 255 255 255 255 255 255 255 255 255 255 255 255 255 255 255 255 255 255 255 255 255 255 255 255 255 255 255 255 255 255
255 255 255 255 255 255 255 255 255 255 255 255 255 255 255 255 255 255 255 255 255 255 255 255 255 255 255 255 255 255 255 255 255 255 255 255 255 255 255 255 255 255 255 255 255 255 255 255 255 255 255 255 255 255 255 255 255 255 255 255 255 255 255 255 255 255 255 255 255 255 255 255 255 255 255 255 255 255 255 255 255 255 255 255 255 255 255 255 255 255 255 255 255 255 255 255 255 255 255 255 255 255 255 255 255 255 255 255 255
255 255 255 255 255 255 255 255 255 255 255 255 255 255 255 255 255 255 255 255 255 255 255 255 255 255 255 255 255 255 255 255 255 255 255 255 255 255 255 255 255 255 255 255 255 255 255 255 255 255 255 255 255 255 255 255 255 255 255 255 255 255 255 255 255 255 255 255 255 255 255 255 255 255 255 255 255 255 255 255 255 255 255 255 255 255 255 255 255 255 255 255 255 255 255 255 255 255 255 255 255 255 255 255 255 255 255 255 255
255 255 255 255 255 255 255 255 255 255 255 255 255 255 255 255 255 255 255 255 255 255 255 255 255 255 255 255 255 255 255 255 255 255 255 255 255 255 255 255 255 255 255 255 255 255 255 255 255 255 255 255 255 255 255 255 255 255 255 255 255 255 255 255 255 255 255 255 255 255 255 255 255 255 255 255 255 255 255 255 255 255 255 255 255 255 255 255 255 255 255 255 255 255 255 255 255 255 255 255 255 255 255 255 255 255 255 255 255
255 255 255 255 255 255 255 255 255 255 255 255 255 255 255 255 255 255 255 255 255 255 255 255 255 255 255 255 255 255 255 255 255 255 255 255 255 255 255 255 255 255 255 255 255 255 255 255 255 255 255 255 255 255 255 255 255 255 255 255 255 255 255 255 255 255 255 255 255 255 255 255 255 255 255 255 255 255 255 255 255 255 255 255 255 255 255 255 255 255 255 255 255 255 255 255 255 255 255 255 255 255 255 255 255 255 255 255 255
255 255 255 255 255 255 255 255 255 255 255 255 255 255 255 255 255 255 255 255 255 255 255 255 255 255 255 255 255 255 255 255 255 255 255 255 255 255 255 255 255 255 255 255 255 255 255 255 255 255 255 255 255 255 255 255 255 255 255 255 255 255 255 255 255 255 255 255 255 255 255 255 255 255 255 255 255 255 255 255 255 255 255 255 255 255 255 255 255 255 255 255 255 255 255 255 255 255 255 255 255 255 255 255 255 255 255 255 255
255 255 255 255 255 255 255 255 255 255 255 255 255 255 255 255 255 255 255 255 255 255 255 255 255 255 255 255 255 255 255 255 255 255 255 255 255 255 255 255 255 255 255 255 255 255 255 255 255 255 255 255 255 255 255 255 255 255 255 255 255 255 255 255 255 255 255 255 255 255 255 255 255 255 255 255 255 255 255 255 255 255 255 255 255 255 255 255 255 255 255 255 255 255 255 255 255 255 255 255 255 255 255 255 255 255 255 255 255
255 255 255 255 255 255 255 255 255 255 255 255 255 255 255 255 255 255 255 255 255 255 255 255 255 255 255 255 255 255 255 255 255 255 255 255 255 255 255 255 255 255 255 255 255 255 255 255 255 255 255 255 255 255 255 255 255 255 255 255 255 255 255 255 255 255 255 255 255 255 255 255 255 255 255 255 255 255 255 255 255 255 255 255 255 255 255 255 255 255 255 255 255 255 255 255 255 255 255 255 255 255 255 255 255 255 255 255 255
