P2
92 93
255
255 255 255 255 255 255 255 255 255 255 255 255 255 255 255 255 255 255 255 255 255 255 255 255 255 255 255 255 255 255 255 255 255 255 255 255 255 255 255 254 254 254 253 252 253 252 254 254 255 255 255 255 255 255 255 255 255 255 255 255 255 255 255 255 255 255 255 255 255 255 255 255 255 255 255 255 255 255 255 255 255 255 255 255 255 255 255 255 255 255 255 255
255 255 255 255 255 255 255 255 255 255 255 255 255 255 255 255 255 255 255 255 255 255 255 255 255 255 255 255 255 255 255 255 255 255 254 251 249 247 245 244 245 240 240 240 240 242 241 244 243 246 248 250 251 254 255 255 255 255 255 255 255 255 255 255 255 255 255 255 255 255 255 255 255 255 255 255 255 255 255 255 255 255 255 255 255 255 255 255 255 255 255 255
255 255 255 255 255 255 255 255 255 255 255 255 255 255 255 255 255 255 255 255 255 255 255 255 255 255 255 255 255 254 253 249 247 242 240 236 233 232 229 225 224 226 223 222 225 227 227 227 227 228 235 238 238 242 246 248 251 254 255 255 255 255 255 255 255 255 255 255 255 255 255 255 255 255 255 255 255 255 255 255 255 255 255 255 255 255 255 255 255 255 255 255
255 255 255 255 255 255 255 255 255 255 255 255 255 255 255 255 255 255 255 255 255 255 255 255 255 255 255 253 251 245 240 236 231 228 220 220 217 209 212 210 208 207 205 204 209 208 209 211 210 214 219 219 223 225 229 235 238 243 247 251 254 255 255 255 255 255 255 255 255 255 255 255 255 255 255 255 255 255 255 255 255 255 255 255 255 255 255 255 255 255 255 255
255 255 255 255 255 255 255 255 255 255 255 255 255 255 255 255 255 255 255 255 255 255 255 255 255 252 245 241 233 227 222 217 214 209 206 200 202 197 199 191 193 193 195 188 193 189 193 193 195 199 200 202 207 208 212 217 222 230 232 240 245 249 253 255 255 255 255 255 255 255 255 255 255 255 255 255 255 255 255 255 255 255 255 255 255 255 255 255 255 255 255 255
255 255 255 255 255 255 255 255 255 255 255 255 255 255 255 255 255 255 255 255 255 255 255 252 246 239 229 225 218 213 206 201 197 194 189 191 184 184 186 184 185 182 185 183 181 179 181 186 183 188 190 186 196 197 199 205 208 210 220 222 232 232 242 249 254 255 255 255 255 255 255 255 255 255 255 255 255 255 255 255 255 255 255 255 255 255 255 255 255 255 255 255
255 255 255 255 255 255 255 255 255 255 255 255 255 255 255 255 255 255 255 255 255 253 248 238 229 223 214 206 205 198 197 191 177 180 177 177 177 181 179 182 184 179 181 181 183 181 185 184 191 178 182 185 185 181 189 187 193 190 204 206 215 222 226 231 240 248 252 255 255 255 255 255 255 255 255 255 255 255 255 255 255 255 255 255 255 255 255 255 255 255 255 255
255 255 255 255 255 255 255 255 255 255 255 255 255 255 255 255 255 255 255 255 249 238 231 224 216 205 198 190 186 180 180 175 179 176 179 178 185 182 182 188 186 183 185 184 189 189 187 191 187 183 188 185 187 180 182 182 178 180 191 194 196 209 210 218 226 234 243 249 254 255 255 255 255 255 255 255 255 255 255 255 255 255 255 255 255 255 255 255 255 255 255 255
255 255 255 255 255 255 255 255 255 255 255 255 255 255 255 255 255 255 253 244 235 226 213 205 199 193 188 180 178 171 173 181 186 183 185 186 189 188 190 189 193 192 186 194 193 190 193 193 195 193 189 185 190 187 185 181 182 186 179 184 190 193 195 204 211 219 226 236 244 251 254 255 255 255 255 255 255 255 255 255 255 255 255 255 255 255 255 255 255 255 255 255
255 255 255 255 255 255 255 255 255 255 255 255 255 255 255 255 255 249 238 228 219 209 200 188 187 179 179 178 179 180 182 183 182 189 189 187 190 190 187 191 189 191 192 190 189 193 196 189 190 193 192 192 192 196 193 187 188 191 186 180 184 181 184 189 199 207 210 225 231 239 249 254 255 255 255 255 255 255 255 255 255 255 255 255 255 255 255 255 255 255 255 255
255 255 255 255 255 255 255 255 255 255 255 255 255 255 255 254 246 236 223 209 201 195 182 175 177 173 175 178 182 188 186 183 189 193 192 185 193 192 192 195 192 195 193 192 195 191 192 192 191 194 193 196 197 194 194 195 193 184 189 183 182 184 185 183 182 193 199 207 219 227 236 245 253 255 255 255 255 255 255 255 255 255 255 255 255 255 255 255 255 255 255 255
255 255 255 255 255 255 255 255 255 255 255 255 255 255 254 243 229 219 211 197 189 177 177 171 175 176 181 188 189 185 189 190 194 193 193 195 196 192 197 196 195 199 194 194 193 196 192 194 196 201 199 195 195 197 193 194 195 190 192 190 192 188 190 188 187 182 189 192 203 209 222 232 243 251 255 255 255 255 255 255 255 255 255 255 255 255 255 255 255 255 255 255
255 255 255 255 255 255 255 255 255 255 255 255 255 253 244 230 217 206 194 185 178 172 175 176 179 184 188 189 191 191 194 192 196 194 194 194 197 198 200 196 197 195 197 200 197 202 193 193 197 198 199 197 197 194 191 196 199 198 192 193 192 191 189 193 187 187 184 190 193 203 207 220 230 237 248 255 255 255 255 255 255 255 255 255 255 255 255 255 255 255 255 255
255 255 255 255 255 255 255 255 255 255 255 255 252 244 228 217 203 191 184 178 168 168 180 185 188 188 189 192 190 196 196 195 196 195 200 197 193 194 202 192 198 198 196 197 201 200 201 199 198 198 198 196 196 199 196 196 191 194 189 195 190 191 190 194 190 184 185 182 186 188 198 206 218 227 239 247 254 255 255 255 255 255 255 255 255 255 255 255 255 255 255 255
255 255 255 255 255 255 255 255 255 255 255 254 245 229 221 200 185 183 174 170 176 181 184 186 191 194 195 195 195 194 199 196 196 193 197 198 196 195 199 195 196 197 198 199 197 200 195 200 195 198 200 198 197 196 196 196 195 192 199 196 198 197 191 196 194 192 189 187 184 181 191 199 205 216 226 238 247 254 255 255 255 255 255 255 255 255 255 255 255 255 255 255
255 255 255 255 255 255 255 255 255 255 255 245 228 215 204 188 182 174 171 179 181 185 188 189 188 191 195 197 199 196 193 201 194 197 202 201 198 204 196 201 195 196 195 202 196 200 198 197 196 196 197 198 199 200 198 198 195 197 198 196 198 197 195 201 196 193 189 194 184 185 188 185 193 205 217 228 236 248 255 255 255 255 255 255 255 255 255 255 255 255 255 255
255 255 255 255 255 255 255 255 255 255 245 232 216 206 193 179 165 166 174 179 186 192 193 189 189 194 195 204 199 198 199 197 196 199 197 202 198 200 198 200 198 198 199 196 202 203 201 197 198 197 199 198 199 198 201 196 201 198 204 193 193 196 197 198 195 197 192 192 190 189 186 182 189 191 202 214 224 238 249 255 255 255 255 255 255 255 255 255 255 255 255 255
255 255 255 255 255 255 255 255 255 249 234 218 207 188 181 174 168 170 177 188 185 191 194 192 195 198 194 197 201 201 195 196 198 199 202 199 195 204 196 202 198 199 201 202 197 201 201 201 198 202 199 196 202 198 196 197 196 196 198 197 203 195 198 193 197 203 198 192 192 191 191 191 182 182 194 201 216 228 239 249 255 255 255 255 255 255 255 255 255 255 255 255
255 255 255 255 255 255 255 255 253 239 226 205 189 182 172 168 174 185 188 184 193 189 196 196 197 200 199 197 200 202 195 197 197 202 202 201 198 199 201 199 198 198 198 195 196 197 197 197 203 199 201 196 202 200 198 196 198 200 200 200 199 196 197 201 199 196 197 193 195 193 191 187 183 182 181 196 204 216 227 239 251 255 255 255 255 255 255 255 255 255 255 255
255 255 255 255 255 255 255 255 243 229 212 194 186 175 167 178 178 186 188 193 188 194 193 199 197 198 199 203 200 200 196 199 201 194 204 196 203 199 196 201 197 195 196 200 203 204 198 200 205 200 195 197 193 199 201 197 199 201 197 198 196 196 195 201 195 191 198 194 196 192 194 189 189 187 182 182 191 201 218 231 241 253 255 255 255 255 255 255 255 255 255 255
255 255 255 255 255 255 255 249 233 212 201 184 172 173 166 178 186 187 191 194 193 200 199 195 196 196 199 197 200 202 201 198 198 197 195 200 202 200 198 197 199 204 199 202 197 200 203 201 200 197 197 199 198 196 198 198 197 201 201 201 202 200 197 199 199 197 196 196 191 195 199 191 192 193 186 182 184 193 203 219 231 247 254 255 255 255 255 255 255 255 255 255
255 255 255 255 255 255 254 242 223 204 193 177 168 167 178 182 190 193 192 194 195 201 194 194 200 195 199 197 200 199 205 196 205 196 199 197 200 196 197 198 196 199 197 198 198 196 198 200 195 201 199 199 193 197 196 196 196 198 202 196 200 202 203 201 201 200 196 201 197 195 194 195 192 190 191 181 185 193 196 206 223 236 248 255 255 255 255 255 255 255 255 255
255 255 255 255 255 255 245 225 208 193 186 165 166 171 174 179 189 191 190 194 199 193 198 197 199 197 201 202 200 204 201 201 200 200 201 198 197 199 196 199 199 203 201 197 199 200 199 196 197 198 201 196 199 200 199 198 200 198 198 199 197 198 203 197 202 199 202 200 198 199 195 192 189 190 194 192 182 184 190 204 212 225 239 253 255 255 255 255 255 255 255 255
255 255 255 255 255 252 235 219 202 185 173 160 166 177 183 189 193 192 197 193 196 197 197 200 200 198 198 202 195 198 203 199 195 200 201 197 200 201 198 201 197 202 200 201 197 200 194 194 199 199 194 195 198 200 199 198 202 199 200 203 198 198 198 200 197 199 199 202 200 199 197 196 198 194 193 189 185 185 179 192 202 218 232 245 254 255 255 255 255 255 255 255
255 255 255 255 255 246 230 207 195 174 169 167 178 183 189 194 188 195 193 197 195 200 193 197 195 199 197 200 199 201 199 201 199 202 198 197 202 205 199 202 198 199 200 202 194 199 197 197 203 199 197 196 199 198 198 200 198 200 201 200 197 198 203 201 199 197 198 197 195 200 201 201 198 195 193 194 191 188 184 188 197 209 221 238 249 255 255 255 255 255 255 255
255 255 255 255 253 235 221 200 185 167 162 165 177 186 187 187 191 198 194 196 198 199 202 197 199 197 197 202 196 197 198 203 200 195 195 201 200 196 200 198 201 199 202 202 196 196 197 197 198 198 198 200 203 203 197 197 204 199 199 194 201 201 199 199 194 201 197 198 199 198 200 198 194 199 195 192 191 190 184 181 193 200 211 229 242 253 255 255 255 255 255 255
255 255 255 255 246 226 211 192 177 156 159 178 182 189 190 195 192 191 195 195 200 197 197 199 198 204 202 193 199 199 200 202 199 199 203 201 199 199 204 203 199 199 199 198 199 202 195 194 199 199 197 195 195 201 200 201 199 200 202 198 200 198 198 203 199 193 198 197 201 198 198 198 196 196 199 199 188 188 190 183 186 192 206 221 236 246 255 255 255 255 255 255
255 255 255 254 239 216 197 184 169 163 164 186 188 188 187 194 193 194 203 196 194 196 199 196 202 201 198 198 198 200 200 195 200 201 200 201 198 197 196 199 196 196 199 202 200 196 197 201 198 202 200 199 199 200 198 201 194 202 201 198 199 201 199 196 200 203 198 201 203 198 199 198 198 198 196 198 195 192 184 188 182 189 201 206 228 242 253 255 255 255 255 255
255 255 255 250 230 213 189 177 165 164 176 184 187 190 193 191 193 197 197 202 201 199 198 204 197 198 196 200 201 199 202 194 199 200 200 202 202 195 196 200 196 198 199 198 197 199 197 200 193 202 198 198 201 194 193 197 202 196 199 195 196 202 199 199 197 198 198 204 202 195 194 199 197 195 196 192 196 193 189 191 183 186 193 204 221 230 249 255 255 255 255 255
255 255 255 244 220 201 182 171 163 171 178 183 192 188 194 193 197 192 196 195 201 199 201 195 204 203 196 197 196 196 200 196 203 201 197 197 201 194 198 200 195 192 197 200 199 193 201 200 195 197 198 193 200 196 197 196 197 198 196 198 199 197 203 199 198 199 199 202 196 198 200 195 197 197 196 199 197 194 195 191 187 179 179 199 210 222 242 253 255 255 255 255
255 255 253 237 216 196 176 162 160 172 177 188 187 194 196 197 191 197 196 198 194 202 197 197 199 197 199 201 198 200 198 200 199 199 201 200 203 198 198 198 194 196 196 199 198 200 200 191 198 199 200 201 199 195 196 194 197 192 198 196 199 198 196 196 200 201 201 201 197 199 196 198 201 199 195 193 196 199 193 190 190 186 185 195 202 216 237 248 255 255 255 255
255 255 251 230 211 192 174 165 165 173 184 188 191 196 193 194 194 198 198 197 197 199 198 201 200 202 201 198 197 197 199 200 201 197 200 196 198 198 196 197 195 192 195 198 197 199 194 200 195 194 201 199 194 197 200 198 196 199 201 194 200 199 198 201 196 199 201 197 197 198 199 198 201 206 199 202 196 196 189 190 191 187 184 188 198 214 229 243 255 255 255 255
255 255 245 220 199 179 172 163 167 172 183 190 188 193 191 196 198 197 201 202 195 203 196 197 200 194 199 200 193 201 201 202 200 198 201 200 199 199 199 199 197 192 192 198 197 195 198 199 198 195 197 198 198 194 196 199 197 192 202 198 203 198 202 197 201 195 200 198 197 202 196 194 202 200 203 196 196 193 197 191 191 184 185 189 196 205 224 239 251 255 255 255
255 254 239 212 196 177 166 158 166 182 185 196 190 194 192 197 201 202 198 199 202 198 196 200 202 201 200 196 195 201 194 199 200 195 196 198 198 194 196 198 198 194 199 200 195 201 198 193 195 196 190 197 196 195 196 193 201 194 199 196 199 200 198 198 198 197 199 200 202 200 198 198 202 199 198 198 198 197 196 190 187 193 186 183 188 202 221 232 246 255 255 255
255 253 230 211 193 171 165 162 173 178 188 194 191 198 199 198 197 201 199 198 199 199 202 202 197 200 199 197 198 201 200 195 196 195 202 197 198 199 196 198 197 192 199 200 203 191 194 196 194 198 197 194 192 193 197 195 200 199 200 202 197 193 201 199 197 201 201 199 199 200 196 197 194 202 199 199 196 198 198 195 193 198 187 183 189 200 211 227 243 254 255 255
255 251 228 204 187 170 163 164 176 188 189 190 195 196 197 196 202 196 199 201 200 201 195 202 198 199 196 201 198 201 202 199 196 198 197 200 198 194 196 200 192 197 195 200 194 194 195 193 188 192 197 191 197 197 195 195 198 201 195 195 202 196 196 199 196 193 196 200 194 196 196 195 197 200 198 198 196 199 196 195 194 192 192 187 186 196 206 223 237 251 255 255
255 247 223 200 184 165 165 165 178 184 192 193 189 193 198 199 200 201 195 197 197 197 197 201 200 202 201 198 193 198 202 197 196 193 200 197 196 194 197 197 196 198 194 199 193 192 192 192 197 194 193 196 196 195 198 198 199 195 195 202 196 197 197 199 198 199 203 198 201 199 200 198 202 202 196 200 198 198 195 196 195 192 196 183 184 193 203 216 234 249 255 255
255 242 221 196 180 160 154 169 179 178 189 191 194 199 199 198 194 199 199 202 201 198 200 200 202 200 201 196 199 198 193 199 198 195 197 198 195 195 193 195 196 192 195 195 191 192 192 195 201 192 200 200 199 194 199 193 194 195 197 199 200 195 197 198 201 195 196 202 199 205 195 203 202 196 194 196 198 196 196 196 197 190 194 185 177 184 198 214 227 245 255 255
255 241 217 193 177 161 154 172 177 189 191 194 198 194 193 195 201 194 200 198 197 198 197 201 192 199 200 196 199 199 195 196 198 198 194 194 200 191 198 190 194 198 195 194 194 195 198 196 194 194 193 196 197 196 198 195 197 196 196 198 199 194 198 196 193 196 195 203 197 199 198 196 199 204 198 201 196 198 196 193 194 194 184 186 186 182 195 212 228 242 253 255
254 236 212 188 177 168 158 173 185 191 188 190 191 195 195 197 199 197 199 198 198 204 203 200 199 199 198 198 197 196 197 199 197 195 194 196 201 196 199 197 189 191 193 196 196 192 194 193 197 196 195 193 195 194 196 197 193 197 202 197 196 196 198 200 201 200 199 196 197 199 200 200 200 194 197 198 201 196 198 197 199 196 192 188 188 181 195 202 222 237 252 255
254 236 215 191 168 158 159 170 184 183 186 193 194 198 199 197 202 199 199 202 201 196 195 203 195 199 205 202 198 196 198 197 199 196 196 197 198 196 198 196 192 194 196 197 193 195 198 194 195 196 198 195 199 196 192 197 194 195 196 198 197 196 196 200 191 202 197 195 200 200 198 198 199 203 196 201 199 204 192 196 197 192 193 190 191 186 186 200 219 236 250 255
252 232 209 187 168 160 161 171 177 184 190 194 190 197 198 196 196 199 199 201 201 199 199 199 198 197 197 199 200 200 195 199 196 198 193 197 196 194 194 197 196 197 198 194 194 194 188 193 192 196 196 196 195 193 197 192 193 193 194 192 191 196 197 199 199 200 199 199 197 199 198 200 200 199 199 199 194 197 193 197 198 194 192 190 185 181 192 201 219 232 248 255
252 230 207 188 168 155 156 178 182 187 191 195 194 197 199 197 196 197 199 200 200 198 199 198 200 200 202 196 197 195 200 197 197 197 194 193 200 188 194 195 197 192 198 193 194 197 193 192 193 200 195 194 190 191 197 193 195 196 193 200 203 199 197 199 200 193 202 200 194 199 200 198 201 200 200 197 197 194 193 195 195 192 194 196 187 179 185 198 214 234 245 255
252 229 203 181 169 154 159 175 186 189 195 192 195 198 193 199 197 195 198 197 199 195 196 196 201 197 198 198 201 193 195 197 198 198 197 196 194 196 195 196 193 194 194 193 191 196 194 194 193 193 194 193 198 194 193 197 193 192 201 193 196 192 199 199 195 195 196 195 198 200 199 194 201 201 197 203 199 199 198 196 197 190 191 190 186 183 179 199 211 227 244 255
252 229 202 190 168 151 164 178 190 190 189 191 195 192 200 197 198 196 200 199 193 202 200 197 194 196 200 199 194 194 196 193 200 199 193 195 194 192 197 193 185 194 193 194 192 194 191 193 189 193 195 188 194 192 193 194 201 192 196 197 197 199 194 198 197 199 198 198 200 201 195 194 198 201 195 196 196 198 197 195 200 195 194 192 187 184 188 194 209 226 242 253
252 229 206 185 167 160 155 176 182 184 190 189 196 200 198 198 195 195 197 199 199 201 195 197 203 203 196 192 199 201 196 198 195 198 195 198 192 189 195 194 192 194 195 191 193 197 195 196 189 195 189 193 192 195 195 197 191 198 197 198 198 201 196 200 197 203 199 199 199 204 196 200 197 203 199 200 199 201 199 196 197 195 194 190 189 183 182 194 207 221 242 253
253 231 207 183 169 156 157 177 179 189 183 189 196 196 199 199 196 203 198 197 202 204 197 200 199 196 198 197 200 197 198 197 200 196 194 196 198 190 192 194 194 193 198 193 196 190 191 192 189 197 190 193 194 194 199 194 197 195 196 196 193 192 197 199 198 194 196 200 198 202 198 199 196 194 198 201 198 195 197 197 197 197 191 189 185 186 180 191 210 223 241 253
253 228 205 181 160 155 152 178 183 187 193 192 196 197 198 198 199 199 199 198 204 201 197 197 198 202 200 195 202 193 197 196 196 197 195 196 196 201 195 195 193 191 193 192 193 194 192 195 191 194 193 194 191 198 193 192 194 196 198 197 198 199 194 202 200 199 202 198 201 196 202 202 198 195 203 208 200 196 199 199 201 193 194 190 190 190 184 187 212 222 241 253
254 233 208 186 164 145 152 175 180 191 192 196 195 197 199 196 196 200 200 203 201 203 202 199 203 200 196 201 198 199 196 198 201 198 193 200 195 194 196 197 195 195 190 193 191 193 191 195 194 197 193 191 194 193 196 197 197 197 196 198 197 200 195 194 195 194 198 198 197 198 197 196 195 200 200 199 197 197 199 196 196 198 194 194 192 191 184 193 207 223 239 252
254 234 210 190 166 159 154 179 182 186 187 192 193 196 194 200 198 199 199 195 198 202 197 203 196 198 198 195 196 196 195 195 196 197 197 195 194 192 191 191 197 193 193 196 191 192 194 194 192 197 198 191 194 199 195 196 199 192 198 196 198 200 194 199 198 195 198 194 205 198 199 200 203 205 199 201 199 200 198 197 196 194 195 192 184 185 186 192 206 223 239 253
255 236 211 182 174 152 153 167 183 182 189 198 191 196 194 198 197 204 198 204 199 199 201 198 201 198 202 195 192 196 199 193 201 197 199 200 194 194 196 195 192 192 199 191 197 191 197 190 191 195 194 196 199 195 193 195 195 198 195 195 196 198 198 198 198 197 203 202 198 201 195 202 196 198 201 198 199 199 199 196 192 197 194 189 188 185 181 193 208 223 240 253
255 242 213 192 175 153 146 163 179 180 189 191 192 196 198 195 200 200 199 199 199 197 199 201 201 198 197 199 198 200 199 193 197 192 193 192 191 195 199 197 197 194 192 195 196 192 192 194 193 192 192 190 195 193 197 196 196 196 195 198 197 201 198 194 198 198 196 196 201 199 202 198 203 204 201 200 200 199 197 199 195 195 195 187 187 185 186 192 206 228 241 253
255 246 214 197 176 161 154 161 180 183 190 189 198 195 193 195 197 195 202 200 200 203 199 200 197 199 200 199 197 195 197 198 200 197 194 197 200 197 198 198 198 202 198 197 192 199 196 194 196 196 193 196 195 198 199 195 198 194 195 197 197 198 202 196 198 195 204 198 200 196 200 198 198 196 199 200 199 202 192 194 194 203 193 191 194 186 181 194 209 224 242 254
255 247 224 200 182 161 148 157 177 183 191 194 194 191 195 199 196 202 200 198 196 198 197 202 198 197 194 197 205 201 199 195 195 196 196 199 193 200 195 197 194 195 193 194 194 196 194 197 196 192 196 197 197 193 196 200 198 192 197 198 195 195 194 197 202 198 199 201 198 200 201 202 199 201 200 200 201 200 194 197 200 193 193 193 189 181 181 196 210 227 243 254
255 253 230 206 186 162 154 153 170 185 187 185 192 192 194 194 195 195 199 197 197 197 202 199 198 199 196 198 198 200 198 201 196 200 196 196 200 196 194 200 193 193 191 199 194 194 195 197 199 195 197 200 195 194 195 199 196 198 196 193 198 197 195 199 202 197 198 197 199 198 199 199 196 200 202 194 198 194 197 197 193 192 189 188 181 184 182 195 210 228 245 255
255 255 234 206 192 163 149 149 165 181 187 191 196 197 193 194 195 197 201 198 205 204 202 198 198 194 199 198 200 199 197 197 193 196 199 199 195 193 195 195 195 196 196 197 197 192 197 194 194 194 194 194 198 192 196 195 198 197 199 200 199 196 199 197 200 201 196 197 201 200 202 199 200 199 198 199 200 199 193 199 196 194 193 188 183 184 184 195 211 231 245 255
255 255 241 214 190 168 156 147 151 171 184 187 187 197 195 195 199 196 195 200 197 199 196 199 200 196 197 201 199 196 196 199 195 197 201 192 198 192 195 192 198 193 192 198 196 197 194 196 197 193 194 195 199 196 196 195 198 198 197 194 200 201 198 197 201 198 199 198 200 203 197 199 201 199 199 196 198 194 196 198 198 194 191 188 188 184 186 200 214 232 248 255
255 255 249 223 196 181 161 146 149 170 181 186 191 189 192 194 200 199 196 199 194 200 197 200 197 202 199 198 201 195 203 188 197 198 193 198 197 196 195 195 194 200 200 197 197 194 198 198 195 198 196 195 195 200 194 197 198 198 195 193 197 198 202 201 199 197 201 198 203 202 201 198 204 196 200 195 196 196 198 193 197 192 192 184 186 179 187 199 221 234 250 255
255 255 253 228 209 186 163 150 143 165 182 180 184 192 192 197 195 196 199 197 199 197 198 203 203 196 199 195 199 197 199 201 202 197 194 200 200 197 195 198 198 194 194 194 200 198 195 197 199 196 196 197 196 194 197 198 196 199 196 200 199 200 199 200 199 198 200 198 200 200 201 195 201 196 198 198 197 200 196 197 195 190 189 186 182 185 195 208 223 238 252 255
255 255 255 239 212 185 166 150 152 155 180 188 186 189 194 194 200 195 197 195 198 201 198 198 204 200 195 202 200 202 200 196 196 198 193 201 193 196 197 196 195 197 194 196 195 194 197 196 198 197 195 198 200 199 199 196 200 196 200 194 199 197 199 202 198 200 200 198 200 199 203 195 197 199 207 199 202 201 200 197 193 193 190 185 180 180 187 212 227 244 254 255
255 255 255 247 219 196 174 167 150 144 176 181 186 188 192 193 193 194 198 198 202 198 199 203 201 199 197 199 198 197 198 197 195 196 195 198 199 202 193 196 201 195 195 195 197 197 193 199 195 193 195 194 194 195 197 195 195 196 198 198 203 197 197 195 201 202 201 196 199 199 202 205 203 198 202 198 196 196 198 194 197 193 190 185 180 182 197 214 231 246 255 255
255 255 255 251 232 205 179 166 151 148 157 175 185 190 186 191 196 197 195 198 199 197 198 201 196 196 202 199 199 200 197 196 200 200 198 199 199 197 196 198 195 199 197 197 194 195 196 196 196 199 198 196 197 202 197 196 196 199 194 202 202 199 198 199 198 199 197 199 196 194 200 198 200 197 201 193 193 202 195 195 194 191 196 186 181 187 203 219 236 250 255 255
255 255 255 255 241 217 191 178 157 149 148 174 182 184 182 193 191 198 200 194 198 197 192 195 196 196 200 197 200 196 194 200 204 198 192 196 203 198 196 196 193 201 190 202 196 195 197 199 198 196 195 198 193 201 197 199 198 203 196 197 199 200 196 202 197 200 201 199 200 202 198 198 202 198 197 196 201 194 196 197 190 187 186 181 184 197 210 223 240 252 255 255
255 255 255 255 251 226 202 175 164 150 147 160 175 186 187 192 191 194 191 196 196 198 196 200 199 196 199 197 199 201 196 194 199 202 198 198 200 202 198 199 198 194 196 199 197 194 199 193 201 201 202 193 198 200 198 194 195 196 193 203 197 198 201 195 201 207 198 200 195 204 196 197 196 199 201 201 198 193 189 195 189 188 191 175 186 198 217 229 246 255 255 255
255 255 255 255 255 239 214 187 169 153 144 148 165 183 186 189 191 192 194 197 198 195 198 196 198 199 198 200 194 201 196 194 197 199 196 198 201 197 202 200 200 201 198 196 198 199 194 199 200 202 198 197 194 199 197 204 199 201 196 198 196 201 200 199 204 198 203 200 198 198 199 198 203 201 200 197 197 201 197 190 196 187 187 184 187 201 222 235 248 255 255 255
255 255 255 255 255 248 225 200 180 162 155 138 156 174 186 183 184 193 194 195 198 197 200 195 197 192 198 197 199 197 199 198 196 199 199 197 194 200 201 198 199 195 194 200 201 195 194 196 199 200 196 199 199 196 199 200 199 199 204 196 195 200 195 198 199 200 204 203 199 202 201 199 197 196 196 197 197 197 196 186 189 182 181 184 199 212 227 242 253 255 255 255
255 255 255 255 255 255 236 213 192 169 161 148 142 165 182 184 187 193 191 198 196 193 196 200 195 199 199 197 197 202 196 198 197 196 198 199 197 197 198 202 196 197 200 197 197 198 197 198 194 198 197 198 201 202 197 194 200 201 200 200 197 201 197 197 201 197 202 202 206 202 199 199 200 203 198 194 195 196 197 186 181 180 181 184 203 217 232 246 255 255 255 255
255 255 255 255 255 255 249 226 198 185 164 154 149 153 169 183 187 187 188 191 197 195 203 196 200 199 196 198 198 197 197 203 197 198 197 196 196 199 198 200 199 199 199 196 197 198 198 202 202 199 201 202 197 199 199 203 200 198 199 199 202 195 202 201 198 199 200 200 200 194 195 197 195 190 193 193 195 190 190 185 182 178 184 192 210 225 238 253 255 255 255 255
255 255 255 255 255 255 255 239 216 196 175 161 151 140 161 178 183 187 193 185 192 196 194 197 198 194 199 203 199 197 200 195 200 201 200 195 200 200 197 197 200 202 198 196 197 196 202 197 200 198 199 200 196 201 199 197 200 202 202 198 199 198 198 199 198 196 199 203 196 200 197 196 197 197 196 194 195 189 184 190 175 177 187 197 213 229 247 254 255 255 255 255
255 255 255 255 255 255 255 252 231 207 187 171 153 146 145 168 180 183 186 192 191 193 196 199 197 199 193 201 201 198 198 197 200 199 197 195 199 198 199 198 204 204 195 200 202 196 203 199 203 201 199 202 199 202 197 203 198 195 195 200 198 201 197 203 199 198 198 196 198 197 197 196 198 198 195 196 191 189 186 180 178 181 195 206 225 239 251 255 255 255 255 255
255 255 255 255 255 255 255 255 245 217 200 182 166 148 149 152 170 178 185 189 193 189 194 196 197 192 199 197 202 202 202 201 196 198 195 203 199 200 201 199 199 201 197 198 196 195 198 198 199 199 194 198 202 196 201 197 201 202 199 198 202 201 203 198 203 200 199 198 196 200 196 197 196 197 194 192 191 189 181 176 174 187 202 214 230 246 255 255 255 255 255 255
255 255 255 255 255 255 255 255 254 236 211 193 176 157 148 146 156 172 180 182 185 188 186 197 190 197 197 201 196 197 199 197 203 195 201 201 201 199 200 205 198 198 199 199 201 201 198 203 200 199 202 198 202 204 196 198 197 199 195 199 200 198 204 201 198 202 195 201 198 197 200 192 192 194 193 190 188 179 181 176 185 196 210 226 241 253 255 255 255 255 255 255
255 255 255 255 255 255 255 255 255 253 231 209 187 169 156 151 146 160 167 182 184 184 190 195 194 193 194 198 197 194 189 199 200 196 197 200 196 204 200 199 202 200 201 194 198 196 201 198 200 200 199 196 203 198 198 201 197 200 200 200 199 199 198 202 198 198 198 201 194 196 196 192 196 195 193 194 183 183 178 178 193 199 218 233 247 255 255 255 255 255 255 255
255 255 255 255 255 255 255 255 255 255 248 224 207 189 169 154 148 144 162 172 177 187 186 188 194 190 194 195 194 195 202 198 196 198 198 199 199 199 197 197 197 201 198 200 198 203 205 200 203 203 204 202 195 195 201 198 202 201 199 200 201 205 194 195 196 199 195 204 196 198 198 198 193 191 190 185 180 169 179 186 199 216 224 243 253 255 255 255 255 255 255 255
255 255 255 255 255 255 255 255 255 255 255 242 216 202 181 168 151 151 152 161 175 181 184 188 189 196 195 195 193 197 194 200 198 199 202 196 194 202 199 199 202 197 199 194 199 201 205 199 203 198 202 203 201 195 198 198 199 199 199 199 199 201 200 202 195 201 194 192 191 193 197 189 189 192 188 183 174 175 185 193 213 222 237 252 255 255 255 255 255 255 255 255
255 255 255 255 255 255 255 255 255 255 255 254 236 215 200 186 164 156 152 145 156 176 177 182 186 187 193 191 194 191 196 192 202 199 200 198 196 199 201 198 198 196 199 199 194 198 198 198 197 198 195 200 204 195 199 207 196 201 196 199 197 203 196 197 197 198 194 196 194 197 192 191 191 183 189 176 178 180 193 206 222 234 248 255 255 255 255 255 255 255 255 255
255 255 255 255 255 255 255 255 255 255 255 255 254 234 217 194 177 169 152 144 152 157 177 177 182 183 186 193 190 189 193 194 199 197 193 199 197 198 193 201 198 195 200 199 201 199 197 201 199 200 202 193 197 203 199 199 202 198 199 201 200 197 200 194 196 192 191 193 195 196 192 187 185 181 174 174 186 189 200 216 231 245 254 255 255 255 255 255 255 255 255 255
255 255 255 255 255 255 255 255 255 255 255 255 255 252 234 215 199 176 173 161 146 146 156 167 183 181 186 184 183 192 193 194 192 189 198 194 191 193 200 198 196 196 195 198 199 196 198 197 200 200 199 198 198 200 199 200 197 199 198 196 193 191 199 195 193 190 194 192 188 186 189 182 179 175 172 173 188 202 216 228 242 252 255 255 255 255 255 255 255 255 255 255
255 255 255 255 255 255 255 255 255 255 255 255 255 255 251 235 216 194 176 167 156 148 150 147 161 171 177 185 186 190 190 192 188 194 195 191 202 195 198 196 196 194 194 194 199 200 194 198 199 199 194 195 197 196 196 195 200 197 199 195 192 193 196 195 185 190 193 193 189 185 186 176 172 169 181 189 201 212 228 239 250 255 255 255 255 255 255 255 255 255 255 255
255 255 255 255 255 255 255 255 255 255 255 255 255 255 255 252 236 216 202 178 169 159 153 145 155 159 172 175 180 184 190 186 185 191 191 193 194 193 194 197 196 198 194 197 198 197 196 196 196 200 199 195 194 194 197 195 196 196 194 187 194 194 196 192 190 189 187 187 186 183 178 171 175 179 190 198 213 225 239 252 255 255 255 255 255 255 255 255 255 255 255 255
255 255 255 255 255 255 255 255 255 255 255 255 255 255 255 255 253 237 216 201 185 173 165 160 149 148 154 171 170 176 184 181 186 181 191 191 195 195 195 198 195 195 198 193 196 197 195 195 197 192 193 194 190 199 196 198 193 192 194 193 195 191 189 191 184 186 184 184 174 172 166 175 175 195 197 213 226 241 250 255 255 255 255 255 255 255 255 255 255 255 255 255
255 255 255 255 255 255 255 255 255 255 255 255 255 255 255 255 255 254 240 223 208 192 181 171 156 148 146 152 162 173 178 183 181 188 189 190 184 191 191 191 190 194 190 195 195 195 194 192 196 194 193 192 191 194 198 192 199 193 192 192 190 191 188 186 184 186 178 179 171 169 172 184 191 205 212 228 238 250 255 255 255 255 255 255 255 255 255 255 255 255 255 255
255 255 255 255 255 255 255 255 255 255 255 255 255 255 255 255 255 255 254 245 225 212 199 184 174 159 158 156 152 150 162 168 176 186 180 186 187 189 189 185 190 182 191 188 190 191 191 191 191 195 195 195 189 195 187 189 189 187 185 191 192 186 187 182 180 179 170 169 171 177 184 195 207 218 232 242 251 255 255 255 255 255 255 255 255 255 255 255 255 255 255 255
255 255 255 255 255 255 255 255 255 255 255 255 255 255 255 255 255 255 255 255 249 234 219 203 194 181 165 164 158 146 150 156 161 163 176 177 180 179 182 185 187 192 189 185 189 187 190 189 193 194 185 191 193 193 193 189 189 193 189 182 182 178 180 177 167 171 170 176 180 189 201 209 221 232 244 253 255 255 255 255 255 255 255 255 255 255 255 255 255 255 255 255
255 255 255 255 255 255 255 255 255 255 255 255 255 255 255 255 255 255 255 255 255 252 240 226 210 202 185 179 172 163 155 154 151 154 157 153 174 177 180 178 185 183 184 186 186 190 185 185 184 185 189 189 188 188 184 187 182 183 183 177 174 172 170 170 169 172 177 185 193 202 216 226 236 246 254 255 255 255 255 255 255 255 255 255 255 255 255 255 255 255 255 255
255 255 255 255 255 255 255 255 255 255 255 255 255 255 255 255 255 255 255 255 255 255 255 248 233 221 207 200 188 174 170 166 165 151 164 156 156 157 163 169 172 173 180 172 179 181 179 177 180 182 179 183 180 179 183 179 173 173 168 163 164 165 169 177 179 185 194 197 208 219 230 241 251 255 255 255 255 255 255 255 255 255 255 255 255 255 255 255 255 255 255 255
255 255 255 255 255 255 255 255 255 255 255 255 255 255 255 255 255 255 255 255 255 255 255 255 254 243 228 217 210 198 187 181 179 165 163 159 165 151 154 154 157 155 153 167 163 166 165 167 172 166 174 167 171 168 169 162 162 164 171 169 165 178 175 186 195 201 206 218 227 236 247 253 255 255 255 255 255 255 255 255 255 255 255 255 255 255 255 255 255 255 255 255
255 255 255 255 255 255 255 255 255 255 255 255 255 255 255 255 255 255 255 255 255 255 255 255 255 255 252 244 230 219 206 200 191 188 182 176 170 165 167 163 158 156 158 155 157 158 160 158 166 158 160 162 165 163 168 167 170 164 171 177 186 186 197 201 207 221 227 234 244 252 255 255 255 255 255 255 255 255 255 255 255 255 255 255 255 255 255 255 255 255 255 255
255 255 255 255 255 255 255 255 255 255 255 255 255 255 255 255 255 255 255 255 255 255 255 255 255 255 255 255 252 246 236 224 214 206 201 189 188 187 181 179 180 173 170 166 172 171 165 162 167 167 170 172 175 174 174 178 176 192 187 196 198 208 215 223 229 236 244 251 255 255 255 255 255 255 255 255 255 255 255 255 255 255 255 255 255 255 255 255 255 255 255 255
255 255 255 255 255 255 255 255 255 255 255 255 255 255 255 255 255 255 255 255 255 255 255 255 255 255 255 255 255 255 254 248 241 229 222 215 206 202 198 193 191 190 183 177 182 183 183 184 184 184 182 186 187 190 195 196 199 205 211 214 220 223 231 242 247 251 255 255 255 255 255 255 255 255 255 255 255 255 255 255 255 255 255 255 255 255 255 255 255 255 255 255
255 255 255 255 255 255 255 255 255 255 255 255 255 255 255 255 255 255 255 255 255 255 255 255 255 255 255 255 255 255 255 255 255 253 246 238 231 227 221 217 214 207 206 203 202 203 203 205 200 200 202 200 205 212 214 210 221 222 229 235 237 246 251 254 255 255 255 255 255 255 255 255 255 255 255 255 255 255 255 255 255 255 255 255 255 255 255 255 255 255 255 255
255 255 255 255 255 255 255 255 255 255 255 255 255 255 255 255 255 255 255 255 255 255 255 255 255 255 255 255 255 255 255 255 255 255 255 255 253 250 245 242 236 234 228 228 222 223 223 219 223 221 222 224 227 230 231 235 240 243 247 252 254 255 255 255 255 255 255 255 255 255 255 255 255 255 255 255 255 255 255 255 255 255 255 255 255 255 255 255 255 255 255 255
255 255 255 255 255 255 255 255 255 255 255 255 255 255 255 255 255 255 255 255 255 255 255 255 255 255 255 255 255 255 255 255 255 255 255 255 255 255 255 255 254 254 252 250 247 247 245 245 244 244 246 249 249 251 251 252 255 255 255 255 255 255 255 255 255 255 255 255 255 255 255 255 255 255 255 255 255 255 255 255 255 255 255 255 255 255 255 255 255 255 255 255
