P2
109 109
255
255 255 255 255 255 255 255 255 255 255 255 255 255 255 255 255 255 255 255 255 255 255 255 255 255 255 255 255 255 255 255 255 255 255 255 255 255 255 255 255 255 255 255 255 255 255 255 255 255 255 255 255 255 255 255 255 255 255 255 255 255 255 255 255 255 255 255 255 255 255 255 255 255 255 255 255 255 255 255 255 255 255 255 255 255 255 255 255 255 255 255 255 255 255 255 255 255 255 255 255 255 255 255 255 255 255 255 255 255
255 255 255 255 255 255 255 255 255 255 255 255 255 255 255 255 255 255 255 255 255 255 255 255 255 255 255 255 255 255 255 255 255 255 255 255 255 255 255 255 255 255 255 255 255 255 255 255 255 255 255 255 255 255 255 255 255 255 255 255 255 255 255 255 255 255 255 255 255 255 255 255 255 255 255 255 255 255 255 255 255 255 255 255 255 255 255 255 255 255 255 255 255 255 255 255 255 255 255 255 255 255 255 255 255 255 255 255 255
255 255 255 255 255 255 255 255 255 255 255 255 255 255 255 255 255 255 255 255 255 255 255 255 255 255 255 255 255 255 255 255 255 255 255 255 255 255 255 255 255 255 255 255 255 255 255 255 255 255 255 255 255 255 255 255 255 255 255 255 255 255 255 255 255 255 255 255 255 255 255 255 255 255 255 255 255 255 255 255 255 255 255 255 255 255 255 255 255 255 255 255 255 255 255 255 255 255 255 255 255 255 255 255 255 255 255 255 255
255 255 255 255 255 255 255 255 255 255 255 255 255 255 255 255 255 255 255 255 255 255 255 255 255 255 255 255 255 255 255 255 255 255 255 255 255 255 255 255 255 255 255 255 255 255 255 255 255 255 255 255 255 255 255 255 255 255 255 255 255 255 255 255 255 255 255 255 255 255 255 255 255 255 255 255 255 255 255 255 255 255 255 255 255 255 255 255 255 255 255 255 255 255 255 255 255 255 255 255 255 255 255 255 255 255 255 255 255
255 255 255 255 255 255 255 255 255 255 255 255 255 255 255 255 255 255 255 255 255 255 255 255 255 255 255 255 255 255 255 255 255 255 255 255 255 255 255 255 255 255 255 255 255 255 255 255 255 255 255 255 255 255 255 255 255 255 255 255 255 255 255 255 255 255 255 255 255 255 255 255 255 255 255 255 255 255 255 255 255 255 255 255 255 255 255 255 255 255 255 255 255 255 255 255 255 255 255 255 255 255 255 255 255 255 255 255 255
255 255 255 255 255 255 255 255 255 255 255 255 255 255 255 255 255 255 255 255 255 255 255 255 255 255 255 255 255 255 255 255 255 255 255 255 255 255 255 255 255 255 255 255 255 255 255 255 255 255 255 255 255 255 255 255 255 255 255 255 255 255 255 255 255 255 255 255 255 255 255 255 255 255 255 255 255 255 255 255 255 255 255 255 255 255 255 255 255 255 255 255 255 255 255 255 255 255 255 255 255 255 255 255 255 255 255 255 255
255 255 255 255 255 255 255 255 255 255 255 255 255 255 255 255 255 255 255 255 255 255 255 255 255 255 255 255 255 255 255 255 255 255 255 255 255 255 255 255 254 251 244 240 238 236 237 238 238 241 242 248 251 253 255 255 255 255 255 255 255 255 255 255 255 255 255 255 255 255 255 255 255 255 255 255 255 255 255 255 255 255 255 255 255 255 255 255 255 255 255 255 255 255 255 255 255 255 255 255 255 255 255 255 255 255 255 255 255
255 255 255 255 255 255 255 255 255 255 255 255 255 255 255 255 255 255 255 255 255 255 255 255 255 255 255 255 255 255 255 255 255 255 255 255 255 255 252 244 233 221 213 206 205 205 206 204 204 209 210 219 222 231 236 244 251 254 255 255 255 255 255 255 255 255 255 255 255 255 255 255 255 255 255 255 255 255 255 255 255 255 255 255 255 255 255 255 255 255 255 255 255 255 255 255 255 255 255 255 255 255 255 255 255 255 255 255 255
255 255 255 255 255 255 255 255 255 255 255 255 255 255 255 255 255 255 255 255 255 255 255 255 255 255 255 255 255 255 255 255 255 255 255 255 254 244 228 213 206 194 186 181 179 176 176 180 184 183 184 189 194 202 205 211 222 232 237 249 254 255 255 255 255 255 255 255 255 255 255 255 255 255 255 255 255 255 255 255 255 255 255 255 255 255 255 255 255 255 255 255 255 255 255 255 255 255 255 255 255 255 255 255 255 255 255 255 255
255 255 255 255 255 255 255 255 255 255 255 255 255 255 255 255 255 255 255 255 255 255 255 255 255 255 255 255 255 255 255 255 255 255 255 251 235 216 198 188 177 166 163 166 163 160 164 171 170 170 169 175 171 174 179 182 196 196 209 219 230 243 251 255 255 255 255 255 255 255 255 255 255 255 255 255 255 255 255 255 255 255 255 255 255 255 255 255 255 255 255 255 255 255 255 255 255 255 255 255 255 255 255 255 255 255 255 255 255
255 255 255 255 255 255 255 255 255 255 255 255 255 255 255 255 255 255 255 255 255 255 255 255 255 255 255 255 255 255 255 255 255 255 250 226 205 188 177 165 164 160 161 171 177 178 184 184 186 181 176 177 181 166 168 172 177 180 184 190 200 211 225 241 251 255 255 255 255 255 255 255 255 255 255 255 255 255 255 255 255 255 255 255 255 255 255 255 255 255 255 255 255 255 255 255 255 255 255 255 255 255 255 255 255 255 255 255 255
255 255 255 255 255 255 255 255 255 255 255 255 255 255 255 255 255 255 255 255 255 255 255 255 255 255 255 255 255 255 255 255 255 249 224 198 181 163 159 155 162 173 184 189 193 189 191 193 190 187 192 189 187 190 185 179 169 172 164 168 172 184 195 205 222 237 251 255 255 255 255 255 255 255 255 255 255 255 255 255 255 255 255 255 255 255 255 255 255 255 255 255 255 255 255 255 255 255 255 255 255 255 255 255 255 255 255 255 255
255 255 255 255 255 255 255 255 255 255 255 255 255 255 255 255 255 255 255 255 255 255 255 255 255 255 255 255 255 255 255 255 250 225 197 178 161 154 161 174 184 190 195 195 197 197 198 200 202 202 199 196 199 191 193 197 187 189 175 173 167 168 170 183 189 208 222 238 251 255 255 255 255 255 255 255 255 255 255 255 255 255 255 255 255 255 255 255 255 255 255 255 255 255 255 255 255 255 255 255 255 255 255 255 255 255 255 255 255
255 255 255 255 255 255 255 255 255 255 255 255 255 255 255 255 255 255 255 255 255 255 255 255 255 255 255 255 255 255 255 254 230 203 176 158 148 162 180 189 193 195 201 198 204 202 202 203 208 206 204 203 201 201 202 198 196 198 189 185 181 172 161 167 169 183 188 209 225 243 254 255 255 255 255 255 255 255 255 255 255 255 255 255 255 255 255 255 255 255 255 255 255 255 255 255 255 255 255 255 255 255 255 255 255 255 255 255 255
255 255 255 255 255 255 255 255 255 255 255 255 255 255 255 255 255 255 255 255 255 255 255 255 255 255 255 255 255 255 255 242 207 175 155 157 158 179 193 199 202 201 203 202 206 212 209 205 207 210 208 206 208 204 206 203 203 200 194 201 191 189 184 167 166 165 169 178 190 210 229 249 255 255 255 255 255 255 255 255 255 255 255 255 255 255 255 255 255 255 255 255 255 255 255 255 255 255 255 255 255 255 255 255 255 255 255 255 255
255 255 255 255 255 255 255 255 255 255 255 255 255 255 255 255 255 255 255 255 255 255 255 255 255 255 255 255 255 255 251 215 184 161 151 153 177 191 199 205 204 206 205 208 209 210 209 206 207 208 207 208 209 207 210 209 202 205 203 204 199 198 197 192 180 166 162 162 165 179 199 220 239 254 255 255 255 255 255 255 255 255 255 255 255 255 255 255 255 255 255 255 255 255 255 255 255 255 255 255 255 255 255 255 255 255 255 255 255
255 255 255 255 255 255 255 255 255 255 255 255 255 255 255 255 255 255 255 255 255 255 255 255 255 255 255 255 255 255 236 197 166 147 146 176 193 198 201 203 203 208 209 211 207 210 214 213 213 209 212 210 211 212 209 206 211 210 206 202 203 196 202 198 194 186 175 165 157 162 174 190 208 231 250 255 255 255 255 255 255 255 255 255 255 255 255 255 255 255 255 255 255 255 255 255 255 255 255 255 255 255 255 255 255 255 255 255 255
255 255 255 255 255 255 255 255 255 255 255 255 255 255 255 255 255 255 255 255 255 255 255 255 255 255 255 255 255 250 206 171 150 138 152 185 195 196 205 209 209 210 209 208 212 214 212 214 213 210 209 213 213 215 209 208 209 210 206 207 205 201 203 201 199 197 193 184 173 156 160 162 179 202 222 246 255 255 255 255 255 255 255 255 255 255 255 255 255 255 255 255 255 255 255 255 255 255 255 255 255 255 255 255 255 255 255 255 255
255 255 255 255 255 255 255 255 255 255 255 255 255 255 255 255 255 255 255 255 255 255 255 255 255 255 255 255 255 237 189 158 138 144 172 197 198 202 203 206 207 213 211 214 214 217 213 217 215 214 214 214 211 215 211 215 210 209 208 206 209 207 203 207 202 202 198 190 192 178 166 151 161 173 193 210 242 254 255 255 255 255 255 255 255 255 255 255 255 255 255 255 255 255 255 255 255 255 255 255 255 255 255 255 255 255 255 255 255
255 255 255 255 255 255 255 255 255 255 255 255 255 255 255 255 255 255 255 255 255 255 255 255 255 255 255 255 253 216 170 151 143 144 186 199 203 203 205 214 210 214 213 213 212 214 215 215 212 213 214 213 218 219 215 213 212 212 211 209 211 211 211 204 205 201 200 200 195 193 188 164 152 158 167 185 202 234 253 255 255 255 255 255 255 255 255 255 255 255 255 255 255 255 255 255 255 255 255 255 255 255 255 255 255 255 255 255 255
255 255 255 255 255 255 255 255 255 255 255 255 255 255 255 255 255 255 255 255 255 255 255 255 255 255 255 255 243 198 160 147 141 169 198 202 204 211 211 211 210 214 214 212 214 214 215 217 212 216 217 215 217 216 213 213 214 215 213 210 209 210 211 209 210 207 205 201 201 197 191 184 176 159 154 166 177 202 230 252 255 255 255 255 255 255 255 255 255 255 255 255 255 255 255 255 255 255 255 255 255 255 255 255 255 255 255 255 255
255 255 255 255 255 255 255 255 255 255 255 255 255 255 255 255 255 255 255 255 255 255 255 255 255 255 255 255 229 180 155 140 149 185 198 202 206 210 214 215 215 215 214 214 215 216 215 218 214 213 216 215 219 218 214 215 215 213 209 211 216 210 208 210 208 208 209 206 204 205 194 196 188 178 159 154 160 177 197 227 252 255 255 255 255 255 255 255 255 255 255 255 255 255 255 255 255 255 255 255 255 255 255 255 255 255 255 255 255
255 255 255 255 255 255 255 255 255 255 255 255 255 255 255 255 255 255 255 255 255 255 255 255 255 255 255 252 211 174 147 137 160 191 196 205 206 214 213 214 213 214 218 216 215 217 216 218 215 216 214 215 218 220 217 217 215 214 214 215 213 214 212 210 209 209 208 205 208 203 202 194 192 191 178 161 147 163 174 193 225 251 255 255 255 255 255 255 255 255 255 255 255 255 255 255 255 255 255 255 255 255 255 255 255 255 255 255 255
255 255 255 255 255 255 255 255 255 255 255 255 255 255 255 255 255 255 255 255 255 255 255 255 255 255 255 243 196 162 143 141 184 198 203 207 212 212 215 212 218 220 214 216 219 218 219 218 217 221 215 218 216 218 218 217 215 215 213 219 214 214 212 213 208 213 210 211 206 206 203 201 197 195 190 180 166 153 154 173 197 223 251 255 255 255 255 255 255 255 255 255 255 255 255 255 255 255 255 255 255 255 255 255 255 255 255 255 255
255 255 255 255 255 255 255 255 255 255 255 255 255 255 255 255 255 255 255 255 255 255 255 255 255 255 255 234 182 154 145 153 188 198 205 210 209 211 215 211 212 218 217 218 215 220 218 218 218 217 218 218 216 218 217 219 218 217 215 215 215 217 214 209 214 211 213 207 209 209 205 208 202 195 196 190 188 165 149 155 173 195 224 252 255 255 255 255 255 255 255 255 255 255 255 255 255 255 255 255 255 255 255 255 255 255 255 255 255
255 255 255 255 255 255 255 255 255 255 255 255 255 255 255 255 255 255 255 255 255 255 255 255 255 255 254 221 178 153 142 162 194 203 206 215 209 215 217 216 216 213 219 217 218 218 217 216 219 218 216 218 218 222 214 217 218 214 214 216 217 214 214 213 213 213 213 213 210 210 207 203 205 201 199 197 191 183 165 151 154 172 196 228 253 255 255 255 255 255 255 255 255 255 255 255 255 255 255 255 255 255 255 255 255 255 255 255 255
255 255 255 255 255 255 255 255 255 255 255 255 255 255 255 255 255 255 255 255 255 255 255 255 255 255 251 208 171 153 141 174 198 203 209 209 213 213 219 215 215 221 216 216 220 216 219 220 219 217 221 215 217 217 218 216 221 221 216 219 217 217 217 215 213 215 213 214 210 206 207 209 206 206 205 197 197 189 187 164 150 152 176 198 234 254 255 255 255 255 255 255 255 255 255 255 255 255 255 255 255 255 255 255 255 255 255 255 255
255 255 255 255 255 255 255 255 255 255 255 255 255 255 255 255 255 255 255 255 255 255 255 255 255 255 245 198 161 145 145 183 199 205 211 209 209 215 216 216 217 216 222 220 216 216 217 218 220 219 219 219 222 218 220 218 217 217 219 220 216 219 215 213 214 214 211 211 216 214 211 207 204 206 205 202 197 190 187 181 160 148 160 176 205 240 255 255 255 255 255 255 255 255 255 255 255 255 255 255 255 255 255 255 255 255 255 255 255
255 255 255 255 255 255 255 255 255 255 255 255 255 255 255 255 255 255 255 255 255 255 255 255 255 255 235 189 157 141 151 187 199 201 211 213 217 219 215 218 216 219 220 219 218 218 222 217 218 221 221 217 219 217 218 218 216 217 214 216 216 218 217 217 219 215 215 212 212 213 211 213 207 206 205 204 202 196 199 190 179 157 144 153 178 210 242 255 255 255 255 255 255 255 255 255 255 255 255 255 255 255 255 255 255 255 255 255 255
255 255 255 255 255 255 255 255 255 255 255 255 255 255 255 255 255 255 255 255 255 255 255 255 255 255 228 186 160 149 158 195 203 210 211 214 213 216 217 216 218 220 221 220 218 217 219 221 217 220 221 219 218 218 223 218 218 217 217 219 219 218 217 216 212 215 213 216 211 212 213 206 210 211 211 205 205 203 204 193 186 177 151 147 167 189 223 251 255 255 255 255 255 255 255 255 255 255 255 255 255 255 255 255 255 255 255 255 255
255 255 255 255 255 255 255 255 255 255 255 255 255 255 255 255 255 255 255 255 255 255 255 255 255 254 218 181 154 146 167 197 205 208 210 212 215 216 216 216 219 216 221 221 217 219 218 219 218 219 217 218 220 219 218 218 222 219 216 220 217 220 219 214 214 213 214 214 214 213 212 213 209 210 210 208 208 205 204 202 194 186 171 150 148 168 193 228 254 255 255 255 255 255 255 255 255 255 255 255 255 255 255 255 255 255 255 255 255
255 255 255 255 255 255 255 255 255 255 255 255 255 255 255 255 255 255 255 255 255 255 255 255 255 253 214 170 150 147 175 199 207 209 211 212 211 215 219 216 219 218 218 217 221 222 218 218 219 217 220 219 219 220 221 217 218 216 218 221 216 218 219 218 217 219 216 213 211 215 215 211 213 215 209 213 207 208 206 201 195 195 186 171 155 151 176 195 240 255 255 255 255 255 255 255 255 255 255 255 255 255 255 255 255 255 255 255 255
255 255 255 255 255 255 255 255 255 255 255 255 255 255 255 255 255 255 255 255 255 255 255 255 255 250 209 169 147 142 176 200 209 210 208 218 214 219 214 221 221 219 220 219 221 219 222 217 218 218 222 220 219 221 219 218 219 219 218 217 216 220 221 219 216 217 217 215 214 218 213 213 211 209 210 212 207 207 203 202 199 198 188 185 158 147 160 183 211 249 255 255 255 255 255 255 255 255 255 255 255 255 255 255 255 255 255 255 255
255 255 255 255 255 255 255 255 255 255 255 255 255 255 255 255 255 255 255 255 255 255 255 255 255 248 201 170 149 147 188 201 208 209 209 213 214 218 215 217 218 224 220 218 221 221 219 220 220 224 223 222 221 218 222 220 220 215 220 215 217 215 216 215 213 218 213 216 212 217 214 217 213 214 209 206 209 207 206 206 201 200 196 189 182 153 146 164 196 229 254 255 255 255 255 255 255 255 255 255 255 255 255 255 255 255 255 255 255
255 255 255 255 255 255 255 255 255 255 255 255 255 255 255 255 255 255 255 255 255 255 255 255 255 247 198 164 150 150 188 204 207 214 211 216 219 214 218 218 220 220 218 220 221 221 221 220 219 219 222 221 218 218 221 218 217 218 217 219 220 218 216 218 218 217 215 216 219 211 217 217 215 212 209 208 212 208 206 208 206 202 196 197 185 173 152 152 175 202 242 255 255 255 255 255 255 255 255 255 255 255 255 255 255 255 255 255 255
255 255 255 255 255 255 255 255 255 255 255 255 255 255 255 255 255 255 255 255 255 255 255 255 255 246 195 164 147 152 187 205 211 212 214 218 212 218 216 218 218 218 220 219 223 222 217 220 221 216 220 217 222 223 219 218 222 220 218 219 221 221 217 216 218 217 219 216 219 212 216 214 217 214 212 215 208 209 205 207 204 203 202 198 187 182 160 143 159 183 219 253 255 255 255 255 255 255 255 255 255 255 255 255 255 255 255 255 255
255 255 255 255 255 255 255 255 255 255 255 255 255 255 255 255 255 255 255 255 255 255 255 255 255 242 194 162 141 159 191 206 210 211 213 216 219 216 217 219 218 220 222 220 219 223 220 221 224 222 221 221 219 218 218 219 218 218 219 218 218 220 220 215 219 217 216 216 213 217 215 216 214 214 216 213 212 208 209 207 208 202 202 197 195 185 176 154 151 170 194 236 255 255 255 255 255 255 255 255 255 255 255 255 255 255 255 255 255
255 255 255 255 255 255 255 255 255 255 255 255 255 255 255 255 255 255 255 255 255 255 255 255 255 240 190 162 142 154 194 203 205 209 212 215 213 217 220 218 217 218 216 217 221 221 221 222 221 218 219 218 220 222 219 220 220 222 220 219 222 220 219 219 217 214 217 217 218 216 217 214 217 215 212 216 214 211 209 206 206 206 203 202 199 194 182 167 148 158 180 214 251 255 255 255 255 255 255 255 255 255 255 255 255 255 255 255 255
255 255 255 255 255 255 255 255 255 255 255 255 255 255 255 255 255 255 255 255 255 255 255 255 255 241 193 160 147 148 191 204 207 209 212 215 214 216 215 219 220 221 217 220 220 219 219 221 220 220 221 222 221 220 224 220 219 220 217 223 217 219 221 218 221 218 220 217 217 216 215 212 215 213 216 213 213 210 208 210 207 206 205 204 202 196 192 181 151 150 164 195 234 255 255 255 255 255 255 255 255 255 255 255 255 255 255 255 255
255 255 255 255 255 255 255 255 255 255 255 255 255 255 255 255 255 255 255 255 255 255 255 255 255 240 189 159 148 156 194 203 208 211 213 215 216 215 216 218 218 220 220 219 220 219 220 218 224 220 219 218 222 218 220 220 220 217 216 217 217 219 218 217 220 212 215 216 221 219 214 217 216 213 216 217 215 214 210 209 209 208 207 204 201 202 192 184 172 150 155 181 219 251 255 255 255 255 255 255 255 255 255 255 255 255 255 255 255
255 255 255 255 255 255 255 255 255 255 255 255 255 255 255 255 255 255 255 255 255 255 255 255 255 245 195 163 152 157 197 205 208 214 212 216 217 215 220 217 219 219 223 221 222 222 221 221 220 220 220 222 223 221 221 222 219 221 220 220 218 217 220 219 220 216 215 220 215 218 218 215 217 216 218 214 215 214 211 212 212 207 206 207 202 200 194 192 178 155 146 171 198 240 255 255 255 255 255 255 255 255 255 255 255 255 255 255 255
255 255 255 255 255 255 255 255 255 255 255 255 255 255 255 255 255 255 255 255 255 255 255 255 255 243 196 166 153 155 196 204 208 211 208 217 216 218 218 221 217 219 218 219 221 220 223 221 220 222 222 221 220 221 222 217 218 221 220 218 219 219 219 220 218 218 218 222 220 215 216 215 220 215 218 215 213 211 213 212 211 207 206 210 204 201 198 192 185 170 147 156 181 219 252 255 255 255 255 255 255 255 255 255 255 255 255 255 255
255 255 255 255 255 255 255 255 255 255 255 255 255 255 255 255 255 255 255 255 255 255 255 255 255 245 197 169 150 153 188 203 210 209 210 216 216 219 220 216 220 220 216 220 216 221 219 221 220 224 218 222 219 223 220 219 219 222 225 221 217 221 218 222 220 218 216 220 220 218 217 219 216 218 218 216 214 213 212 214 209 207 205 206 210 203 201 196 196 181 154 149 171 203 243 255 255 255 255 255 255 255 255 255 255 255 255 255 255
255 255 255 255 255 255 255 255 255 255 255 255 255 255 255 255 255 255 255 255 255 255 255 255 255 247 202 166 147 154 184 207 207 216 215 216 221 219 217 217 219 219 218 219 219 219 219 219 225 222 220 221 222 220 223 219 219 220 221 219 218 222 218 218 218 216 219 221 213 218 215 215 215 217 216 217 211 217 215 216 215 212 210 204 206 204 203 200 193 191 168 152 162 190 226 255 255 255 255 255 255 255 255 255 255 255 255 255 255
255 255 255 255 255 255 255 255 255 255 255 255 255 255 255 255 255 255 255 255 255 255 255 255 255 250 208 169 153 152 187 204 203 213 212 212 215 215 218 218 218 220 220 224 221 220 222 221 223 219 217 219 222 222 223 219 222 221 221 219 221 221 218 219 220 221 217 218 217 218 216 220 216 215 218 215 215 214 218 213 212 209 210 211 211 204 204 199 200 190 179 150 155 172 211 248 255 255 255 255 255 255 255 255 255 255 255 255 255
255 255 255 255 255 255 255 255 255 255 255 255 255 255 255 255 255 255 255 255 255 255 255 255 255 252 211 179 154 153 182 199 203 209 210 214 216 217 218 221 219 220 222 220 220 219 224 221 221 223 222 221 222 222 222 219 221 218 218 225 220 222 221 218 218 222 219 220 219 219 217 219 214 219 215 216 216 216 215 214 211 213 211 208 209 207 203 201 197 197 183 163 148 169 201 238 255 255 255 255 255 255 255 255 255 255 255 255 255
255 255 255 255 255 255 255 255 255 255 255 255 255 255 255 255 255 255 255 255 255 255 255 255 255 254 216 181 154 150 176 199 209 210 213 211 214 216 218 218 215 217 220 220 221 221 221 221 216 222 219 222 220 221 220 220 222 216 220 221 218 216 219 217 221 222 218 215 222 216 217 218 217 219 214 216 216 215 215 215 213 212 215 210 213 210 206 206 201 198 184 171 151 160 181 222 254 255 255 255 255 255 255 255 255 255 255 255 255
255 255 255 255 255 255 255 255 255 255 255 255 255 255 255 255 255 255 255 255 255 255 255 255 255 255 228 185 161 149 166 199 206 210 216 215 214 218 218 218 220 218 220 221 222 218 221 220 221 221 218 217 217 224 222 222 221 222 219 219 221 220 220 222 222 222 220 218 219 220 218 219 215 221 214 220 215 217 215 214 215 213 211 212 210 210 212 208 205 196 194 182 158 155 182 212 248 255 255 255 255 255 255 255 255 255 255 255 255
255 255 255 255 255 255 255 255 255 255 255 255 255 255 255 255 255 255 255 255 255 255 255 255 255 255 232 190 162 143 163 199 204 210 210 213 216 218 217 218 219 219 217 221 219 218 222 223 222 220 222 221 220 221 223 219 216 218 220 221 220 221 219 217 218 221 220 220 219 220 220 217 217 219 217 212 216 214 219 212 215 212 214 214 213 210 208 206 203 201 193 185 163 150 169 198 239 255 255 255 255 255 255 255 255 255 255 255 255
255 255 255 255 255 255 255 255 255 255 255 255 255 255 255 255 255 255 255 255 255 255 255 255 255 255 244 198 169 154 156 193 206 207 209 212 212 214 215 220 217 221 220 219 219 220 222 221 221 222 220 221 221 222 218 219 222 217 223 220 218 220 217 217 218 217 218 216 221 218 218 218 219 219 215 219 216 217 215 216 215 212 214 213 212 212 208 208 202 204 199 191 178 150 163 188 225 254 255 255 255 255 255 255 255 255 255 255 255
255 255 255 255 255 255 255 255 255 255 255 255 255 255 255 255 255 255 255 255 255 255 255 255 255 255 250 206 171 154 150 187 202 206 210 215 213 219 217 216 219 221 222 220 223 220 220 220 216 222 224 215 220 220 224 220 221 221 217 218 222 222 221 219 219 221 220 221 220 217 220 218 219 217 216 217 215 216 219 214 215 216 214 212 213 209 211 206 202 204 199 194 181 160 159 178 214 251 255 255 255 255 255 255 255 255 255 255 255
255 255 255 255 255 255 255 255 255 255 255 255 255 255 255 255 255 255 255 255 255 255 255 255 255 255 254 216 177 157 150 172 198 202 212 215 213 215 219 219 218 221 218 215 221 223 219 221 223 221 222 221 221 222 220 223 219 222 219 223 219 219 222 220 218 224 218 220 220 219 221 217 219 219 218 217 216 214 218 215 215 217 216 212 211 211 210 208 203 204 201 193 183 165 160 175 209 245 255 255 255 255 255 255 255 255 255 255 255
255 255 255 255 255 255 255 255 255 255 255 255 255 255 255 255 255 255 255 255 255 255 255 255 255 255 255 229 189 162 154 170 198 204 208 215 213 215 215 220 217 220 220 220 219 221 223 218 217 220 222 218 221 219 222 222 221 221 219 218 222 221 218 220 220 219 218 218 222 219 220 219 218 219 219 218 216 220 217 218 217 215 217 214 211 210 213 213 209 209 202 200 191 172 162 173 200 237 255 255 255 255 255 255 255 255 255 255 255
255 255 255 255 255 255 255 255 255 255 255 255 255 255 255 255 255 255 255 255 255 255 255 255 255 255 255 241 194 168 147 157 191 202 208 208 214 214 216 216 216 217 221 219 220 222 220 219 219 219 221 222 220 224 221 221 219 222 219 220 218 220 217 221 219 220 221 216 217 218 217 219 220 219 220 220 217 219 217 217 216 215 215 214 211 211 215 212 209 207 200 196 199 176 152 166 190 229 255 255 255 255 255 255 255 255 255 255 255
255 255 255 255 255 255 255 255 255 255 255 255 255 255 255 255 255 255 255 255 255 255 255 255 255 255 255 251 205 178 158 156 180 199 207 209 211 215 218 216 217 220 218 216 225 219 220 221 221 222 222 222 221 222 221 220 222 218 221 221 220 220 219 219 219 220 217 218 219 220 216 218 216 219 218 215 219 218 217 218 213 216 216 216 212 213 210 210 208 206 203 200 190 182 163 165 186 223 253 255 255 255 255 255 255 255 255 255 255
255 255 255 255 255 255 255 255 255 255 255 255 255 255 255 255 255 255 255 255 255 255 255 255 255 255 255 254 222 191 155 158 163 193 205 208 213 213 217 218 218 213 218 221 219 221 218 218 221 222 221 223 220 220 222 218 221 219 222 223 222 222 219 220 221 221 220 222 221 218 220 219 217 220 221 220 217 219 215 221 216 217 218 212 213 214 211 211 210 205 206 199 197 184 166 157 181 215 250 255 255 255 255 255 255 255 255 255 255
255 255 255 255 255 255 255 255 255 255 255 255 255 255 255 255 255 255 255 255 255 255 255 255 255 255 255 255 236 194 166 152 159 191 207 204 212 212 213 217 216 217 219 218 220 218 219 219 221 223 219 222 221 219 221 219 221 220 220 219 219 220 221 220 222 221 222 219 215 220 218 219 219 219 219 220 220 216 214 217 216 217 216 215 216 212 215 208 204 209 206 205 197 192 170 162 177 209 247 255 255 255 255 255 255 255 255 255 255
255 255 255 255 255 255 255 255 255 255 255 255 255 255 255 255 255 255 255 255 255 255 255 255 255 255 255 255 248 203 178 157 155 182 200 208 206 212 213 215 215 217 217 217 218 220 217 220 217 219 221 223 221 225 219 219 222 220 221 222 221 220 219 221 219 219 222 217 223 221 221 217 218 219 220 214 221 216 218 217 215 220 213 218 212 211 211 207 210 209 205 203 193 188 178 158 175 207 242 255 255 255 255 255 255 255 255 255 255
255 255 255 255 255 255 255 255 255 255 255 255 255 255 255 255 255 255 255 255 255 255 255 255 255 255 255 255 254 226 187 161 152 166 197 205 209 211 211 211 215 218 218 217 219 220 220 219 218 220 223 220 224 219 222 220 217 220 220 221 222 221 224 220 223 220 218 218 218 217 222 218 220 216 217 219 217 218 220 219 216 214 219 217 214 214 213 211 209 208 206 206 201 192 179 158 175 203 236 255 255 255 255 255 255 255 255 255 255
255 255 255 255 255 255 255 255 255 255 255 255 255 255 255 255 255 255 255 255 255 255 255 255 255 255 255 255 255 242 200 174 154 155 186 198 204 212 211 217 217 218 217 219 217 218 220 219 219 218 219 222 222 221 221 225 220 218 222 222 222 221 216 220 218 221 220 218 219 222 220 217 218 221 222 218 219 218 215 221 216 217 217 215 215 212 212 212 213 210 209 204 204 192 178 158 173 198 234 255 255 255 255 255 255 255 255 255 255
255 255 255 255 255 255 255 255 255 255 255 255 255 255 255 255 255 255 255 255 255 255 255 255 255 255 255 255 255 253 220 183 161 152 170 195 201 211 209 210 215 218 219 219 218 215 221 219 218 222 219 221 218 223 221 220 224 221 221 220 222 221 222 220 221 220 220 220 221 219 221 219 220 219 219 219 221 217 217 218 216 219 221 211 214 215 215 216 208 209 204 202 203 192 180 159 175 198 228 254 255 255 255 255 255 255 255 255 255
255 255 255 255 255 255 255 255 255 255 255 255 255 255 255 255 255 255 255 255 255 255 255 255 255 255 255 255 255 255 239 195 168 152 158 185 199 207 209 212 215 213 216 216 221 214 216 217 219 219 217 219 221 224 216 221 223 220 220 222 222 221 220 222 224 220 224 219 220 221 221 220 220 222 222 218 222 218 219 218 217 220 214 216 215 215 214 212 212 212 205 204 203 195 185 164 166 190 228 254 255 255 255 255 255 255 255 255 255
255 255 255 255 255 255 255 255 255 255 255 255 255 255 255 255 255 255 255 255 255 255 255 255 255 255 255 255 255 255 252 216 180 163 152 168 199 204 207 210 210 215 215 216 218 219 218 218 219 216 221 221 217 221 220 220 219 217 222 220 220 220 217 222 222 218 220 221 222 220 221 218 221 221 216 218 219 218 219 217 218 217 215 215 216 216 213 212 211 210 209 207 202 199 184 164 169 192 224 254 255 255 255 255 255 255 255 255 255
255 255 255 255 255 255 255 255 255 255 255 255 255 255 255 255 255 255 255 255 255 255 255 255 255 255 255 255 255 255 255 239 195 172 155 152 185 202 202 210 209 213 213 220 217 214 220 218 218 222 221 220 220 218 222 220 223 221 222 224 218 220 222 220 221 218 225 221 218 220 219 223 220 220 219 218 220 219 216 220 218 218 218 217 214 215 216 215 209 211 206 202 202 196 188 166 169 195 225 252 255 255 255 255 255 255 255 255 255
255 255 255 255 255 255 255 255 255 255 255 255 255 255 255 255 255 255 255 255 255 255 255 255 255 255 255 255 255 255 255 252 218 185 164 156 162 190 199 204 211 213 214 217 215 216 217 220 217 219 223 222 221 219 218 222 221 222 220 218 219 221 220 221 217 221 218 222 219 217 218 219 219 222 220 216 217 219 220 220 218 218 217 217 217 216 216 212 214 210 209 206 200 200 188 166 169 189 224 252 255 255 255 255 255 255 255 255 255
255 255 255 255 255 255 255 255 255 255 255 255 255 255 255 255 255 255 255 255 255 255 255 255 255 255 255 255 255 255 255 255 241 206 176 159 154 176 203 201 208 210 213 215 213 216 214 219 219 218 220 218 220 218 219 220 221 219 218 220 220 221 221 222 220 221 222 219 220 215 219 220 221 221 219 220 219 221 221 217 219 217 222 216 217 212 217 216 213 209 209 205 200 198 187 169 169 190 224 251 255 255 255 255 255 255 255 255 255
255 255 255 255 255 255 255 255 255 255 255 255 255 255 255 255 255 255 255 255 255 255 255 255 255 255 255 255 255 255 255 255 254 221 188 168 153 158 184 202 204 209 209 215 211 213 215 218 218 219 220 218 218 221 218 222 224 223 220 221 217 225 222 223 220 221 221 220 221 221 219 220 220 221 219 218 218 218 220 218 218 219 215 215 217 216 212 212 213 209 208 206 204 200 187 169 173 193 228 253 255 255 255 255 255 255 255 255 255
255 255 255 255 255 255 255 255 255 255 255 255 255 255 255 255 255 255 255 255 255 255 255 255 255 255 255 255 255 255 255 255 255 248 210 180 161 151 165 187 201 209 209 215 211 214 217 219 215 217 217 217 221 221 217 223 218 220 218 220 217 222 221 220 221 221 220 224 220 218 222 221 222 220 220 221 221 219 217 220 216 217 220 217 219 216 213 214 213 212 212 205 199 196 188 168 173 197 224 253 255 255 255 255 255 255 255 255 255
255 255 255 255 255 255 255 255 255 255 255 255 255 255 255 255 255 255 255 255 255 255 255 255 255 255 255 255 255 255 255 255 255 255 236 199 170 156 159 171 196 202 207 212 214 212 216 213 217 219 215 218 217 219 217 222 220 223 219 221 221 219 219 219 222 224 217 220 222 220 222 218 218 219 220 220 218 217 221 218 216 218 217 218 214 216 212 213 212 210 208 208 203 193 192 171 171 190 228 254 255 255 255 255 255 255 255 255 255
255 255 255 255 255 255 255 255 255 255 255 255 255 255 255 255 255 255 255 255 255 255 255 255 255 255 255 255 255 255 255 255 255 255 252 225 188 166 156 152 180 197 208 205 210 212 214 218 216 217 217 218 218 220 220 221 220 216 221 219 219 219 219 223 219 221 220 219 218 221 223 221 219 220 220 219 220 218 216 220 218 217 217 215 216 212 216 214 211 210 211 199 204 195 188 171 176 198 231 254 255 255 255 255 255 255 255 255 255
255 255 255 255 255 255 255 255 255 255 255 255 255 255 255 255 255 255 255 255 255 255 255 255 255 255 255 255 255 255 255 255 255 255 255 248 215 180 163 149 154 180 199 199 209 209 212 214 213 212 215 216 219 217 221 217 219 220 219 220 221 223 220 219 221 220 223 220 220 220 219 221 220 219 220 221 221 220 218 220 218 217 218 215 215 213 213 213 211 204 205 209 205 195 186 170 176 203 235 255 255 255 255 255 255 255 255 255 255
255 255 255 255 255 255 255 255 255 255 255 255 255 255 255 255 255 255 255 255 255 255 255 255 255 255 255 255 255 255 255 255 255 255 255 255 242 203 175 162 156 157 188 199 203 209 210 211 211 215 212 217 212 217 218 217 218 218 219 222 219 221 222 221 220 221 224 223 223 216 219 218 221 221 219 220 219 218 219 219 217 218 216 216 215 212 216 210 210 210 209 205 199 191 185 164 180 204 237 255 255 255 255 255 255 255 255 255 255
255 255 255 255 255 255 255 255 255 255 255 255 255 255 255 255 255 255 255 255 255 255 255 255 255 255 255 255 255 255 255 255 255 255 255 255 255 236 199 173 159 152 154 184 201 205 204 211 210 213 213 217 216 217 217 219 214 222 222 218 219 222 218 223 222 221 220 220 217 220 220 220 217 221 220 220 218 215 218 215 220 219 215 217 213 218 212 214 210 208 207 207 197 192 185 161 183 209 242 255 255 255 255 255 255 255 255 255 255
255 255 255 255 255 255 255 255 255 255 255 255 255 255 255 255 255 255 255 255 255 255 255 255 255 255 255 255 255 255 255 255 255 255 255 255 255 254 232 197 169 159 152 163 185 203 205 205 212 214 212 215 216 215 218 216 217 220 217 219 218 219 219 218 218 219 219 219 221 219 220 221 219 220 216 220 219 215 217 216 215 218 215 218 214 212 212 212 213 203 205 204 198 189 177 174 190 214 246 255 255 255 255 255 255 255 255 255 255
255 255 255 255 255 255 255 255 255 255 255 255 255 255 255 255 255 255 255 255 255 255 255 255 255 255 255 255 255 255 255 255 255 255 255 255 255 255 253 225 197 172 156 157 158 184 197 206 207 208 211 211 213 216 215 216 214 216 218 215 215 218 223 215 221 219 220 222 221 220 220 220 221 220 217 221 218 217 219 220 218 221 215 214 213 217 212 213 213 207 205 203 198 185 174 174 194 223 249 255 255 255 255 255 255 255 255 255 255
255 255 255 255 255 255 255 255 255 255 255 255 255 255 255 255 255 255 255 255 255 255 255 255 255 255 255 255 255 255 255 255 255 255 255 255 255 255 255 251 226 195 175 160 153 157 182 195 202 207 212 213 211 211 211 212 217 215 217 213 218 219 220 215 220 216 219 219 220 220 219 219 219 218 217 218 221 216 219 218 216 214 214 216 210 211 214 213 209 208 200 204 194 186 167 175 198 227 252 255 255 255 255 255 255 255 255 255 255
255 255 255 255 255 255 255 255 255 255 255 255 255 255 255 255 255 255 255 255 255 255 255 255 255 255 255 255 255 255 255 255 255 255 255 255 255 255 255 255 251 223 196 170 164 150 153 174 194 202 204 206 213 215 210 214 213 215 214 218 215 218 218 221 219 221 223 222 219 218 221 218 220 218 215 218 219 220 217 219 220 215 214 214 214 210 209 212 207 205 201 194 193 183 169 179 204 235 255 255 255 255 255 255 255 255 255 255 255
255 255 255 255 255 255 255 255 255 255 255 255 255 255 255 255 255 255 255 255 255 255 255 255 255 255 255 255 255 255 255 255 255 255 255 255 255 255 255 255 255 250 226 196 180 159 158 153 169 183 198 204 210 208 210 215 216 214 216 217 216 219 216 218 216 213 216 218 217 218 220 217 215 219 217 218 217 220 218 218 218 216 216 212 210 216 208 208 207 203 202 200 189 176 171 185 210 244 255 255 255 255 255 255 255 255 255 255 255
255 255 255 255 255 255 255 255 255 255 255 255 255 255 255 255 255 255 255 255 255 255 255 255 255 255 255 255 255 255 255 255 255 255 255 255 255 255 255 255 255 255 253 229 198 179 169 154 149 155 185 201 200 207 205 214 210 214 215 217 218 214 214 214 217 216 217 214 216 220 218 217 220 216 216 215 220 219 215 217 216 211 215 211 213 210 211 206 204 203 202 195 182 170 177 196 223 250 255 255 255 255 255 255 255 255 255 255 255
255 255 255 255 255 255 255 255 255 255 255 255 255 255 255 255 255 255 255 255 255 255 255 255 255 255 255 255 255 255 255 255 255 255 255 255 255 255 255 255 255 255 255 254 237 206 184 165 160 150 154 175 185 199 208 208 207 207 212 210 211 214 216 215 217 215 215 215 214 217 216 218 216 219 215 214 217 213 218 216 216 212 213 216 214 209 209 208 208 200 196 189 173 170 181 200 234 254 255 255 255 255 255 255 255 255 255 255 255
255 255 255 255 255 255 255 255 255 255 255 255 255 255 255 255 255 255 255 255 255 255 255 255 255 255 255 255 255 255 255 255 255 255 255 255 255 255 255 255 255 255 255 255 254 242 211 189 169 159 153 150 166 180 195 201 205 210 209 206 211 212 213 213 212 216 219 213 213 215 214 213 212 215 214 216 214 214 216 213 214 214 211 213 209 203 208 204 202 198 194 184 171 171 185 213 243 255 255 255 255 255 255 255 255 255 255 255 255
255 255 255 255 255 255 255 255 255 255 255 255 255 255 255 255 255 255 255 255 255 255 255 255 255 255 255 255 255 255 255 255 255 255 255 255 255 255 255 255 255 255 255 255 255 255 249 221 193 177 162 154 144 151 162 183 199 202 205 205 206 210 211 210 211 209 215 210 213 211 213 216 213 216 216 214 216 215 211 215 215 211 211 211 208 207 205 201 202 194 189 173 162 177 195 226 252 255 255 255 255 255 255 255 255 255 255 255 255
255 255 255 255 255 255 255 255 255 255 255 255 255 255 255 255 255 255 255 255 255 255 255 255 255 255 255 255 255 255 255 255 255 255 255 255 255 255 255 255 255 255 255 255 255 255 255 253 235 208 186 171 161 151 148 145 169 179 194 199 202 208 202 209 209 207 213 210 212 210 215 214 212 213 211 215 210 213 212 209 216 208 207 211 205 204 201 199 194 188 181 162 163 182 212 240 255 255 255 255 255 255 255 255 255 255 255 255 255
255 255 255 255 255 255 255 255 255 255 255 255 255 255 255 255 255 255 255 255 255 255 255 255 255 255 255 255 255 255 255 255 255 255 255 255 255 255 255 255 255 255 255 255 255 255 255 255 255 248 224 199 184 166 154 148 144 155 165 177 195 199 202 205 206 209 207 211 209 211 209 210 213 212 214 211 211 213 211 211 211 208 208 208 202 199 201 193 188 181 166 167 174 202 225 251 255 255 255 255 255 255 255 255 255 255 255 255 255
255 255 255 255 255 255 255 255 255 255 255 255 255 255 255 255 255 255 255 255 255 255 255 255 255 255 255 255 255 255 255 255 255 255 255 255 255 255 255 255 255 255 255 255 255 255 255 255 255 255 253 239 213 192 171 164 154 149 148 148 155 174 184 193 202 202 206 205 203 204 212 209 210 205 208 208 210 206 205 206 206 203 205 203 199 196 193 186 173 166 163 173 192 216 244 255 255 255 255 255 255 255 255 255 255 255 255 255 255
255 255 255 255 255 255 255 255 255 255 255 255 255 255 255 255 255 255 255 255 255 255 255 255 255 255 255 255 255 255 255 255 255 255 255 255 255 255 255 255 255 255 255 255 255 255 255 255 255 255 255 255 250 235 207 189 179 162 152 147 144 144 149 159 172 185 192 197 196 200 204 202 204 205 205 204 206 201 202 201 200 200 198 198 195 190 179 175 157 160 171 183 208 237 254 255 255 255 255 255 255 255 255 255 255 255 255 255 255
255 255 255 255 255 255 255 255 255 255 255 255 255 255 255 255 255 255 255 255 255 255 255 255 255 255 255 255 255 255 255 255 255 255 255 255 255 255 255 255 255 255 255 255 255 255 255 255 255 255 255 255 255 255 250 232 209 192 180 168 158 153 146 145 143 146 154 164 173 184 189 196 196 202 197 197 198 195 195 195 195 195 192 190 182 168 155 155 160 175 189 207 233 252 255 255 255 255 255 255 255 255 255 255 255 255 255 255 255
255 255 255 255 255 255 255 255 255 255 255 255 255 255 255 255 255 255 255 255 255 255 255 255 255 255 255 255 255 255 255 255 255 255 255 255 255 255 255 255 255 255 255 255 255 255 255 255 255 255 255 255 255 255 255 255 250 234 217 201 185 173 160 154 148 143 147 147 144 148 149 156 157 166 168 170 176 175 170 171 167 164 157 154 152 150 156 162 177 192 212 236 252 255 255 255 255 255 255 255 255 255 255 255 255 255 255 255 255
255 255 255 255 255 255 255 255 255 255 255 255 255 255 255 255 255 255 255 255 255 255 255 255 255 255 255 255 255 255 255 255 255 255 255 255 255 255 255 255 255 255 255 255 255 255 255 255 255 255 255 255 255 255 255 255 255 255 252 243 227 212 200 181 173 162 153 155 154 147 149 141 144 138 137 140 142 139 136 146 137 136 145 151 153 163 171 185 200 219 241 253 255 255 255 255 255 255 255 255 255 255 255 255 255 255 255 255 255
255 255 255 255 255 255 255 255 255 255 255 255 255 255 255 255 255 255 255 255 255 255 255 255 255 255 255 255 255 255 255 255 255 255 255 255 255 255 255 255 255 255 255 255 255 255 255 255 255 255 255 255 255 255 255 255 255 255 255 255 255 250 240 224 215 198 187 177 172 163 159 157 155 147 149 146 142 138 140 140 146 144 153 170 175 184 196 213 229 247 254 255 255 255 255 255 255 255 255 255 255 255 255 255 255 255 255 255 255
255 255 255 255 255 255 255 255 255 255 255 255 255 255 255 255 255 255 255 255 255 255 255 255 255 255 255 255 255 255 255 255 255 255 255 255 255 255 255 255 255 255 255 255 255 255 255 255 255 255 255 255 255 255 255 255 255 255 255 255 255 255 255 255 252 244 235 221 209 199 193 187 180 173 174 171 163 173 168 166 169 175 181 190 200 215 230 244 253 255 255 255 255 255 255 255 255 255 255 255 255 255 255 255 255 255 255 255 255
255 255 255 255 255 255 255 255 255 255 255 255 255 255 255 255 255 255 255 255 255 255 255 255 255 255 255 255 255 255 255 255 255 255 255 255 255 255 255 255 255 255 255 255 255 255 255 255 255 255 255 255 255 255 255 255 255 255 255 255 255 255 255 255 255 255 255 255 251 247 239 233 227 219 215 213 204 210 206 208 210 217 228 236 243 250 255 255 255 255 255 255 255 255 255 255 255 255 255 255 255 255 255 255 255 255 255 255 255
255 255 255 255 255 255 255 255 255 255 255 255 255 255 255 255 255 255 255 255 255 255 255 255 255 255 255 255 255 255 255 255 255 255 255 255 255 255 255 255 255 255 255 255 255 255 255 255 255 255 255 255 255 255 255 255 255 255 255 255 255 255 255 255 255 255 255 255 255 255 255 255 255 254 254 252 251 251 251 252 253 254 255 255 255 255 255 255 255 255 255 255 255 255 255 255 255 255 255 255 255 255 255 255 255 255 255 255 255
255 255 255 255 255 255 255 255 255 255 255 255 255 255 255 255 255 255 255 255 255 255 255 255 255 255 255 255 255 255 255 255 255 255 255 255 255 255 255 255 255 255 255 255 255 255 255 255 255 255 255 255 255 255 255 255 255 255 255 255 255 255 255 255 255 255 255 255 255 255 255 255 255 255 255 255 255 255 255 255 255 255 255 255 255 255 255 255 255 255 255 255 255 255 255 255 255 255 255 255 255 255 255 255 255 255 255 255 255
255 255 255 255 255 255 255 255 255 255 255 255 255 255 255 255 255 255 255 255 255 255 255 255 255 255 255 255 255 255 255 255 255 255 255 255 255 255 255 255 255 255 255 255 255 255 255 255 255 255 255 255 255 255 255 255 255 255 255 255 255 255 255 255 255 255 255 255 255 255 255 255 255 255 255 255 255 255 255 255 255 255 255 255 255 255 255 255 255 255 255 255 255 255 255 255 255 255 255 255 255 255 255 255 255 255 255 255 255
255 255 255 255 255 255 255 255 255 255 255 255 255 255 255 255 255 255 255 255 255 255 255 255 255 255 255 255 255 255 255 255 255 255 255 255 255 255 255 255 255 255 255 255 255 255 255 255 255 255 255 255 255 255 255 255 255 255 255 255 255 255 255 255 255 255 255 255 255 255 255 255 255 255 255 255 255 255 255 255 255 255 255 255 255 255 255 255 255 255 255 255 255 255 255 255 255 255 255 255 255 255 255 255 255 255 255 255 255
255 255 255 255 255 255 255 255 255 255 255 255 255 255 255 255 255 255 255 255 255 255 255 255 255 255 255 255 255 255 255 255 255 255 255 255 255 255 255 255 255 255 255 255 255 255 255 255 255 255 255 255 255 255 255 255 255 255 255 255 255 255 255 255 255 255 255 255 255 255 255 255 255 255 255 255 255 255 255 255 255 255 255 255 255 255 255 255 255 255 255 255 255 255 255 255 255 255 255 255 255 255 255 255 255 255 255 255 255
255 255 255 255 255 255 255 255 255 255 255 255 255 255 255 255 255 255 255 255 255 255 255 255 255 255 255 255 255 255 255 255 255 255 255 255 255 255 255 255 255 255 255 255 255 255 255 255 255 255 255 255 255 255 255 255 255 255 255 255 255 255 255 255 255 255 255 255 255 255 255 255 255 255 255 255 255 255 255 255 255 255 255 255 255 255 255 255 255 255 255 255 255 255 255 255 255 255 255 255 255 255 255 255 255 255 255 255 255
255 255 255 255 255 255 255 255 255 255 255 255 255 255 255 255 255 255 255 255 255 255 255 255 255 255 255 255 255 255 255 255 255 255 255 255 255 255 255 255 255 255 255 255 255 255 255 255 255 255 255 255 255 255 255 255 255 255 255 255 255 255 255 255 255 255 255 255 255 255 255 255 255 255 255 255 255 255 255 255 255 255 255 255 255 255 255 255 255 255 255 255 255 255 255 255 255 255 255 255 255 255 255 255 255 255 255 255 255
255 255 255 255 255 255 255 255 255 255 255 255 255 255 255 255 255 255 255 255 255 255 255 255 255 255 255 255 255 255 255 255 255 255 255 255 255 255 255 255 255 255 255 255 255 255 255 255 255 255 255 255 255 255 255 255 255 255 255 255 255 255 255 255 255 255 255 255 255 255 255 255 255 255 255 255 255 255 255 255 255 255 255 255 255 255 255 255 255 255 255 255 255 255 255 255 255 255 255 255 255 255 255 255 255 255 255 255 255
255 255 255 255 255 255 255 255 255 255 255 255 255 255 255 255 255 255 255 255 255 255 255 255 255 255 255 255 255 255 255 255 255 255 255 255 255 255 255 255 255 255 255 255 255 255 255 255 255 255 255 255 255 255 255 255 255 255 255 255 255 255 255 255 255 255 255 255 255 255 255 255 255 255 255 255 255 255 255 255 255 255 255 255 255 255 255 255 255 255 255 255 255 255 255 255 255 255 255 255 255 255 255 255 255 255 255 255 255
255 255 255 255 255 255 255 255 255 255 255 255 255 255 255 255 255 255 255 255 255 255 255 255 255 255 255 255 255 255 255 255 255 255 255 255 255 255 255 255 255 255 255 255 255 255 255 255 255 255 255 255 255 255 255 255 255 255 255 255 255 255 255 255 255 255 255 255 255 255 255 255 255 255 255 255 255 255 255 255 255 255 255 255 255 255 255 255 255 255 255 255 255 255 255 255 255 255 255 255 255 255 255 255 255 255 255 255 255
255 255 255 255 255 255 255 255 255 255 255 255 255 255 255 255 255 255 255 255 255 255 255 255 255 255 255 255 255 255 255 255 255 255 255 255 255 255 255 255 255 255 255 255 255 255 255 255 255 255 255 255 255 255 255 255 255 255 255 255 255 255 255 255 255 255 255 255 255 255 255 255 255 255 255 255 255 255 255 255 255 255 255 255 255 255 255 255 255 255 255 255 255 255 255 255 255 255 255 255 255 255 255 255 255 255 255 255 255
255 255 255 255 255 255 255 255 255 255 255 255 255 255 255 255 255 255 255 255 255 255 255 255 255 255 255 255 255 255 255 255 255 255 255 255 255 255 255 255 255 255 255 255 255 255 255 255 255 255 255 255 255 255 255 255 255 255 255 255 255 255 255 255 255 255 255 255 255 255 255 255 255 255 255 255 255 255 255 255 255 255 255 255 255 255 255 255 255 255 255 255 255 255 255 255 255 255 255 255 255 255 255 255 255 255 255 255 255
255 255 255 255 255 255 255 255 255 255 255 255 255 255 255 255 255 255 255 255 255 255 255 255 255 255 255 255 255 255 255 255 255 255 255 255 255 255 255 255 255 255 255 255 255 255 255 255 255 255 255 255 255 255 255 255 255 255 255 255 255 255 255 255 255 255 255 255 255 255 255 255 255 255 255 255 255 255 255 255 255 255 255 255 255 255 255 255 255 255 255 255 255 255 255 255 255 255 255 255 255 255 255 255 255 255 255 255 255
255 255 255 255 255 255 255 255 255 255 255 255 255 255 255 255 255 255 255 255 255 255 255 255 255 255 255 255 255 255 255 255 255 255 255 255 255 255 255 255 255 255 255 255 255 255 255 255 255 255 255 255 255 255 255 255 255 255 255 255 255 255 255 255 255 255 255 255 255 255 255 255 255 255 255 255 255 255 255 255 255 255 255 255 255 255 255 255 255 255 255 255 255 255 255 255 255 255 255 255 255 255 255 255 255 255 255 255 255
255 255 255 255 255 255 255 255 255 255 255 255 255 255 255 255 255 255 255 255 255 255 255 255 255 255 255 255 255 255 255 255 255 255 255 255 255 255 255 255 255 255 255 255 255 255 255 255 255 255 255 255 255 255 255 255 255 255 255 255 255 255 255 255 255 255 255 255 255 255 255 255 255 255 255 255 255 255 255 255 255 255 255 255 255 255 255 255 255 255 255 255 255 255 255 255 255 255 255 255 255 255 255 255 255 255 255 255 255
255 255 255 255 255 255 255 255 255 255 255 255 255 255 255 255 255 255 255 255 255 255 255 255 255 255 255 255 255 255 255 255 255 255 255 255 255 255 255 255 255 255 255 255 255 255 255 255 255 255 255 255 255 255 255 255 255 255 255 255 255 255 255 255 255 255 255 255 255 255 255 255 255 255 255 255 255 255 255 255 255 255 255 255 255 255 255 255 255 255 255 255 255 255 255 255 255 255 255 255 255 255 255 255 255 255 255 255 255
255 255 255 255 255 255 255 255 255 255 255 255 255 255 255 255 255 255 255 255 255 255 255 255 255 255 255 255 255 255 255 255 255 255 255 255 255 255 255 255 255 255 255 255 255 255 255 255 255 255 255 255 255 255 255 255 255 255 255 255 255 255 255 255 255 255 255 255 255 255 255 255 255 255 255 255 255 255 255 255 255 255 255 255 255 255 255 255 255 255 255 255 255 255 255 255 255 255 255 255 255 255 255 255 255 255 255 255 255
