P2
92 92
255
255 255 255 255 255 255 255 255 255 255 255 255 255 255 255 255 255 255 255 255 255 255 255 255 255 255 255 255 255 255 255 255 255 255 255 255 255 255 255 255 255 255 255 255 255 255 255 255 255 255 255 255 255 255 255 255 255 255 255 255 255 255 255 255 255 255 255 255 255 255 255 255 255 255 255 255 255 255 255 255 255 255 255 255 255 255 255 255 255 255 255 255
255 255 255 255 255 255 255 255 255 255 255 255 255 255 255 255 255 255 255 255 255 255 255 255 255 255 255 255 255 255 255 255 255 255 255 255 255 255 255 255 255 255 255 255 255 255 255 255 255 255 255 255 255 255 255 255 255 255 255 255 255 255 255 255 255 255 255 255 255 255 255 255 255 255 255 255 255 255 255 255 255 255 255 255 255 255 255 255 255 255 255 255
255 255 255 255 255 255 255 255 255 255 255 255 255 255 255 255 255 255 255 255 255 255 255 255 255 255 255 255 255 255 255 255 255 255 255 255 255 255 255 255 255 255 255 255 255 255 255 255 255 255 255 255 255 255 255 255 255 255 255 255 255 255 255 255 255 255 255 255 255 255 255 255 255 255 255 255 255 255 255 255 255 255 255 255 255 255 255 255 255 255 255 255
255 255 255 255 255 255 255 255 255 255 255 255 255 255 255 255 255 255 255 255 255 255 255 255 255 255 255 255 255 255 255 255 255 255 255 255 255 255 255 255 255 255 255 255 255 255 255 255 255 255 255 255 255 255 255 255 255 255 255 255 255 255 255 255 255 255 255 255 255 255 255 255 255 255 255 255 255 255 255 255 255 255 255 255 255 255 255 255 255 255 255 255
255 255 255 255 255 255 255 255 255 255 255 255 255 255 255 255 255 255 255 255 255 255 255 255 255 255 255 255 255 255 255 255 255 255 255 255 255 255 255 255 255 255 255 255 255 255 255 255 255 255 255 255 255 255 255 255 255 255 255 255 255 255 255 255 255 255 255 255 255 255 255 255 255 255 255 255 255 255 255 255 255 255 255 255 255 255 255 255 255 255 255 255
255 255 255 255 255 255 255 255 255 255 255 255 255 255 255 255 255 255 255 255 255 255 255 255 255 255 255 255 255 255 255 255 255 255 255 255 255 255 255 255 255 255 255 255 255 255 255 255 255 255 255 255 255 255 255 255 255 255 255 255 255 255 255 255 255 255 255 255 255 255 255 255 255 255 255 255 255 255 255 255 255 255 255 255 255 255 255 255 255 255 255 255
255 255 255 255 255 255 255 255 255 255 255 255 255 255 255 255 255 255 255 255 255 255 255 255 255 255 255 255 255 255 255 255 255 255 255 255 255 255 255 255 255 255 255 255 255 255 255 255 255 255 255 255 255 255 255 255 255 255 255 255 255 255 255 255 255 255 255 255 255 255 255 255 255 255 255 255 255 255 255 255 255 255 255 255 255 255 255 255 255 255 255 255
255 255 255 255 255 255 255 255 255 255 255 255 255 255 255 255 255 255 255 255 255 255 255 255 255 255 255 255 255 255 255 255 255 255 255 255 255 255 255 255 255 255 255 255 255 255 255 255 255 255 255 255 255 255 255 255 255 255 255 255 255 255 255 255 255 255 255 255 255 255 255 255 255 255 255 255 255 255 255 255 255 255 255 255 255 255 255 255 255 255 255 255
255 255 255 255 255 255 255 255 255 255 255 255 255 255 255 255 255 255 255 255 255 255 255 255 255 255 255 255 255 255 255 255 255 255 255 255 255 255 255 255 255 255 255 255 255 255 255 255 255 255 255 255 255 255 255 255 255 255 255 255 255 255 255 255 255 255 255 255 255 255 255 255 255 255 255 255 255 255 255 255 255 255 255 255 255 255 255 255 255 255 255 255
255 255 255 255 255 255 255 255 255 255 255 255 255 255 255 255 255 255 255 255 255 255 255 255 255 255 255 255 255 255 255 255 255 255 255 255 255 255 255 255 255 255 255 255 255 255 255 255 255 255 255 255 255 255 255 255 255 255 255 255 255 255 255 255 255 255 255 255 255 255 255 255 255 255 255 255 255 255 255 255 255 255 255 255 255 255 255 255 255 255 255 255
255 255 255 255 255 255 255 255 255 255 255 255 255 255 255 255 255 255 255 255 255 255 255 255 255 255 255 255 255 255 255 255 255 255 255 255 255 255 255 255 255 255 255 255 255 255 255 255 255 255 255 255 255 255 255 255 255 255 255 255 255 255 255 255 255 255 255 255 255 255 255 255 255 255 255 255 255 255 255 255 255 255 255 255 255 255 255 255 255 255 255 255
255 255 255 255 255 255 255 255 255 255 255 255 255 255 255 255 255 255 255 255 255 255 255 255 255 255 255 255 255 252 252 250 249 250 251 252 252 254 255 255 255 255 255 255 255 255 255 255 255 255 255 255 255 255 255 255 255 255 255 255 255 255 255 255 255 255 255 255 255 255 255 255 255 255 255 255 255 255 255 255 255 255 255 255 255 255 255 255 255 255 255 255
255 255 255 255 255 255 255 255 255 255 255 255 255 255 255 255 255 255 255 255 255 255 255 255 255 252 247 241 234 230 228 227 225 225 221 228 231 232 237 243 247 250 254 255 255 255 255 255 255 255 255 255 255 255 255 255 255 255 255 255 255 255 255 255 255 255 255 255 255 255 255 255 255 255 255 255 255 255 255 255 255 255 255 255 255 255 255 255 255 255 255 255
255 255 255 255 255 255 255 255 255 255 255 255 255 255 255 255 255 255 255 255 255 255 255 253 241 232 221 211 203 200 196 197 197 196 196 201 199 206 210 211 220 227 235 242 249 253 255 255 255 255 255 255 255 255 255 255 255 255 255 255 255 255 255 255 255 255 255 255 255 255 255 255 255 255 255 255 255 255 255 255 255 255 255 255 255 255 255 255 255 255 255 255
255 255 255 255 255 255 255 255 255 255 255 255 255 255 255 255 255 255 255 255 255 255 247 229 212 203 189 182 175 171 171 169 166 171 170 175 174 178 184 185 192 198 206 213 222 236 242 249 255 255 255 255 255 255 255 255 255 255 255 255 255 255 255 255 255 255 255 255 255 255 255 255 255 255 255 255 255 255 255 255 255 255 255 255 255 255 255 255 255 255 255 255
255 255 255 255 255 255 255 255 255 255 255 255 255 255 255 255 255 255 255 255 255 243 217 198 182 168 160 155 150 149 150 150 147 150 149 156 155 158 160 160 168 174 180 187 192 204 214 225 236 248 254 255 255 255 255 255 255 255 255 255 255 255 255 255 255 255 255 255 255 255 255 255 255 255 255 255 255 255 255 255 255 255 255 255 255 255 255 255 255 255 255 255
255 255 255 255 255 255 255 255 255 255 255 255 255 255 255 255 255 255 255 255 246 214 181 163 146 136 136 133 130 140 137 141 143 142 141 150 147 142 148 145 148 153 155 163 173 177 187 195 208 221 234 247 254 255 255 255 255 255 255 255 255 255 255 255 255 255 255 255 255 255 255 255 255 255 255 255 255 255 255 255 255 255 255 255 255 255 255 255 255 255 255 255
255 255 255 255 255 255 255 255 255 255 255 255 255 255 255 255 255 255 255 252 217 181 155 131 125 120 119 123 134 143 151 150 160 159 158 162 157 153 150 149 148 145 141 143 149 153 163 172 182 192 204 220 235 250 255 255 255 255 255 255 255 255 255 255 255 255 255 255 255 255 255 255 255 255 255 255 255 255 255 255 255 255 255 255 255 255 255 255 255 255 255 255
255 255 255 255 255 255 255 255 255 255 255 255 255 255 255 255 255 255 255 233 185 153 129 108 105 102 124 145 153 158 164 165 164 166 170 169 166 164 163 164 163 155 153 145 141 147 146 149 158 167 174 191 209 225 239 251 255 255 255 255 255 255 255 255 255 255 255 255 255 255 255 255 255 255 255 255 255 255 255 255 255 255 255 255 255 255 255 255 255 255 255 255
255 255 255 255 255 255 255 255 255 255 255 255 255 255 255 255 255 255 250 203 164 129 111 92 91 117 147 158 165 162 169 173 172 172 167 171 171 174 173 173 168 163 162 158 153 147 145 138 137 148 155 165 177 194 212 229 246 255 255 255 255 255 255 255 255 255 255 255 255 255 255 255 255 255 255 255 255 255 255 255 255 255 255 255 255 255 255 255 255 255 255 255
255 255 255 255 255 255 255 255 255 255 255 255 255 255 255 255 255 255 234 182 139 110 95 93 94 144 156 164 172 173 178 174 179 180 176 178 174 178 176 175 175 167 172 167 164 158 155 143 137 136 141 145 155 169 182 201 219 239 252 255 255 255 255 255 255 255 255 255 255 255 255 255 255 255 255 255 255 255 255 255 255 255 255 255 255 255 255 255 255 255 255 255
255 255 255 255 255 255 255 255 255 255 255 255 255 255 255 255 255 253 208 159 133 107 87 92 121 155 164 173 173 178 180 181 182 184 183 182 181 179 179 176 179 179 177 171 171 170 164 160 155 143 134 132 139 145 162 173 191 211 231 249 255 255 255 255 255 255 255 255 255 255 255 255 255 255 255 255 255 255 255 255 255 255 255 255 255 255 255 255 255 255 255 255
255 255 255 255 255 255 255 255 255 255 255 255 255 255 255 255 255 246 187 148 119 97 85 99 146 166 171 173 175 180 183 181 182 186 182 181 183 186 180 180 179 178 179 176 177 171 168 170 165 158 152 139 135 130 141 148 162 184 203 225 246 255 255 255 255 255 255 255 255 255 255 255 255 255 255 255 255 255 255 255 255 255 255 255 255 255 255 255 255 255 255 255
255 255 255 255 255 255 255 255 255 255 255 255 255 255 255 255 255 227 175 138 109 96 93 125 163 171 170 176 186 183 183 186 187 185 183 183 185 189 185 185 180 182 182 181 178 176 174 174 171 165 164 152 145 135 130 133 144 161 176 196 222 243 255 255 255 255 255 255 255 255 255 255 255 255 255 255 255 255 255 255 255 255 255 255 255 255 255 255 255 255 255 255
255 255 255 255 255 255 255 255 255 255 255 255 255 255 255 255 254 211 165 130 102 96 101 139 164 168 175 179 181 184 187 186 185 185 187 187 192 187 186 185 184 186 184 181 180 179 178 175 172 174 169 166 154 153 137 128 132 144 153 171 192 217 241 255 255 255 255 255 255 255 255 255 255 255 255 255 255 255 255 255 255 255 255 255 255 255 255 255 255 255 255 255
255 255 255 255 255 255 255 255 255 255 255 255 255 255 255 255 248 197 153 125 106 97 118 159 172 176 180 186 183 184 190 190 191 185 189 187 187 188 188 184 188 187 188 186 181 181 182 175 173 174 170 168 166 159 152 143 130 125 135 151 168 190 215 241 255 255 255 255 255 255 255 255 255 255 255 255 255 255 255 255 255 255 255 255 255 255 255 255 255 255 255 255
255 255 255 255 255 255 255 255 255 255 255 255 255 255 255 255 241 186 148 125 99 100 127 161 171 178 181 181 184 188 188 188 191 189 189 187 190 190 186 188 185 188 186 188 190 183 179 182 180 182 177 174 171 168 159 152 149 130 126 134 153 167 190 212 241 255 255 255 255 255 255 255 255 255 255 255 255 255 255 255 255 255 255 255 255 255 255 255 255 255 255 255
255 255 255 255 255 255 255 255 255 255 255 255 255 255 255 255 229 179 141 120 100 101 142 169 175 184 185 183 189 189 194 193 192 193 189 190 190 186 191 191 190 187 188 190 187 188 184 182 181 183 180 176 174 170 169 165 159 143 131 126 133 145 169 193 218 243 255 255 255 255 255 255 255 255 255 255 255 255 255 255 255 255 255 255 255 255 255 255 255 255 255 255
255 255 255 255 255 255 255 255 255 255 255 255 255 255 255 255 220 170 135 114 98 110 151 171 180 175 179 183 188 192 193 191 190 193 190 190 193 193 189 191 189 190 188 189 186 185 185 187 184 181 178 180 176 176 170 169 164 157 149 135 126 130 148 167 190 219 245 255 255 255 255 255 255 255 255 255 255 255 255 255 255 255 255 255 255 255 255 255 255 255 255 255
255 255 255 255 255 255 255 255 255 255 255 255 255 255 255 253 211 163 130 110 98 117 156 172 177 181 189 188 189 192 192 190 195 189 193 192 192 189 191 190 192 193 194 186 190 186 188 188 186 187 180 181 181 179 176 169 168 165 155 147 129 120 128 145 168 194 224 249 255 255 255 255 255 255 255 255 255 255 255 255 255 255 255 255 255 255 255 255 255 255 255 255
255 255 255 255 255 255 255 255 255 255 255 255 255 255 255 251 205 159 129 112 101 123 163 178 177 179 186 185 189 190 188 193 196 195 191 193 194 192 192 197 193 190 191 192 190 190 185 187 184 185 180 180 179 181 179 174 171 171 164 156 145 130 124 134 148 169 201 230 252 255 255 255 255 255 255 255 255 255 255 255 255 255 255 255 255 255 255 255 255 255 255 255
255 255 255 255 255 255 255 255 255 255 255 255 255 255 255 249 200 157 127 105 102 125 166 176 182 186 187 188 192 190 193 193 192 195 193 189 193 194 192 189 191 192 191 193 189 193 189 189 188 185 188 182 184 184 178 176 175 167 166 162 153 146 125 127 140 153 176 207 237 254 255 255 255 255 255 255 255 255 255 255 255 255 255 255 255 255 255 255 255 255 255 255
255 255 255 255 255 255 255 255 255 255 255 255 255 255 255 246 194 151 126 105 104 133 168 179 180 183 187 189 188 189 192 195 193 195 195 198 196 193 194 191 190 193 194 194 192 190 191 189 186 188 184 187 184 183 180 178 177 174 173 165 161 156 145 124 127 141 159 186 215 245 255 255 255 255 255 255 255 255 255 255 255 255 255 255 255 255 255 255 255 255 255 255
255 255 255 255 255 255 255 255 255 255 255 255 255 255 255 244 192 155 123 111 104 138 171 178 184 185 187 189 191 193 194 195 193 196 195 196 194 194 195 192 192 191 194 195 190 190 189 190 187 186 190 185 185 185 182 181 176 176 174 169 167 163 155 137 126 127 144 166 195 227 251 255 255 255 255 255 255 255 255 255 255 255 255 255 255 255 255 255 255 255 255 255
255 255 255 255 255 255 255 255 255 255 255 255 255 255 255 241 190 152 126 106 108 134 170 175 180 184 188 191 193 192 195 193 196 194 196 194 193 195 194 195 192 194 194 194 190 194 191 193 191 188 187 187 187 185 186 181 180 178 176 173 167 166 157 148 135 123 131 151 178 205 237 255 255 255 255 255 255 255 255 255 255 255 255 255 255 255 255 255 255 255 255 255
255 255 255 255 255 255 255 255 255 255 255 255 255 255 255 241 188 148 125 111 110 144 175 181 181 188 189 191 190 193 195 196 194 195 195 194 193 193 193 196 196 192 194 194 192 193 193 191 189 189 188 188 186 185 183 180 183 183 178 176 173 167 158 157 142 124 125 135 161 187 219 247 255 255 255 255 255 255 255 255 255 255 255 255 255 255 255 255 255 255 255 255
255 255 255 255 255 255 255 255 255 255 255 255 255 255 255 241 190 148 122 106 111 146 171 179 183 185 188 189 190 193 192 192 193 195 193 193 198 194 196 195 193 191 193 194 191 193 193 193 191 192 186 190 191 190 188 184 184 180 178 178 176 174 168 161 152 141 120 130 146 169 198 233 254 255 255 255 255 255 255 255 255 255 255 255 255 255 255 255 255 255 255 255
255 255 255 255 255 255 255 255 255 255 255 255 255 255 255 242 187 151 129 109 108 147 170 177 183 184 190 186 190 191 194 191 196 196 194 196 191 195 195 195 197 198 192 194 190 194 188 191 192 191 191 188 190 186 188 183 186 180 181 180 180 172 172 166 158 152 132 121 138 153 186 213 246 255 255 255 255 255 255 255 255 255 255 255 255 255 255 255 255 255 255 255
255 255 255 255 255 255 255 255 255 255 255 255 255 255 255 246 193 151 127 109 109 143 168 178 182 187 189 191 190 193 193 193 194 195 194 198 194 195 195 194 193 193 197 193 194 193 194 193 196 193 191 188 187 189 189 190 186 182 181 183 176 174 174 167 164 159 142 127 130 142 170 202 231 253 255 255 255 255 255 255 255 255 255 255 255 255 255 255 255 255 255 255
255 255 255 255 255 255 255 255 255 255 255 255 255 255 255 246 198 156 126 108 110 139 172 181 183 186 188 196 196 194 192 194 194 196 195 195 192 196 198 196 194 196 192 195 192 195 196 190 191 192 189 189 189 190 188 187 186 185 182 183 180 180 174 173 165 159 154 132 127 137 163 182 215 246 255 255 255 255 255 255 255 255 255 255 255 255 255 255 255 255 255 255
255 255 255 255 255 255 255 255 255 255 255 255 255 255 255 250 202 159 131 113 107 135 171 175 183 186 189 188 189 193 194 196 191 195 190 193 193 195 198 191 194 195 193 196 196 193 192 196 189 190 192 191 189 190 189 190 186 189 185 187 181 180 178 176 169 167 154 144 128 127 147 171 199 233 255 255 255 255 255 255 255 255 255 255 255 255 255 255 255 255 255 255
255 255 255 255 255 255 255 255 255 255 255 255 255 255 255 252 206 168 133 112 111 134 172 178 184 187 190 192 190 194 196 194 193 196 195 195 198 195 195 197 196 193 198 194 195 194 192 196 194 192 187 194 192 190 188 187 186 187 189 182 187 179 182 175 175 168 162 154 134 119 138 157 186 220 250 255 255 255 255 255 255 255 255 255 255 255 255 255 255 255 255 255
255 255 255 255 255 255 255 255 255 255 255 255 255 255 255 254 214 169 138 120 108 126 166 178 182 186 190 188 196 193 192 195 196 195 196 196 199 194 194 195 196 196 198 192 196 193 191 192 191 192 190 188 193 192 191 193 189 185 188 185 186 182 181 180 174 172 165 162 139 126 133 148 177 208 241 255 255 255 255 255 255 255 255 255 255 255 255 255 255 255 255 255
255 255 255 255 255 255 255 255 255 255 255 255 255 255 255 255 221 175 147 117 110 117 160 175 183 190 188 192 191 191 197 196 196 197 192 194 193 197 196 195 196 193 193 194 194 192 196 194 195 195 193 191 191 193 192 188 189 189 187 190 185 186 186 174 175 176 167 162 148 136 130 143 162 196 228 254 255 255 255 255 255 255 255 255 255 255 255 255 255 255 255 255
255 255 255 255 255 255 255 255 255 255 255 255 255 255 255 255 231 183 151 125 114 122 156 173 181 186 188 191 191 192 190 196 196 193 195 196 196 195 198 191 196 196 195 194 193 193 194 194 192 195 191 192 193 192 192 193 193 193 188 183 186 186 183 180 180 177 171 162 161 146 131 137 158 179 217 248 255 255 255 255 255 255 255 255 255 255 255 255 255 255 255 255
255 255 255 255 255 255 255 255 255 255 255 255 255 255 255 255 240 191 153 130 113 117 146 169 177 180 186 191 188 191 195 192 194 194 197 194 196 193 196 198 196 197 197 197 196 198 198 194 193 192 192 195 193 192 193 195 190 191 189 189 188 187 182 183 179 178 172 172 163 150 136 135 149 178 206 240 255 255 255 255 255 255 255 255 255 255 255 255 255 255 255 255
255 255 255 255 255 255 255 255 255 255 255 255 255 255 255 255 248 200 163 134 119 115 135 165 178 186 184 190 193 193 193 194 193 196 193 193 193 199 196 196 197 197 194 192 196 196 193 193 193 192 192 193 194 196 190 193 188 192 186 189 187 185 183 184 180 177 175 172 162 156 140 128 141 171 194 230 253 255 255 255 255 255 255 255 255 255 255 255 255 255 255 255
255 255 255 255 255 255 255 255 255 255 255 255 255 255 255 255 254 215 174 141 118 109 123 163 176 183 186 188 188 192 192 195 197 194 193 195 194 196 197 197 194 198 194 194 192 194 195 193 194 197 192 193 191 193 192 189 194 192 185 190 190 189 187 185 183 183 173 171 162 161 147 132 143 158 190 220 249 255 255 255 255 255 255 255 255 255 255 255 255 255 255 255
255 255 255 255 255 255 255 255 255 255 255 255 255 255 255 255 255 228 180 150 132 117 119 154 170 179 186 187 193 195 193 192 194 193 194 197 195 195 197 194 195 194 195 194 194 197 194 195 196 192 194 194 196 193 193 196 191 189 189 191 187 189 186 185 184 179 176 173 172 163 151 136 139 156 185 215 244 255 255 255 255 255 255 255 255 255 255 255 255 255 255 255
255 255 255 255 255 255 255 255 255 255 255 255 255 255 255 255 255 241 197 158 133 119 119 138 168 174 181 186 187 189 190 192 195 196 196 197 194 196 195 198 194 198 195 197 196 197 196 198 193 195 194 194 194 192 194 193 193 191 191 188 184 186 192 185 183 184 180 178 170 168 157 141 137 151 176 205 238 255 255 255 255 255 255 255 255 255 255 255 255 255 255 255
255 255 255 255 255 255 255 255 255 255 255 255 255 255 255 255 255 251 207 172 142 120 113 127 161 177 183 184 188 193 191 192 195 195 193 195 196 198 197 196 197 195 199 194 202 196 197 195 195 194 194 195 194 193 192 191 195 192 192 190 193 188 188 187 184 181 179 178 169 168 158 141 136 145 170 199 233 254 255 255 255 255 255 255 255 255 255 255 255 255 255 255
255 255 255 255 255 255 255 255 255 255 255 255 255 255 255 255 255 255 224 179 151 125 111 118 151 169 182 183 187 192 193 190 192 191 194 195 196 194 196 195 193 196 196 196 196 196 194 191 195 193 196 193 191 195 190 190 192 191 196 193 193 188 187 186 188 181 179 181 173 169 161 151 133 145 161 194 225 252 255 255 255 255 255 255 255 255 255 255 255 255 255 255
255 255 255 255 255 255 255 255 255 255 255 255 255 255 255 255 255 255 239 197 161 139 116 117 132 166 175 181 183 185 188 191 191 192 196 197 192 197 195 199 197 195 192 198 195 195 195 196 196 193 195 195 194 194 192 193 191 193 193 192 189 190 185 189 187 185 180 180 178 173 165 153 136 145 163 191 221 248 255 255 255 255 255 255 255 255 255 255 255 255 255 255
255 255 255 255 255 255 255 255 255 255 255 255 255 255 255 255 255 255 253 210 175 147 126 118 121 158 172 182 182 183 189 191 190 195 198 196 193 198 194 193 196 196 196 196 193 199 193 197 196 196 199 194 195 195 196 194 189 195 193 191 191 190 192 190 186 184 184 182 175 171 167 156 139 143 159 183 216 247 255 255 255 255 255 255 255 255 255 255 255 255 255 255
255 255 255 255 255 255 255 255 255 255 255 255 255 255 255 255 255 255 255 235 191 159 130 119 116 138 168 177 182 186 184 191 192 189 195 195 192 196 197 198 195 198 201 197 197 196 196 195 197 193 193 197 195 193 194 195 196 193 188 190 191 190 194 182 186 186 185 181 174 169 168 159 143 141 157 182 214 243 255 255 255 255 255 255 255 255 255 255 255 255 255 255
255 255 255 255 255 255 255 255 255 255 255 255 255 255 255 255 255 255 255 250 206 175 144 122 117 121 152 176 176 183 186 188 193 192 190 198 193 196 195 194 195 197 193 198 194 197 197 198 194 194 193 194 194 192 194 192 191 193 195 193 192 195 189 189 188 182 184 177 178 170 169 162 143 143 158 180 210 239 255 255 255 255 255 255 255 255 255 255 255 255 255 255
255 255 255 255 255 255 255 255 255 255 255 255 255 255 255 255 255 255 255 255 231 188 154 132 125 112 130 166 174 182 184 186 189 192 193 196 192 193 195 194 196 197 194 195 197 194 198 194 195 193 196 198 196 195 194 196 194 192 194 193 192 189 191 189 186 185 183 180 176 176 167 164 148 139 155 179 209 239 255 255 255 255 255 255 255 255 255 255 255 255 255 255
255 255 255 255 255 255 255 255 255 255 255 255 255 255 255 255 255 255 255 255 249 210 175 148 127 113 120 149 167 176 180 184 191 187 193 192 190 192 195 196 196 196 196 194 193 197 197 195 193 194 192 196 197 193 192 193 192 194 191 195 192 191 190 192 188 185 184 181 180 175 170 159 151 139 154 179 209 236 255 255 255 255 255 255 255 255 255 255 255 255 255 255
255 255 255 255 255 255 255 255 255 255 255 255 255 255 255 255 255 255 255 255 255 234 193 167 137 124 113 127 161 176 177 180 188 189 189 189 192 188 197 197 193 193 197 197 193 195 198 195 197 195 193 195 196 196 191 193 192 191 195 195 190 192 191 190 188 188 186 181 181 176 172 164 154 146 158 174 209 236 255 255 255 255 255 255 255 255 255 255 255 255 255 255
255 255 255 255 255 255 255 255 255 255 255 255 255 255 255 255 255 255 255 255 255 252 212 181 152 129 120 119 140 168 174 184 183 186 186 192 191 194 191 191 194 195 194 196 194 197 196 192 196 197 196 197 196 195 195 198 190 194 194 194 192 190 191 188 185 185 185 181 182 178 167 164 150 142 155 180 206 237 255 255 255 255 255 255 255 255 255 255 255 255 255 255
255 255 255 255 255 255 255 255 255 255 255 255 255 255 255 255 255 255 255 255 255 255 242 203 171 146 126 117 122 144 167 177 181 185 182 192 188 195 193 191 194 192 196 191 193 196 194 196 195 194 199 195 194 197 191 197 193 194 191 190 192 194 189 188 189 187 189 186 181 175 170 164 150 145 159 177 208 237 255 255 255 255 255 255 255 255 255 255 255 255 255 255
255 255 255 255 255 255 255 255 255 255 255 255 255 255 255 255 255 255 255 255 255 255 255 228 191 159 137 124 119 125 148 169 176 178 181 188 189 189 193 188 189 197 193 194 193 196 195 194 194 193 195 195 197 193 194 194 195 191 193 192 192 193 189 191 189 189 184 181 180 177 169 161 154 143 162 181 207 236 255 255 255 255 255 255 255 255 255 255 255 255 255 255
255 255 255 255 255 255 255 255 255 255 255 255 255 255 255 255 255 255 255 255 255 255 255 251 213 183 156 132 117 115 124 153 177 174 181 183 188 187 184 188 193 192 195 191 194 192 193 194 192 196 192 194 195 191 192 194 196 195 193 191 191 193 191 188 188 181 183 181 179 175 169 166 152 145 159 183 210 240 255 255 255 255 255 255 255 255 255 255 255 255 255 255
255 255 255 255 255 255 255 255 255 255 255 255 255 255 255 255 255 255 255 255 255 255 255 255 244 205 174 149 133 124 118 132 157 173 178 182 179 186 188 189 189 189 189 190 196 194 196 192 192 194 196 195 191 195 196 195 192 187 192 192 194 188 188 187 186 190 183 181 180 174 169 164 147 148 161 184 215 241 255 255 255 255 255 255 255 255 255 255 255 255 255 255
255 255 255 255 255 255 255 255 255 255 255 255 255 255 255 255 255 255 255 255 255 255 255 255 255 237 198 170 150 129 120 113 125 157 175 178 186 184 186 190 186 190 192 190 196 197 195 192 188 192 192 193 192 197 196 194 193 196 189 189 194 191 191 188 187 182 185 183 177 173 171 159 151 147 168 190 217 243 255 255 255 255 255 255 255 255 255 255 255 255 255 255
255 255 255 255 255 255 255 255 255 255 255 255 255 255 255 255 255 255 255 255 255 255 255 255 255 254 231 196 165 146 128 120 116 132 152 170 175 178 182 187 185 188 189 191 190 188 189 191 195 195 192 190 193 194 193 191 194 192 192 191 193 189 190 187 189 189 183 178 176 172 170 156 145 149 169 193 223 247 255 255 255 255 255 255 255 255 255 255 255 255 255 255
255 255 255 255 255 255 255 255 255 255 255 255 255 255 255 255 255 255 255 255 255 255 255 255 255 255 254 223 192 167 147 134 120 118 122 143 168 175 177 181 183 187 191 188 189 188 186 190 192 188 192 191 193 193 193 193 192 194 188 190 193 187 189 186 185 185 182 184 179 174 167 154 146 152 171 199 227 249 255 255 255 255 255 255 255 255 255 255 255 255 255 255
255 255 255 255 255 255 255 255 255 255 255 255 255 255 255 255 255 255 255 255 255 255 255 255 255 255 255 252 222 192 165 149 133 119 110 118 136 164 172 176 182 183 184 185 189 187 191 191 193 189 191 192 191 190 194 190 190 193 191 190 189 192 189 185 189 184 178 176 173 167 163 147 146 155 178 207 232 253 255 255 255 255 255 255 255 255 255 255 255 255 255 255
255 255 255 255 255 255 255 255 255 255 255 255 255 255 255 255 255 255 255 255 255 255 255 255 255 255 255 255 252 221 188 164 147 131 124 115 118 132 153 168 173 178 185 182 185 188 184 188 190 189 189 192 190 185 192 189 192 194 192 187 190 186 183 188 184 179 182 176 176 167 160 146 145 163 186 210 239 255 255 255 255 255 255 255 255 255 255 255 255 255 255 255
255 255 255 255 255 255 255 255 255 255 255 255 255 255 255 255 255 255 255 255 255 255 255 255 255 255 255 255 255 252 229 196 171 151 135 121 115 119 120 133 158 174 172 177 184 183 179 183 185 186 186 188 190 188 188 189 185 188 186 187 186 185 187 183 183 181 180 176 169 164 153 147 148 165 193 219 244 255 255 255 255 255 255 255 255 255 255 255 255 255 255 255
255 255 255 255 255 255 255 255 255 255 255 255 255 255 255 255 255 255 255 255 255 255 255 255 255 255 255 255 255 255 254 230 197 176 155 140 126 115 113 115 129 145 161 171 179 179 175 178 184 183 181 186 187 187 185 189 187 185 186 185 184 184 181 181 178 176 173 169 165 160 149 141 153 174 199 227 249 255 255 255 255 255 255 255 255 255 255 255 255 255 255 255
255 255 255 255 255 255 255 255 255 255 255 255 255 255 255 255 255 255 255 255 255 255 255 255 255 255 255 255 255 255 255 255 237 208 178 157 142 136 125 116 114 117 124 144 161 165 176 175 176 181 181 180 182 180 184 184 186 185 184 181 183 180 177 179 177 173 176 168 157 150 138 138 156 183 209 236 254 255 255 255 255 255 255 255 255 255 255 255 255 255 255 255
255 255 255 255 255 255 255 255 255 255 255 255 255 255 255 255 255 255 255 255 255 255 255 255 255 255 255 255 255 255 255 255 255 246 218 190 165 153 137 125 118 111 107 112 122 140 157 165 174 175 178 177 181 178 180 178 178 184 182 178 179 175 174 175 173 169 168 158 150 139 139 152 169 194 220 247 255 255 255 255 255 255 255 255 255 255 255 255 255 255 255 255
255 255 255 255 255 255 255 255 255 255 255 255 255 255 255 255 255 255 255 255 255 255 255 255 255 255 255 255 255 255 255 255 255 255 253 231 202 181 159 146 136 122 120 113 109 108 112 131 144 158 165 172 174 170 171 173 178 177 175 172 174 175 171 169 163 164 155 147 128 126 135 154 176 205 232 253 255 255 255 255 255 255 255 255 255 255 255 255 255 255 255 255
255 255 255 255 255 255 255 255 255 255 255 255 255 255 255 255 255 255 255 255 255 255 255 255 255 255 255 255 255 255 255 255 255 255 255 255 246 221 197 177 161 147 134 125 115 113 105 110 111 112 124 133 144 157 163 167 164 168 165 165 164 161 159 159 150 145 126 114 112 126 143 166 194 223 245 255 255 255 255 255 255 255 255 255 255 255 255 255 255 255 255 255
255 255 255 255 255 255 255 255 255 255 255 255 255 255 255 255 255 255 255 255 255 255 255 255 255 255 255 255 255 255 255 255 255 255 255 255 255 253 236 213 189 172 160 142 136 123 114 112 110 109 104 107 106 112 117 121 124 128 134 132 138 126 124 119 105 95 93 100 110 131 157 185 211 237 254 255 255 255 255 255 255 255 255 255 255 255 255 255 255 255 255 255
255 255 255 255 255 255 255 255 255 255 255 255 255 255 255 255 255 255 255 255 255 255 255 255 255 255 255 255 255 255 255 255 255 255 255 255 255 255 255 252 236 214 190 177 161 152 138 130 119 118 107 106 106 106 104 100 105 97 101 97 94 93 87 92 86 87 95 108 127 150 177 204 231 251 255 255 255 255 255 255 255 255 255 255 255 255 255 255 255 255 255 255
255 255 255 255 255 255 255 255 255 255 255 255 255 255 255 255 255 255 255 255 255 255 255 255 255 255 255 255 255 255 255 255 255 255 255 255 255 255 255 255 255 252 238 218 201 181 171 154 143 136 127 123 124 118 109 110 109 100 103 102 94 93 95 95 93 97 109 128 148 177 201 222 249 255 255 255 255 255 255 255 255 255 255 255 255 255 255 255 255 255 255 255
255 255 255 255 255 255 255 255 255 255 255 255 255 255 255 255 255 255 255 255 255 255 255 255 255 255 255 255 255 255 255 255 255 255 255 255 255 255 255 255 255 255 255 255 246 228 209 196 178 168 158 152 139 138 137 129 124 123 118 117 121 114 108 115 122 124 137 153 182 206 228 248 255 255 255 255 255 255 255 255 255 255 255 255 255 255 255 255 255 255 255 255
255 255 255 255 255 255 255 255 255 255 255 255 255 255 255 255 255 255 255 255 255 255 255 255 255 255 255 255 255 255 255 255 255 255 255 255 255 255 255 255 255 255 255 255 255 255 253 243 230 215 201 189 178 170 163 163 153 150 143 148 141 145 143 146 148 158 172 192 213 236 252 255 255 255 255 255 255 255 255 255 255 255 255 255 255 255 255 255 255 255 255 255
255 255 255 255 255 255 255 255 255 255 255 255 255 255 255 255 255 255 255 255 255 255 255 255 255 255 255 255 255 255 255 255 255 255 255 255 255 255 255 255 255 255 255 255 255 255 255 255 255 254 248 240 230 224 210 203 198 190 189 187 186 186 186 193 198 210 223 239 252 255 255 255 255 255 255 255 255 255 255 255 255 255 255 255 255 255 255 255 255 255 255 255
255 255 255 255 255 255 255 255 255 255 255 255 255 255 255 255 255 255 255 255 255 255 255 255 255 255 255 255 255 255 255 255 255 255 255 255 255 255 255 255 255 255 255 255 255 255 255 255 255 255 255 255 255 255 254 251 249 246 242 241 241 241 244 248 250 254 255 255 255 255 255 255 255 255 255 255 255 255 255 255 255 255 255 255 255 255 255 255 255 255 255 255
255 255 255 255 255 255 255 255 255 255 255 255 255 255 255 255 255 255 255 255 255 255 255 255 255 255 255 255 255 255 255 255 255 255 255 255 255 255 255 255 255 255 255 255 255 255 255 255 255 255 255 255 255 255 255 255 255 255 255 255 255 255 255 255 255 255 255 255 255 255 255 255 255 255 255 255 255 255 255 255 255 255 255 255 255 255 255 255 255 255 255 255
255 255 255 255 255 255 255 255 255 255 255 255 255 255 255 255 255 255 255 255 255 255 255 255 255 255 255 255 255 255 255 255 255 255 255 255 255 255 255 255 255 255 255 255 255 255 255 255 255 255 255 255 255 255 255 255 255 255 255 255 255 255 255 255 255 255 255 255 255 255 255 255 255 255 255 255 255 255 255 255 255 255 255 255 255 255 255 255 255 255 255 255
255 255 255 255 255 255 255 255 255 255 255 255 255 255 255 255 255 255 255 255 255 255 255 255 255 255 255 255 255 255 255 255 255 255 255 255 255 255 255 255 255 255 255 255 255 255 255 255 255 255 255 255 255 255 255 255 255 255 255 255 255 255 255 255 255 255 255 255 255 255 255 255 255 255 255 255 255 255 255 255 255 255 255 255 255 255 255 255 255 255 255 255
255 255 255 255 255 255 255 255 255 255 255 255 255 255 255 255 255 255 255 255 255 255 255 255 255 255 255 255 255 255 255 255 255 255 255 255 255 255 255 255 255 255 255 255 255 255 255 255 255 255 255 255 255 255 255 255 255 255 255 255 255 255 255 255 255 255 255 255 255 255 255 255 255 255 255 255 255 255 255 255 255 255 255 255 255 255 255 255 255 255 255 255
255 255 255 255 255 255 255 255 255 255 255 255 255 255 255 255 255 255 255 255 255 255 255 255 255 255 255 255 255 255 255 255 255 255 255 255 255 255 255 255 255 255 255 255 255 255 255 255 255 255 255 255 255 255 255 255 255 255 255 255 255 255 255 255 255 255 255 255 255 255 255 255 255 255 255 255 255 255 255 255 255 255 255 255 255 255 255 255 255 255 255 255
255 255 255 255 255 255 255 255 255 255 255 255 255 255 255 255 255 255 255 255 255 255 255 255 255 255 255 255 255 255 255 255 255 255 255 255 255 255 255 255 255 255 255 255 255 255 255 255 255 255 255 255 255 255 255 255 255 255 255 255 255 255 255 255 255 255 255 255 255 255 255 255 255 255 255 255 255 255 255 255 255 255 255 255 255 255 255 255 255 255 255 255
255 255 255 255 255 255 255 255 255 255 255 255 255 255 255 255 255 255 255 255 255 255 255 255 255 255 255 255 255 255 255 255 255 255 255 255 255 255 255 255 255 255 255 255 255 255 255 255 255 255 255 255 255 255 255 255 255 255 255 255 255 255 255 255 255 255 255 255 255 255 255 255 255 255 255 255 255 255 255 255 255 255 255 255 255 255 255 255 255 255 255 255
255 255 255 255 255 255 255 255 255 255 255 255 255 255 255 255 255 255 255 255 255 255 255 255 255 255 255 255 255 255 255 255 255 255 255 255 255 255 255 255 255 255 255 255 255 255 255 255 255 255 255 255 255 255 255 255 255 255 255 255 255 255 255 255 255 255 255 255 255 255 255 255 255 255 255 255 255 255 255 255 255 255 255 255 255 255 255 255 255 255 255 255
255 255 255 255 255 255 255 255 255 255 255 255 255 255 255 255 255 255 255 255 255 255 255 255 255 255 255 255 255 255 255 255 255 255 255 255 255 255 255 255 255 255 255 255 255 255 255 255 255 255 255 255 255 255 255 255 255 255 255 255 255 255 255 255 255 255 255 255 255 255 255 255 255 255 255 255 255 255 255 255 255 255 255 255 255 255 255 255 255 255 255 255
255 255 255 255 255 255 255 255 255 255 255 255 255 255 255 255 255 255 255 255 255 255 255 255 255 255 255 255 255 255 255 255 255 255 255 255 255 255 255 255 255 255 255 255 255 255 255 255 255 255 255 255 255 255 255 255 255 255 255 255 255 255 255 255 255 255 255 255 255 255 255 255 255 255 255 255 255 255 255 255 255 255 255 255 255 255 255 255 255 255 255 255
