P2
92 92
255
255 255 255 255 255 255 255 255 255 255 255 255 255 255 255 255 255 255 255 255 255 255 255 255 255 255 255 255 255 255 255 255 255 255 255 255 255 255 255 255 255 255 255 255 255 255 255 255 255 255 255 255 255 255 255 255 255 255 255 255 255 255 255 255 255 255 255 255 255 255 255 255 255 255 255 255 255 255 255 255 255 255 255 255 255 255 255 255 255 255 255 255
255 255 255 255 255 255 255 255 255 255 255 255 255 255 255 255 255 255 255 255 255 255 255 255 255 255 255 255 255 255 255 255 255 255 255 255 255 255 255 255 254 253 254 252 253 252 252 252 253 253 254 255 255 255 255 255 255 255 255 255 255 255 255 255 255 255 255 255 255 255 255 255 255 255 255 255 255 255 255 255 255 255 255 255 255 255 255 255 255 255 255 255
255 255 255 255 255 255 255 255 255 255 255 255 255 255 255 255 255 255 255 255 255 255 255 255 255 255 255 255 255 255 255 255 255 255 255 254 251 249 247 244 243 243 238 237 238 239 237 239 240 242 242 245 246 249 251 253 254 255 255 255 255 255 255 255 255 255 255 255 255 255 255 255 255 255 255 255 255 255 255 255 255 255 255 255 255 255 255 255 255 255 255 255
255 255 255 255 255 255 255 255 255 255 255 255 255 255 255 255 255 255 255 255 255 255 255 255 255 255 255 255 255 255 255 254 253 248 242 239 236 229 227 224 223 222 220 219 219 220 219 220 220 222 224 227 228 233 233 239 242 247 251 253 255 255 255 255 255 255 255 255 255 255 255 255 255 255 255 255 255 255 255 255 255 255 255 255 255 255 255 255 255 255 255 255
255 255 255 255 255 255 255 255 255 255 255 255 255 255 255 255 255 255 255 255 255 255 255 255 255 255 255 255 255 252 248 241 236 227 226 222 216 214 209 209 207 203 200 202 205 200 199 200 202 204 205 210 210 214 217 220 225 231 237 242 246 251 254 255 255 255 255 255 255 255 255 255 255 255 255 255 255 255 255 255 255 255 255 255 255 255 255 255 255 255 255 255
255 255 255 255 255 255 255 255 255 255 255 255 255 255 255 255 255 255 255 255 255 255 255 255 255 255 254 250 243 237 231 224 217 215 207 205 201 198 196 187 188 188 188 187 183 183 186 185 190 185 188 191 193 195 202 206 210 213 218 225 228 234 243 248 252 255 255 255 255 255 255 255 255 255 255 255 255 255 255 255 255 255 255 255 255 255 255 255 255 255 255 255
255 255 255 255 255 255 255 255 255 255 255 255 255 255 255 255 255 255 255 255 255 255 255 255 254 249 240 234 229 221 213 206 202 196 190 187 182 181 177 180 176 178 175 176 175 176 176 178 177 175 178 178 182 185 189 189 192 198 203 208 211 221 227 233 240 246 252 255 255 255 255 255 255 255 255 255 255 255 255 255 255 255 255 255 255 255 255 255 255 255 255 255
255 255 255 255 255 255 255 255 255 255 255 255 255 255 255 255 255 255 255 255 255 255 254 251 242 234 226 217 209 198 193 189 184 178 176 177 174 175 173 174 176 178 179 176 178 180 178 180 181 178 179 177 177 180 177 178 179 181 191 191 197 202 211 217 226 232 240 246 253 255 255 255 255 255 255 255 255 255 255 255 255 255 255 255 255 255 255 255 255 255 255 255
255 255 255 255 255 255 255 255 255 255 255 255 255 255 255 255 255 255 255 255 255 253 243 235 226 216 210 200 189 187 177 176 175 174 173 172 175 178 180 184 181 187 181 183 184 185 184 185 183 188 185 182 183 184 181 181 179 179 180 182 182 189 195 200 207 215 225 231 243 250 254 255 255 255 255 255 255 255 255 255 255 255 255 255 255 255 255 255 255 255 255 255
255 255 255 255 255 255 255 255 255 255 255 255 255 255 255 255 255 255 255 254 249 238 227 218 205 199 190 185 179 173 172 173 171 178 179 183 182 187 184 187 185 186 188 191 191 189 192 186 188 190 189 188 188 190 185 183 183 178 180 181 179 179 184 186 194 203 210 217 227 237 245 252 255 255 255 255 255 255 255 255 255 255 255 255 255 255 255 255 255 255 255 255
255 255 255 255 255 255 255 255 255 255 255 255 255 255 255 255 255 255 253 245 232 221 209 200 194 184 179 173 171 169 176 177 184 186 184 186 190 190 187 192 190 190 190 190 188 192 196 192 193 192 192 190 191 189 190 187 183 189 188 184 183 178 179 177 182 187 195 204 213 222 231 241 249 255 255 255 255 255 255 255 255 255 255 255 255 255 255 255 255 255 255 255
255 255 255 255 255 255 255 255 255 255 255 255 255 255 255 255 255 251 241 228 216 206 195 187 178 172 170 171 178 179 184 183 188 186 190 191 192 192 196 190 190 193 193 196 198 190 194 194 191 196 192 196 195 195 192 194 193 192 186 188 186 185 184 180 175 181 182 192 197 207 214 223 236 246 254 255 255 255 255 255 255 255 255 255 255 255 255 255 255 255 255 255
255 255 255 255 255 255 255 255 255 255 255 255 255 255 255 255 249 238 226 209 199 191 181 175 173 170 174 179 183 187 190 188 190 188 193 190 192 195 197 194 195 195 194 197 196 195 194 196 193 197 194 195 194 196 195 194 193 193 194 191 189 187 186 183 185 179 178 182 186 193 201 214 223 234 246 253 255 255 255 255 255 255 255 255 255 255 255 255 255 255 255 255
255 255 255 255 255 255 255 255 255 255 255 255 255 255 255 248 236 223 211 195 190 180 173 172 170 176 181 183 190 188 191 192 193 191 191 193 195 196 197 195 195 195 194 195 194 193 194 196 196 194 194 194 196 195 197 196 193 195 195 193 194 192 194 186 186 185 181 183 181 184 190 200 209 220 232 244 251 255 255 255 255 255 255 255 255 255 255 255 255 255 255 255
255 255 255 255 255 255 255 255 255 255 255 255 255 255 248 234 220 206 193 185 173 168 173 176 181 182 188 188 190 189 188 193 193 192 196 194 194 195 197 198 198 199 199 197 194 197 199 195 197 195 194 197 200 196 195 196 197 198 195 194 193 191 194 193 193 188 187 184 178 177 182 192 194 208 220 229 240 252 255 255 255 255 255 255 255 255 255 255 255 255 255 255
255 255 255 255 255 255 255 255 255 255 255 255 255 249 233 219 203 191 182 173 170 166 178 185 183 185 185 190 190 196 194 196 196 193 194 196 197 198 197 194 196 196 197 195 198 197 198 197 199 201 196 195 195 194 197 196 195 195 195 196 195 194 195 193 189 187 189 190 187 179 178 180 187 195 204 217 229 241 251 255 255 255 255 255 255 255 255 255 255 255 255 255
255 255 255 255 255 255 255 255 255 255 255 255 249 234 219 202 191 181 174 170 171 175 181 186 190 187 190 193 194 195 194 196 195 195 198 198 196 196 194 200 199 198 199 197 200 197 196 198 194 197 196 198 198 196 199 198 197 196 192 199 197 192 196 195 201 192 191 192 189 188 184 181 175 187 190 202 218 228 241 251 255 255 255 255 255 255 255 255 255 255 255 255
255 255 255 255 255 255 255 255 255 255 255 251 237 221 206 190 178 175 170 172 180 185 183 190 192 191 192 195 197 194 194 197 196 197 196 195 197 195 198 197 199 200 199 199 198 198 197 198 202 195 199 199 201 198 197 199 195 193 196 199 194 199 194 196 195 194 197 192 192 189 192 180 179 178 183 191 205 216 229 242 253 255 255 255 255 255 255 255 255 255 255 255
255 255 255 255 255 255 255 255 255 255 252 240 224 208 192 185 172 164 175 176 184 187 189 191 192 195 194 194 198 199 196 198 197 196 197 198 198 198 197 197 199 198 199 197 195 200 195 199 197 197 198 198 197 199 198 198 198 196 193 196 201 197 198 198 197 195 191 194 192 191 190 187 186 178 180 185 193 205 221 232 244 254 255 255 255 255 255 255 255 255 255 255
255 255 255 255 255 255 255 255 255 254 243 225 208 195 182 174 166 167 177 183 186 190 188 191 193 197 197 195 194 199 196 195 196 196 196 198 199 197 198 199 198 197 201 198 199 201 199 198 197 196 198 198 198 197 201 199 197 199 197 198 196 198 198 198 194 196 194 194 195 191 191 190 187 186 179 179 183 192 208 221 234 246 255 255 255 255 255 255 255 255 255 255
255 255 255 255 255 255 255 255 255 247 232 214 197 184 173 165 172 181 184 187 190 192 192 193 196 197 195 197 197 197 198 200 197 195 197 199 197 201 199 197 197 196 198 194 198 198 198 197 200 198 198 197 197 199 197 197 198 198 195 199 201 198 197 199 196 194 195 199 192 194 193 192 189 187 187 178 178 185 194 210 221 236 249 255 255 255 255 255 255 255 255 255
255 255 255 255 255 255 255 255 251 234 218 203 190 172 169 170 178 183 186 188 191 192 195 195 196 194 194 195 196 198 199 202 199 199 198 198 197 199 196 199 200 200 201 200 199 200 198 198 199 195 201 199 199 198 196 198 198 199 197 196 201 199 200 198 198 197 199 195 198 194 197 193 190 189 188 186 177 179 186 203 212 227 242 252 255 255 255 255 255 255 255 255
255 255 255 255 255 255 255 254 241 224 206 191 179 168 166 174 181 184 187 192 194 195 193 196 199 197 195 201 200 197 200 196 197 202 194 204 203 199 197 199 197 199 198 199 196 201 201 195 194 199 199 201 196 200 199 198 198 198 202 198 198 196 200 196 198 193 198 199 196 195 194 196 191 189 186 188 187 178 186 188 204 219 230 244 254 255 255 255 255 255 255 255
255 255 255 255 255 255 255 248 231 212 197 183 171 168 170 181 184 188 189 192 193 197 195 196 197 196 196 200 199 199 195 196 199 199 197 197 195 198 198 198 196 198 197 201 195 199 198 201 199 198 198 199 198 197 199 197 197 198 199 197 198 198 197 197 195 198 196 197 200 198 193 197 197 194 192 190 185 185 177 182 193 206 219 234 249 255 255 255 255 255 255 255
255 255 255 255 255 255 253 239 219 203 186 172 168 169 179 183 186 188 195 195 194 194 193 195 196 195 201 196 196 198 195 198 200 198 199 199 197 198 198 196 200 197 197 196 194 199 199 197 196 198 198 200 197 198 196 197 198 198 197 199 197 198 196 199 200 198 198 198 199 198 196 197 196 197 193 191 189 185 180 180 185 198 211 225 240 253 255 255 255 255 255 255
255 255 255 255 255 255 247 229 212 194 180 167 165 178 184 186 191 193 192 191 195 194 197 197 196 200 199 199 196 197 198 198 199 199 198 197 201 198 199 197 198 199 198 199 197 195 194 197 196 197 199 196 197 197 199 202 201 200 198 195 196 198 201 197 197 194 199 197 197 199 197 199 198 194 192 194 190 187 181 181 180 187 205 218 233 247 255 255 255 255 255 255
255 255 255 255 255 253 237 219 200 187 175 163 168 182 185 188 193 191 195 195 197 197 195 198 198 197 198 198 201 201 199 199 196 196 196 200 196 199 194 197 196 196 199 198 199 194 197 196 197 196 197 196 199 194 198 200 199 197 195 197 195 196 196 198 202 199 199 196 197 197 197 193 196 191 196 192 192 192 187 184 177 183 192 211 223 239 253 255 255 255 255 255
255 255 255 255 255 246 229 208 193 182 167 169 175 182 185 189 193 193 194 195 197 196 196 198 200 197 201 195 200 199 200 198 196 197 195 198 198 200 197 196 197 197 195 196 198 197 194 197 197 198 198 199 197 198 195 196 198 196 199 198 196 202 199 200 199 197 198 199 197 196 199 197 198 197 195 197 194 194 190 184 183 183 191 202 216 231 246 255 255 255 255 255
255 255 255 255 253 238 219 199 184 173 163 172 184 182 189 189 195 191 192 198 199 197 196 200 197 197 201 198 200 195 199 200 199 195 199 196 197 194 194 197 197 197 197 195 196 194 196 197 197 195 200 198 194 196 197 195 198 196 197 200 197 196 201 199 196 196 199 196 198 198 198 198 196 195 194 195 197 190 188 189 181 179 184 195 205 224 240 252 255 255 255 255
255 255 255 255 249 231 212 192 178 166 172 176 183 185 190 189 193 193 198 199 197 194 199 196 196 197 199 199 197 198 195 197 198 195 200 200 196 198 195 196 195 195 197 193 197 193 196 193 196 198 196 198 199 196 196 198 198 198 196 197 199 199 203 198 200 197 197 199 195 198 198 196 202 199 198 196 195 190 193 186 187 181 183 186 197 216 231 247 255 255 255 255
255 255 255 254 241 221 204 187 177 164 171 180 185 186 193 192 195 192 195 198 196 196 196 199 199 198 196 195 200 198 197 197 196 196 199 198 197 193 196 200 196 196 193 194 195 196 192 200 193 197 197 197 199 196 194 195 197 197 198 197 197 196 196 200 198 201 200 197 198 201 195 199 196 193 192 199 195 193 194 191 189 186 181 184 192 210 224 242 253 255 255 255
255 255 255 252 236 214 197 180 170 164 174 184 187 190 191 191 195 196 196 195 198 197 198 195 198 197 198 198 202 201 196 196 197 193 198 195 193 197 198 193 194 193 196 198 199 194 196 195 193 196 196 192 195 198 196 193 198 195 196 197 197 199 198 199 199 197 196 199 198 199 197 196 198 201 196 198 193 192 195 195 190 187 180 180 188 204 219 235 250 255 255 255
255 255 255 248 227 207 187 173 164 171 178 184 185 190 187 197 194 197 200 199 198 197 198 197 198 198 197 196 196 201 198 195 193 199 195 198 198 198 197 192 197 195 195 194 196 192 195 194 197 193 195 193 195 194 193 194 196 196 198 198 195 194 200 195 196 195 198 197 201 196 199 197 197 198 198 199 195 197 192 189 189 189 184 181 183 198 212 230 244 255 255 255
255 255 255 240 223 199 185 170 166 175 183 186 189 197 192 194 194 199 197 195 198 199 198 198 197 195 196 200 198 196 192 192 201 194 197 192 194 197 195 195 192 193 193 193 194 194 194 194 193 191 192 196 195 195 194 196 196 198 193 200 198 195 199 195 200 198 199 197 199 199 200 197 197 198 197 199 197 198 197 196 190 190 186 182 181 191 211 222 238 253 255 255
255 255 253 235 213 195 179 165 167 175 180 185 189 194 195 194 194 196 197 195 196 198 194 198 199 195 196 198 197 196 194 198 199 199 193 197 196 195 193 192 195 193 192 196 193 195 195 194 194 193 196 193 192 196 196 194 196 191 196 195 197 200 197 196 196 199 196 198 196 197 199 197 196 198 198 197 198 194 195 193 191 191 186 181 179 186 200 215 234 249 255 255
255 255 250 229 210 193 175 169 166 181 179 186 193 193 196 195 191 199 199 200 197 196 196 197 201 195 197 200 200 200 200 197 197 193 195 196 194 197 195 195 192 196 192 192 193 191 192 193 193 194 194 195 196 196 193 193 197 192 195 200 194 197 200 197 199 196 198 198 198 200 197 196 197 199 199 197 198 198 195 195 190 190 188 180 181 180 196 210 231 245 255 255
255 255 246 226 202 184 172 162 170 181 185 188 189 191 196 194 195 197 198 199 198 200 199 196 199 198 195 194 195 194 197 194 198 195 195 194 193 194 194 197 194 191 193 195 193 195 190 193 196 193 193 199 193 196 193 193 197 195 195 195 197 196 197 197 195 198 199 200 198 198 198 198 200 198 198 198 195 196 193 195 194 190 191 185 180 181 193 206 224 242 254 255
255 255 242 221 201 181 167 165 172 180 184 190 193 194 194 197 197 198 202 199 197 201 198 199 196 198 196 195 195 194 198 196 197 197 194 193 192 195 192 195 193 192 191 191 191 193 195 196 191 197 190 193 194 193 191 193 192 191 197 197 193 196 194 197 194 199 201 194 193 196 197 197 196 195 201 199 201 200 197 196 197 190 193 189 180 178 187 205 219 237 252 255
255 253 237 217 196 175 164 166 175 188 187 192 195 193 197 193 198 199 198 197 196 199 198 198 198 197 197 200 198 197 196 197 196 195 198 193 195 194 194 193 192 195 191 193 192 195 189 193 194 192 194 188 193 194 197 195 193 193 196 194 195 196 197 197 194 196 203 198 197 196 199 198 198 202 198 199 198 199 201 198 193 192 193 187 177 180 188 199 218 232 249 255
255 253 234 211 190 178 164 167 178 184 190 189 191 191 194 194 198 195 198 198 195 194 198 200 197 198 194 196 196 196 198 198 189 196 195 195 190 194 190 192 192 193 194 190 192 191 190 191 191 193 192 193 195 192 192 193 193 193 195 195 194 193 196 197 195 198 199 196 193 201 203 199 199 200 196 197 197 195 199 195 194 195 189 187 181 179 185 193 213 229 248 255
255 251 231 209 188 175 164 167 176 183 188 188 194 194 194 196 200 197 197 199 196 198 198 196 197 198 194 198 195 193 192 192 192 197 196 195 192 193 194 192 191 191 194 193 192 192 191 192 191 192 191 191 191 197 192 194 194 196 198 196 197 195 193 195 200 198 197 197 200 201 199 196 198 198 198 200 199 194 194 193 194 192 190 186 183 178 184 194 210 225 245 255
255 249 231 206 188 172 163 169 177 186 191 190 193 193 194 198 195 197 196 197 199 200 199 196 192 196 196 196 199 198 197 198 195 196 198 193 197 194 190 191 193 193 192 191 194 193 192 192 192 193 190 190 194 193 191 196 194 195 194 193 195 196 194 195 193 199 198 197 198 198 196 197 199 199 200 198 197 195 195 197 193 195 194 188 183 182 175 192 207 225 242 255
255 246 224 206 187 169 161 171 178 183 185 194 193 196 195 195 197 197 195 197 199 196 198 196 198 195 195 200 198 195 195 195 198 194 193 194 194 195 196 191 192 190 191 193 189 192 194 193 193 189 193 193 192 190 193 193 197 195 197 193 192 200 196 196 197 199 196 197 198 198 197 198 201 199 198 197 200 198 198 194 196 191 191 190 187 180 179 187 204 223 240 253
255 245 224 203 181 166 160 170 180 183 185 194 191 195 197 194 198 197 199 196 196 195 201 200 198 196 196 198 196 196 197 192 195 192 195 193 194 192 191 189 198 188 190 191 190 194 191 190 193 189 191 193 191 191 195 192 195 192 194 191 193 195 198 196 193 198 198 199 193 200 201 200 200 196 197 201 198 197 195 195 193 195 191 189 188 179 177 189 203 222 239 253
255 245 224 202 182 169 164 173 181 186 188 191 192 194 193 197 199 198 200 196 199 196 197 196 196 196 196 198 193 195 195 196 192 194 195 191 191 188 192 192 190 191 190 193 188 190 189 190 185 191 195 190 193 191 193 193 193 190 193 193 194 196 194 197 195 193 198 199 199 202 200 194 196 199 197 200 198 194 200 197 195 194 193 191 184 178 176 185 203 219 237 252
255 244 222 200 184 166 161 172 182 184 187 191 192 197 193 191 196 197 198 196 200 198 196 199 198 198 195 197 195 194 193 194 192 193 195 193 193 191 191 189 190 192 188 189 192 188 191 187 193 188 190 193 193 191 193 193 192 189 194 195 198 199 196 197 197 194 196 196 197 199 200 196 195 197 198 195 197 199 198 197 198 193 191 190 187 181 178 188 200 218 237 250
255 244 225 200 185 169 162 172 183 186 187 194 191 195 197 195 197 197 196 197 197 198 197 194 198 197 195 192 197 196 190 195 194 192 191 196 191 187 192 193 193 193 191 189 190 192 190 189 192 192 191 193 193 193 188 192 192 192 196 193 192 194 198 197 195 197 195 196 194 198 199 197 198 196 198 199 199 196 196 195 194 196 192 189 188 184 175 183 199 218 234 251
255 244 225 199 183 167 164 173 184 185 192 190 193 191 197 198 197 197 198 198 196 196 197 193 196 199 196 192 197 194 198 196 196 196 195 195 191 189 192 191 193 194 193 189 193 191 194 188 192 193 190 192 189 191 194 192 193 195 196 196 195 197 195 195 195 198 199 200 197 195 196 198 197 197 200 200 195 195 198 194 195 189 192 187 190 181 177 183 194 215 234 251
255 245 225 199 182 166 161 172 180 189 189 191 194 195 196 199 197 196 196 199 201 201 196 195 195 196 196 196 198 193 193 194 195 194 194 193 194 194 190 189 189 190 194 194 193 192 193 192 189 194 191 191 193 192 192 192 192 195 193 197 193 194 194 194 194 198 198 195 199 199 195 197 199 198 198 199 197 197 201 199 197 196 191 193 189 181 180 188 199 217 235 251
255 246 226 199 183 167 162 164 181 185 187 190 194 198 192 198 197 198 195 199 199 195 201 197 201 199 197 193 195 195 196 192 196 193 194 193 189 196 191 193 191 190 192 194 191 189 190 193 192 189 193 190 194 188 194 193 189 189 196 193 196 193 196 196 194 198 195 197 199 195 198 198 199 198 200 198 198 200 198 193 200 196 191 192 186 182 179 184 200 217 236 251
255 248 227 206 187 167 156 172 182 186 189 189 192 196 197 199 197 197 197 197 200 198 195 198 196 196 196 195 195 194 192 191 195 195 194 191 191 190 194 191 193 191 193 192 190 193 188 190 194 193 191 191 193 194 195 193 192 191 196 191 194 196 197 197 199 197 196 195 197 195 200 197 197 199 198 197 197 197 196 192 194 192 192 192 186 181 176 183 202 217 235 251
255 249 230 206 185 172 165 168 178 185 189 192 195 195 198 198 197 197 196 197 197 198 199 200 197 197 194 199 196 196 195 196 196 195 192 191 191 195 192 192 190 192 191 191 189 191 196 192 194 190 193 195 196 191 192 191 192 193 193 194 194 198 196 196 199 194 196 195 198 198 198 200 197 198 199 196 197 196 198 195 195 191 190 187 184 180 178 188 199 220 237 252
255 251 232 209 189 176 164 164 176 185 188 194 191 195 196 197 196 196 196 199 198 197 198 200 198 198 195 196 194 194 194 196 195 197 193 192 193 193 189 196 192 198 190 194 192 193 193 190 188 194 191 194 192 196 191 194 194 189 194 194 197 194 196 196 195 196 196 199 197 200 201 199 201 197 198 196 198 199 195 194 197 194 193 189 185 181 178 187 203 220 238 252
255 253 236 211 191 174 164 161 176 183 190 188 193 194 193 196 198 197 198 197 196 196 197 197 198 196 198 195 194 196 198 194 196 196 194 195 193 192 193 193 195 190 193 191 191 192 191 194 195 194 190 193 192 194 195 191 192 197 195 194 195 197 199 196 198 197 199 196 197 200 199 197 199 195 197 197 197 195 195 196 195 191 191 191 185 177 175 190 207 226 241 254
255 254 238 215 194 178 164 161 172 183 189 190 191 194 194 197 194 198 195 199 198 201 194 200 197 197 195 197 196 197 195 195 191 194 195 192 192 193 194 191 192 191 193 194 191 193 193 193 191 193 188 193 195 190 196 195 194 194 198 194 193 197 194 197 198 196 195 199 200 198 199 198 198 196 199 197 198 196 195 192 193 195 190 190 183 177 178 192 209 228 244 255
255 255 241 219 198 182 168 161 169 180 185 188 194 193 197 197 196 198 194 199 198 196 198 197 197 195 199 198 196 195 192 196 195 191 194 195 192 193 194 189 190 191 194 191 193 192 192 195 191 191 193 194 195 193 192 195 191 194 193 191 196 196 193 200 199 198 196 198 198 200 197 196 198 196 197 197 198 198 197 196 194 195 188 186 186 179 179 190 210 230 246 255
255 255 246 224 203 185 170 161 163 175 183 191 186 192 194 192 198 195 197 195 196 199 196 197 196 199 195 198 198 195 194 192 197 195 194 195 195 195 193 194 195 191 196 192 192 190 191 195 192 194 191 192 192 193 196 193 196 197 194 198 194 197 198 196 194 196 197 195 200 198 198 198 199 197 194 197 201 194 197 195 192 191 192 182 180 176 183 198 212 231 249 255
255 255 251 232 209 190 177 161 161 172 184 185 193 192 193 191 198 197 196 199 198 198 200 197 197 194 196 195 201 194 194 194 198 197 195 196 194 194 194 194 194 191 194 193 193 194 190 193 192 192 192 192 194 194 192 196 194 194 196 194 197 196 196 199 196 196 197 200 199 197 201 198 201 200 196 198 194 198 192 194 194 192 190 186 176 174 186 202 219 236 252 255
255 255 253 237 213 195 176 161 162 172 181 187 192 189 193 193 198 197 197 197 195 200 199 197 200 196 196 196 197 199 197 195 195 196 198 196 194 194 193 194 195 196 193 191 195 194 189 192 194 194 194 192 193 198 195 191 194 194 195 198 195 195 196 196 196 199 197 199 197 200 199 197 199 199 198 199 197 196 191 192 196 190 190 182 176 176 190 208 222 241 253 255
255 255 255 242 219 199 183 163 160 171 177 181 189 190 193 192 197 198 197 200 196 197 199 196 193 199 196 197 197 197 196 196 198 194 195 197 194 196 194 193 191 196 194 193 194 193 193 193 195 196 194 194 194 193 192 196 197 195 197 198 193 198 196 196 199 199 201 198 198 198 197 200 198 197 197 196 196 198 195 196 192 190 188 184 178 177 195 209 229 245 255 255
255 255 255 249 227 207 187 173 158 162 171 184 187 189 192 194 197 196 196 198 200 197 197 198 199 195 196 196 194 196 198 196 201 194 196 196 194 195 196 196 193 196 197 191 195 195 195 195 195 194 196 196 194 197 196 197 194 196 195 197 196 195 196 197 196 196 196 197 193 198 199 196 200 198 197 196 196 194 191 197 193 187 184 180 176 186 196 215 232 249 255 255
255 255 255 252 233 214 195 177 161 161 168 180 185 188 192 193 193 194 196 195 198 196 196 196 197 199 197 195 195 199 197 197 198 198 192 199 196 195 195 193 195 193 198 196 194 197 194 196 194 197 195 196 194 197 198 192 194 195 196 197 196 199 196 198 196 197 196 195 198 196 198 196 198 197 196 198 193 194 194 192 190 189 179 176 178 189 203 220 236 252 255 255
255 255 255 255 242 221 201 183 168 162 166 177 181 188 190 190 194 195 195 196 193 198 200 199 202 197 196 200 199 201 196 196 198 194 198 196 198 198 195 197 196 195 195 193 195 195 196 193 192 193 194 195 197 195 198 196 197 197 195 197 196 196 196 195 198 198 199 202 201 199 199 199 199 194 197 199 196 195 194 189 191 184 179 175 180 192 208 229 243 255 255 255
255 255 255 255 250 231 210 190 178 163 161 174 182 187 186 190 194 193 195 196 197 196 198 200 198 199 196 199 198 195 198 196 198 196 197 195 194 194 193 194 195 196 196 194 195 194 194 194 195 193 196 195 194 194 198 196 197 197 198 196 201 198 199 197 199 200 202 200 201 200 199 200 197 199 198 200 197 195 193 188 187 183 178 175 184 197 216 232 248 255 255 255
255 255 255 255 254 239 218 196 178 166 155 165 177 183 188 188 190 195 195 194 197 198 197 196 200 196 194 199 198 198 194 198 196 195 197 195 196 195 194 195 194 196 195 199 195 196 196 197 199 197 196 194 195 193 196 199 200 199 195 196 198 198 196 195 198 199 197 199 197 197 199 196 201 195 198 197 195 192 190 191 184 180 175 175 189 205 220 238 253 255 255 255
255 255 255 255 255 248 228 207 191 173 163 162 170 176 183 187 191 192 193 194 193 197 196 199 199 196 199 197 200 195 196 197 198 197 198 197 196 198 196 198 197 196 198 193 192 195 194 196 197 195 196 197 199 198 197 196 198 196 195 198 197 198 195 200 198 197 201 199 196 200 198 199 200 198 195 197 191 192 191 188 184 179 172 180 194 212 230 246 255 255 255 255
255 255 255 255 255 254 238 218 198 181 164 161 166 179 183 186 188 192 190 191 195 194 196 197 196 199 199 200 198 199 195 195 196 197 197 197 200 200 199 196 196 199 194 192 197 193 196 194 196 197 194 196 198 199 196 202 198 196 199 197 201 197 198 198 198 200 202 198 199 197 196 196 198 194 194 192 190 188 187 187 182 175 181 187 202 221 237 251 255 255 255 255
255 255 255 255 255 255 247 230 212 191 175 163 162 173 180 181 187 193 191 192 193 192 198 193 195 198 201 198 199 195 202 198 196 198 196 200 200 198 195 197 196 196 198 197 199 198 196 195 200 194 196 198 198 197 197 199 197 196 198 198 199 196 203 195 198 197 196 197 198 198 195 196 195 194 194 195 190 188 187 183 175 175 182 197 214 230 245 255 255 255 255 255
255 255 255 255 255 255 254 241 222 202 183 170 156 159 174 185 186 187 192 191 194 196 196 195 197 195 194 196 198 193 197 197 197 200 195 199 194 199 198 196 197 194 197 199 197 199 196 196 199 195 197 193 198 197 199 197 196 197 200 197 200 201 198 196 199 197 198 197 200 197 198 197 193 194 194 191 192 189 181 178 170 178 192 203 220 239 251 255 255 255 255 255
255 255 255 255 255 255 255 248 229 211 190 176 167 160 164 175 179 185 189 191 194 189 193 195 199 199 199 195 196 198 195 198 196 198 197 197 197 197 197 197 198 197 201 198 196 198 198 197 194 196 195 201 195 198 198 199 199 200 198 196 198 199 198 198 194 199 197 195 198 195 195 194 193 192 193 193 186 188 183 173 174 184 197 212 228 245 255 255 255 255 255 255
255 255 255 255 255 255 255 255 241 224 205 185 170 166 159 171 176 181 188 187 189 194 195 195 199 195 196 196 197 191 197 201 194 197 197 197 196 196 198 196 198 195 196 197 198 198 196 196 198 196 197 195 195 199 200 200 198 198 199 200 194 198 197 201 197 194 198 197 194 197 196 196 196 194 188 184 187 183 175 173 179 191 206 223 240 252 255 255 255 255 255 255
255 255 255 255 255 255 255 255 252 236 214 198 183 168 163 159 169 178 184 185 192 191 192 192 190 194 196 197 197 196 201 199 198 198 196 196 196 196 199 197 198 197 199 197 198 197 198 198 196 200 198 197 198 196 199 198 198 197 196 199 198 199 198 199 197 197 199 198 193 195 196 195 189 190 188 186 183 175 173 176 188 201 218 234 249 255 255 255 255 255 255 255
255 255 255 255 255 255 255 255 255 247 231 211 194 182 167 163 162 172 179 182 186 190 193 192 191 193 194 192 197 194 198 193 195 196 201 198 198 200 196 198 197 198 197 196 199 196 194 201 195 199 200 198 200 197 194 198 199 199 197 199 200 197 199 199 197 197 198 196 194 192 195 192 188 189 189 184 177 173 174 184 199 210 228 242 254 255 255 255 255 255 255 255
255 255 255 255 255 255 255 255 255 254 242 225 207 191 177 166 163 165 172 181 184 183 187 190 195 193 195 194 190 194 196 197 197 199 194 194 200 196 195 200 198 196 197 199 201 197 198 198 195 197 199 200 198 200 195 197 198 198 197 199 199 195 195 199 196 197 196 195 195 194 192 189 189 186 183 177 173 172 184 191 208 219 239 251 255 255 255 255 255 255 255 255
255 255 255 255 255 255 255 255 255 255 253 239 223 204 189 176 163 156 162 173 178 185 189 189 192 193 194 195 194 191 195 196 198 192 196 196 196 196 198 196 200 198 197 198 201 199 201 196 197 197 200 197 198 197 199 199 197 199 197 195 196 197 198 194 197 199 199 189 194 191 193 187 186 185 183 173 173 183 193 206 218 234 248 255 255 255 255 255 255 255 255 255
255 255 255 255 255 255 255 255 255 255 255 252 236 216 202 183 172 167 159 164 171 180 185 186 192 190 191 191 196 193 194 194 197 196 198 197 199 195 194 197 195 196 196 196 195 197 199 198 199 196 197 200 199 195 202 197 198 197 198 196 196 195 196 197 194 195 195 194 194 188 190 185 182 181 171 173 181 189 202 217 233 246 254 255 255 255 255 255 255 255 255 255
255 255 255 255 255 255 255 255 255 255 255 255 250 233 218 198 187 173 163 162 161 173 179 181 183 190 192 190 191 190 194 195 197 196 193 196 194 195 195 194 197 194 199 195 201 199 195 197 197 196 197 198 199 194 199 196 199 194 194 198 196 197 197 196 195 193 193 195 186 185 185 183 181 172 171 177 187 198 214 230 243 254 255 255 255 255 255 255 255 255 255 255
255 255 255 255 255 255 255 255 255 255 255 255 255 247 232 215 203 185 177 164 161 161 168 176 183 185 185 186 193 191 193 194 195 196 196 194 199 197 197 195 196 200 196 197 197 195 197 197 196 194 197 194 198 196 197 194 198 196 198 194 193 191 196 192 192 190 187 187 191 186 181 176 170 168 175 187 195 214 228 240 252 255 255 255 255 255 255 255 255 255 255 255
255 255 255 255 255 255 255 255 255 255 255 255 255 255 248 233 214 203 185 177 167 160 157 170 174 179 183 185 186 190 188 189 192 193 195 197 195 196 196 194 194 199 198 193 198 198 196 197 196 196 196 197 198 194 196 197 198 195 195 193 198 196 191 193 187 189 188 188 185 179 174 169 168 175 188 198 215 227 240 252 255 255 255 255 255 255 255 255 255 255 255 255
255 255 255 255 255 255 255 255 255 255 255 255 255 255 255 247 232 218 204 189 174 170 158 160 164 170 176 181 182 186 192 190 190 193 195 192 194 197 194 196 194 194 194 195 196 193 194 195 196 192 193 196 196 194 194 197 192 196 196 195 194 191 190 190 190 187 182 182 181 169 166 168 180 186 200 211 226 241 251 255 255 255 255 255 255 255 255 255 255 255 255 255
255 255 255 255 255 255 255 255 255 255 255 255 255 255 255 255 247 235 220 207 196 183 171 163 157 158 167 174 179 182 185 187 189 189 190 191 192 193 193 192 192 193 194 195 194 193 195 194 195 192 191 195 194 197 193 192 193 191 190 193 191 190 189 179 180 183 180 178 172 171 174 178 191 201 211 225 239 251 255 255 255 255 255 255 255 255 255 255 255 255 255 255
255 255 255 255 255 255 255 255 255 255 255 255 255 255 255 255 255 249 236 224 208 196 184 174 167 159 161 164 168 176 183 183 183 186 183 188 187 189 188 192 195 193 194 193 191 195 193 191 195 195 193 192 192 193 193 192 191 189 190 190 187 190 185 186 177 173 169 168 169 175 182 194 203 216 229 243 252 255 255 255 255 255 255 255 255 255 255 255 255 255 255 255
255 255 255 255 255 255 255 255 255 255 255 255 255 255 255 255 255 255 252 241 228 214 200 189 176 171 167 157 153 162 168 178 180 180 185 184 185 188 189 186 189 194 191 188 192 191 193 193 192 190 191 190 189 191 191 188 192 189 183 188 185 183 181 177 174 164 173 173 180 187 194 208 222 232 245 254 255 255 255 255 255 255 255 255 255 255 255 255 255 255 255 255
255 255 255 255 255 255 255 255 255 255 255 255 255 255 255 255 255 255 255 254 245 232 218 207 198 186 180 168 167 161 161 164 167 174 175 180 183 183 189 187 186 185 187 191 192 191 191 188 188 188 189 191 190 186 186 189 185 183 182 177 178 171 170 167 168 171 177 185 193 202 211 224 238 247 254 255 255 255 255 255 255 255 255 255 255 255 255 255 255 255 255 255
255 255 255 255 255 255 255 255 255 255 255 255 255 255 255 255 255 255 255 255 255 250 238 226 216 202 193 188 178 172 168 168 158 163 167 165 176 176 177 180 182 181 182 182 187 187 185 183 183 185 183 183 182 183 181 181 176 174 171 173 168 168 167 170 180 182 192 200 209 217 230 242 251 255 255 255 255 255 255 255 255 255 255 255 255 255 255 255 255 255 255 255
255 255 255 255 255 255 255 255 255 255 255 255 255 255 255 255 255 255 255 255 255 255 253 244 233 222 212 202 195 184 179 176 170 166 164 163 163 167 169 174 175 175 176 179 180 180 179 180 179 176 178 175 176 174 173 172 168 166 168 164 171 172 180 182 194 201 209 216 227 236 247 253 255 255 255 255 255 255 255 255 255 255 255 255 255 255 255 255 255 255 255 255
255 255 255 255 255 255 255 255 255 255 255 255 255 255 255 255 255 255 255 255 255 255 255 255 252 242 231 223 214 204 195 190 182 176 170 168 163 163 157 163 162 161 163 163 166 164 166 170 168 166 167 168 168 163 164 161 168 169 173 176 178 191 194 197 207 216 225 236 245 253 255 255 255 255 255 255 255 255 255 255 255 255 255 255 255 255 255 255 255 255 255 255
255 255 255 255 255 255 255 255 255 255 255 255 255 255 255 255 255 255 255 255 255 255 255 255 255 255 250 242 232 224 215 206 200 194 187 186 181 176 169 170 168 169 166 164 167 167 163 166 164 168 166 168 170 173 169 177 177 184 186 189 198 204 210 217 225 236 243 250 254 255 255 255 255 255 255 255 255 255 255 255 255 255 255 255 255 255 255 255 255 255 255 255
255 255 255 255 255 255 255 255 255 255 255 255 255 255 255 255 255 255 255 255 255 255 255 255 255 255 255 255 251 245 236 227 222 213 207 202 195 194 190 184 182 184 180 175 178 174 174 173 176 177 178 182 183 185 186 190 194 199 199 209 216 223 230 237 246 252 255 255 255 255 255 255 255 255 255 255 255 255 255 255 255 255 255 255 255 255 255 255 255 255 255 255
255 255 255 255 255 255 255 255 255 255 255 255 255 255 255 255 255 255 255 255 255 255 255 255 255 255 255 255 255 255 253 248 241 234 229 223 216 213 206 205 198 200 193 194 192 189 192 194 190 192 194 197 200 204 205 208 213 220 223 231 236 242 248 253 255 255 255 255 255 255 255 255 255 255 255 255 255 255 255 255 255 255 255 255 255 255 255 255 255 255 255 255
255 255 255 255 255 255 255 255 255 255 255 255 255 255 255 255 255 255 255 255 255 255 255 255 255 255 255 255 255 255 255 255 255 253 248 246 239 233 230 223 221 217 218 214 213 213 211 213 212 214 213 217 219 225 225 231 233 239 244 248 252 255 255 255 255 255 255 255 255 255 255 255 255 255 255 255 255 255 255 255 255 255 255 255 255 255 255 255 255 255 255 255
255 255 255 255 255 255 255 255 255 255 255 255 255 255 255 255 255 255 255 255 255 255 255 255 255 255 255 255 255 255 255 255 255 255 255 255 254 252 249 246 241 241 238 235 234 233 233 233 234 235 235 236 240 244 246 250 252 254 255 255 255 255 255 255 255 255 255 255 255 255 255 255 255 255 255 255 255 255 255 255 255 255 255 255 255 255 255 255 255 255 255 255
