P2
96 96
255
255 255 255 255 255 255 255 255 255 255 255 255 255 255 255 255 255 255 255 255 255 255 255 255 255 255 255 255 255 255 255 255 255 255 255 255 255 255 255 255 255 255 255 255 255 255 255 255 255 255 255 255 255 255 255 255 255 255 255 255 255 255 255 255 255 255 255 255 255 255 255 255 255 255 255 255 255 255 255 255 255 255 255 255 255 255 255 255 255 255 255 255 255 255 255 255
255 255 255 255 255 255 255 255 255 255 255 255 255 255 255 255 255 255 255 255 255 255 255 255 255 255 255 255 255 255 255 255 255 255 255 255 255 255 255 255 255 255 255 255 255 255 255 255 255 255 255 255 255 255 255 255 255 255 255 255 255 255 255 255 255 255 255 255 255 255 255 255 255 255 255 255 255 255 255 255 255 255 255 255 255 255 255 255 255 255 255 255 255 255 255 255
255 255 255 255 255 255 255 255 255 255 255 255 255 255 255 255 255 255 255 255 255 255 255 255 255 255 255 255 255 255 255 255 255 255 255 255 255 255 255 255 255 255 255 255 255 255 255 255 255 255 255 255 255 255 255 255 255 255 255 255 255 255 255 255 255 255 255 255 255 255 255 255 255 255 255 255 255 255 255 255 255 255 255 255 255 255 255 255 255 255 255 255 255 255 255 255
255 255 255 255 255 255 255 255 255 255 255 255 255 255 255 255 255 255 255 255 255 255 255 255 255 255 255 255 255 255 255 255 255 255 255 255 255 255 255 255 255 255 255 255 255 255 255 255 255 255 255 255 255 255 255 255 255 255 255 255 255 255 255 255 255 255 255 255 255 255 255 255 255 255 255 255 255 255 255 255 255 255 255 255 255 255 255 255 255 255 255 255 255 255 255 255
255 255 255 255 255 255 255 255 255 255 255 255 255 255 255 255 255 255 255 255 255 255 255 255 255 255 255 255 255 255 255 255 255 255 255 255 255 255 255 255 255 255 255 255 255 255 255 255 255 255 255 255 255 255 255 255 255 255 255 255 255 255 255 255 255 255 255 255 255 255 255 255 255 255 255 255 255 255 255 255 255 255 255 255 255 255 255 255 255 255 255 255 255 255 255 255
255 255 255 255 255 255 255 255 255 255 255 255 255 255 255 255 255 255 255 255 255 255 255 255 255 255 255 255 255 255 255 255 255 255 255 255 255 255 255 255 255 255 255 255 255 255 255 255 255 255 255 255 255 255 255 255 255 255 255 255 255 255 255 255 255 255 255 255 255 255 255 255 255 255 255 255 255 255 255 255 255 255 255 255 255 255 255 255 255 255 255 255 255 255 255 255
255 255 255 255 255 255 255 255 255 255 255 255 255 255 255 255 255 255 255 255 255 255 255 255 255 255 255 255 255 255 255 255 255 255 255 255 255 255 255 255 255 255 255 255 255 255 255 255 255 255 255 255 255 255 255 255 255 255 255 255 255 255 255 255 255 255 255 255 255 255 255 255 255 255 255 255 255 255 255 255 255 255 255 255 255 255 255 255 255 255 255 255 255 255 255 255
255 255 255 255 255 255 255 255 255 255 255 255 255 255 255 255 255 255 255 255 255 255 255 255 255 255 255 255 255 255 255 255 255 255 255 255 255 255 255 255 255 255 255 255 255 255 255 255 255 255 255 255 255 255 255 255 255 255 255 255 255 255 255 255 255 255 255 255 255 255 255 255 255 255 255 255 255 255 255 255 255 255 255 255 255 255 255 255 255 255 255 255 255 255 255 255
255 255 255 255 255 255 255 255 255 255 255 255 255 255 255 255 255 255 255 255 255 255 255 255 255 255 255 255 255 255 255 255 255 255 255 255 255 255 255 255 255 255 255 255 255 255 255 255 255 255 255 255 255 255 255 255 255 255 255 255 255 255 255 255 255 255 255 255 255 255 255 255 255 255 255 255 255 255 255 255 255 255 255 255 255 255 255 255 255 255 255 255 255 255 255 255
255 255 255 255 255 255 255 255 255 255 255 255 255 255 255 255 255 255 255 255 255 255 255 255 255 255 255 255 255 255 255 255 255 255 255 255 255 255 255 255 255 255 255 255 255 255 255 255 255 255 255 255 255 255 255 255 255 255 255 255 255 255 255 255 255 255 255 255 255 255 255 255 255 255 255 255 255 255 255 255 255 255 255 255 255 255 255 255 255 255 255 255 255 255 255 255
255 255 255 255 255 255 255 255 255 255 255 255 255 255 255 255 255 255 255 255 255 255 255 255 255 255 255 255 255 255 255 252 251 251 249 250 249 250 251 253 253 255 255 255 255 255 255 255 255 255 255 255 255 255 255 255 255 255 255 255 255 255 255 255 255 255 255 255 255 255 255 255 255 255 255 255 255 255 255 255 255 255 255 255 255 255 255 255 255 255 255 255 255 255 255 255
255 255 255 255 255 255 255 255 255 255 255 255 255 255 255 255 255 255 255 255 255 255 255 255 255 255 255 253 249 244 234 236 234 229 227 227 229 230 232 232 235 241 244 246 250 254 255 255 255 255 255 255 255 255 255 255 255 255 255 255 255 255 255 255 255 255 255 255 255 255 255 255 255 255 255 255 255 255 255 255 255 255 255 255 255 255 255 255 255 255 255 255 255 255 255 255
255 255 255 255 255 255 255 255 255 255 255 255 255 255 255 255 255 255 255 255 255 255 255 255 255 250 241 231 223 218 211 210 207 204 202 205 203 203 207 210 213 216 219 224 232 239 243 248 253 255 255 255 255 255 255 255 255 255 255 255 255 255 255 255 255 255 255 255 255 255 255 255 255 255 255 255 255 255 255 255 255 255 255 255 255 255 255 255 255 255 255 255 255 255 255 255
255 255 255 255 255 255 255 255 255 255 255 255 255 255 255 255 255 255 255 255 255 255 255 251 241 229 214 207 198 190 193 180 180 180 178 183 182 183 183 187 190 195 191 199 205 215 221 230 234 242 251 253 255 255 255 255 255 255 255 255 255 255 255 255 255 255 255 255 255 255 255 255 255 255 255 255 255 255 255 255 255 255 255 255 255 255 255 255 255 255 255 255 255 255 255 255
255 255 255 255 255 255 255 255 255 255 255 255 255 255 255 255 255 255 255 255 255 255 248 230 215 202 192 182 175 175 162 170 165 155 161 163 163 161 168 170 170 170 174 173 182 191 193 203 206 218 230 238 248 254 255 255 255 255 255 255 255 255 255 255 255 255 255 255 255 255 255 255 255 255 255 255 255 255 255 255 255 255 255 255 255 255 255 255 255 255 255 255 255 255 255 255
255 255 255 255 255 255 255 255 255 255 255 255 255 255 255 255 255 255 255 255 255 246 225 203 192 180 167 162 156 155 150 155 161 152 162 152 161 157 158 155 155 160 163 156 160 167 173 177 183 193 199 214 223 233 246 253 255 255 255 255 255 255 255 255 255 255 255 255 255 255 255 255 255 255 255 255 255 255 255 255 255 255 255 255 255 255 255 255 255 255 255 255 255 255 255 255
255 255 255 255 255 255 255 255 255 255 255 255 255 255 255 255 255 255 255 255 247 219 199 178 161 156 150 141 135 147 153 154 165 165 168 166 170 167 170 165 163 156 156 157 153 150 155 160 170 170 181 188 197 211 222 235 246 254 255 255 255 255 255 255 255 255 255 255 255 255 255 255 255 255 255 255 255 255 255 255 255 255 255 255 255 255 255 255 255 255 255 255 255 255 255 255
255 255 255 255 255 255 255 255 255 255 255 255 255 255 255 255 255 255 255 252 224 191 176 150 144 137 137 142 152 167 163 170 173 174 176 168 173 170 172 175 175 167 170 168 155 164 146 156 156 155 167 159 177 189 192 215 223 237 250 255 255 255 255 255 255 255 255 255 255 255 255 255 255 255 255 255 255 255 255 255 255 255 255 255 255 255 255 255 255 255 255 255 255 255 255 255
255 255 255 255 255 255 255 255 255 255 255 255 255 255 255 255 255 255 255 234 195 170 150 128 125 122 133 157 161 165 166 174 179 174 181 177 181 181 182 178 182 176 171 172 169 165 162 166 161 149 150 150 153 163 175 182 198 213 228 243 254 255 255 255 255 255 255 255 255 255 255 255 255 255 255 255 255 255 255 255 255 255 255 255 255 255 255 255 255 255 255 255 255 255 255 255
255 255 255 255 255 255 255 255 255 255 255 255 255 255 255 255 255 255 250 212 173 147 129 114 110 127 156 158 169 175 176 179 177 180 183 181 185 183 176 183 186 181 182 182 184 172 172 174 169 165 159 152 153 151 157 161 178 192 205 220 237 250 255 255 255 255 255 255 255 255 255 255 255 255 255 255 255 255 255 255 255 255 255 255 255 255 255 255 255 255 255 255 255 255 255 255
255 255 255 255 255 255 255 255 255 255 255 255 255 255 255 255 255 255 230 180 155 133 113 104 119 151 169 174 173 182 179 182 182 184 186 188 182 191 188 184 186 182 180 181 177 175 178 177 174 166 166 163 151 142 146 148 159 164 177 197 214 229 243 255 255 255 255 255 255 255 255 255 255 255 255 255 255 255 255 255 255 255 255 255 255 255 255 255 255 255 255 255 255 255 255 255
255 255 255 255 255 255 255 255 255 255 255 255 255 255 255 255 255 252 212 165 138 123 109 100 132 160 174 173 180 180 181 184 188 182 190 192 192 186 191 188 189 186 185 184 186 184 184 177 177 175 174 166 168 158 157 141 143 153 163 171 187 204 226 240 253 255 255 255 255 255 255 255 255 255 255 255 255 255 255 255 255 255 255 255 255 255 255 255 255 255 255 255 255 255 255 255
255 255 255 255 255 255 255 255 255 255 255 255 255 255 255 255 255 241 195 151 124 106 106 115 153 166 173 182 186 188 185 186 188 189 191 188 188 187 189 184 183 188 185 185 187 182 184 182 180 181 179 171 178 170 165 158 145 139 142 155 169 182 200 217 236 253 255 255 255 255 255 255 255 255 255 255 255 255 255 255 255 255 255 255 255 255 255 255 255 255 255 255 255 255 255 255
255 255 255 255 255 255 255 255 255 255 255 255 255 255 255 255 255 223 181 149 127 109 103 132 164 172 180 188 184 189 189 190 192 186 189 189 189 193 191 195 190 191 191 184 186 187 186 186 182 181 179 174 181 173 167 166 159 154 144 143 150 163 176 195 216 231 251 255 255 255 255 255 255 255 255 255 255 255 255 255 255 255 255 255 255 255 255 255 255 255 255 255 255 255 255 255
255 255 255 255 255 255 255 255 255 255 255 255 255 255 255 255 251 208 169 143 114 103 122 144 165 180 182 183 184 188 187 191 190 192 188 187 192 186 191 193 192 188 186 197 191 187 192 192 185 186 180 187 179 174 178 173 167 159 156 149 143 145 162 174 198 211 234 251 255 255 255 255 255 255 255 255 255 255 255 255 255 255 255 255 255 255 255 255 255 255 255 255 255 255 255 255
255 255 255 255 255 255 255 255 255 255 255 255 255 255 255 255 241 197 154 135 111 111 120 157 172 183 186 188 192 189 193 190 195 187 193 191 194 199 191 192 194 191 193 191 191 192 193 190 193 187 183 182 182 183 180 174 176 168 166 159 146 142 148 158 171 184 214 233 252 255 255 255 255 255 255 255 255 255 255 255 255 255 255 255 255 255 255 255 255 255 255 255 255 255 255 255
255 255 255 255 255 255 255 255 255 255 255 255 255 255 255 255 232 184 151 127 106 107 139 169 179 182 175 188 190 192 193 197 195 192 195 197 185 192 193 195 195 189 193 192 192 190 191 186 187 186 186 189 184 181 179 180 177 176 172 165 157 146 142 141 157 167 185 210 232 252 255 255 255 255 255 255 255 255 255 255 255 255 255 255 255 255 255 255 255 255 255 255 255 255 255 255
255 255 255 255 255 255 255 255 255 255 255 255 255 255 255 255 217 177 144 120 102 119 155 168 180 182 187 186 191 195 190 197 193 192 191 196 192 192 191 194 197 194 194 193 191 187 191 188 191 190 187 182 183 184 184 180 181 177 177 168 169 159 147 142 141 151 176 188 215 237 253 255 255 255 255 255 255 255 255 255 255 255 255 255 255 255 255 255 255 255 255 255 255 255 255 255
255 255 255 255 255 255 255 255 255 255 255 255 255 255 255 253 208 171 142 121 104 126 162 174 183 190 186 188 192 191 193 194 194 192 195 196 193 197 197 197 193 190 192 193 195 192 189 193 195 193 188 188 182 184 182 183 183 177 173 176 169 167 157 152 136 138 154 169 190 215 239 253 255 255 255 255 255 255 255 255 255 255 255 255 255 255 255 255 255 255 255 255 255 255 255 255
255 255 255 255 255 255 255 255 255 255 255 255 255 255 255 248 199 166 131 122 110 136 166 175 180 191 185 188 187 194 195 194 194 197 193 193 199 197 196 195 196 195 195 192 196 192 195 192 190 189 188 191 190 188 187 183 185 182 177 179 178 171 165 159 146 136 149 153 169 193 219 241 255 255 255 255 255 255 255 255 255 255 255 255 255 255 255 255 255 255 255 255 255 255 255 255
255 255 255 255 255 255 255 255 255 255 255 255 255 255 255 242 195 151 136 115 111 139 175 175 181 182 187 193 186 194 194 193 199 200 195 198 202 194 193 196 195 194 198 194 193 196 193 192 194 195 193 190 196 187 184 190 187 183 187 179 176 176 166 168 162 148 140 141 161 181 196 222 249 255 255 255 255 255 255 255 255 255 255 255 255 255 255 255 255 255 255 255 255 255 255 255
255 255 255 255 255 255 255 255 255 255 255 255 255 255 255 238 182 154 127 113 106 134 170 180 186 185 192 189 190 198 198 195 197 193 199 199 197 195 197 196 192 196 194 192 193 194 196 193 190 196 195 191 187 188 188 184 186 181 182 179 178 175 175 173 163 155 147 133 148 161 182 207 230 253 255 255 255 255 255 255 255 255 255 255 255 255 255 255 255 255 255 255 255 255 255 255
255 255 255 255 255 255 255 255 255 255 255 255 255 255 255 233 182 148 132 114 117 143 176 182 184 189 192 194 192 191 198 189 197 198 197 198 202 197 199 196 199 199 197 194 191 197 195 193 195 194 189 193 190 190 186 190 189 183 186 182 179 182 176 167 172 163 160 144 133 148 162 191 214 239 254 255 255 255 255 255 255 255 255 255 255 255 255 255 255 255 255 255 255 255 255 255
255 255 255 255 255 255 255 255 255 255 255 255 255 255 255 226 181 148 122 110 114 152 175 186 187 188 189 194 195 197 193 194 196 196 196 199 196 197 197 197 196 195 200 199 197 199 192 193 197 191 198 190 189 192 187 193 190 188 186 185 181 181 178 181 172 170 168 157 142 135 154 167 192 219 243 255 255 255 255 255 255 255 255 255 255 255 255 255 255 255 255 255 255 255 255 255
255 255 255 255 255 255 255 255 255 255 255 255 255 255 255 224 182 145 120 111 112 158 178 183 190 189 196 193 194 196 198 195 196 196 196 201 199 197 197 196 196 198 196 195 196 199 196 194 192 195 193 193 190 187 191 189 193 189 188 185 184 185 183 174 181 167 170 156 151 137 142 158 180 202 231 252 255 255 255 255 255 255 255 255 255 255 255 255 255 255 255 255 255 255 255 255
255 255 255 255 255 255 255 255 255 255 255 255 255 255 255 221 179 143 119 113 111 155 173 178 185 190 189 193 190 197 196 196 198 197 197 198 198 192 198 204 197 200 199 197 194 199 198 194 194 191 195 192 192 189 193 191 192 189 186 186 184 182 181 184 179 171 169 161 159 144 140 153 164 186 212 239 255 255 255 255 255 255 255 255 255 255 255 255 255 255 255 255 255 255 255 255
255 255 255 255 255 255 255 255 255 255 255 255 255 255 255 224 169 138 120 110 117 160 175 188 190 186 192 193 199 197 197 198 203 199 196 199 194 196 198 193 201 201 196 199 194 193 194 194 194 194 193 197 194 195 194 191 192 190 182 181 188 186 185 184 177 175 176 167 164 148 141 137 153 171 202 224 249 255 255 255 255 255 255 255 255 255 255 255 255 255 255 255 255 255 255 255
255 255 255 255 255 255 255 255 255 255 255 255 255 255 255 218 176 146 124 114 118 162 178 183 182 190 194 191 197 195 198 197 194 197 197 197 200 202 198 201 200 194 197 194 202 195 199 198 199 190 196 194 192 197 194 190 194 191 186 193 185 186 187 184 183 184 171 174 165 169 143 142 146 163 188 214 240 254 255 255 255 255 255 255 255 255 255 255 255 255 255 255 255 255 255 255
255 255 255 255 255 255 255 255 255 255 255 255 255 255 255 224 178 145 122 110 117 161 185 185 188 186 192 193 195 195 198 196 195 199 195 197 199 196 195 194 198 197 197 196 196 202 201 196 199 201 197 193 192 194 194 192 192 190 189 192 190 190 187 184 186 176 176 177 173 165 162 140 139 153 174 200 222 250 255 255 255 255 255 255 255 255 255 255 255 255 255 255 255 255 255 255
255 255 255 255 255 255 255 255 255 255 255 255 255 255 255 225 184 140 123 106 123 159 179 183 189 191 192 197 196 194 194 198 194 201 197 196 202 201 201 196 198 203 195 200 198 195 192 194 199 195 193 194 194 190 194 192 192 191 186 189 190 190 188 185 185 183 178 182 177 167 165 152 140 144 163 189 208 239 255 255 255 255 255 255 255 255 255 255 255 255 255 255 255 255 255 255
255 255 255 255 255 255 255 255 255 255 255 255 255 255 255 226 179 150 127 110 110 150 173 183 190 190 193 196 194 197 195 199 198 199 199 199 200 200 194 198 198 198 200 195 201 198 195 199 192 197 194 193 193 192 194 197 196 194 199 191 191 192 191 187 183 186 182 177 175 176 166 160 144 137 154 170 194 227 251 255 255 255 255 255 255 255 255 255 255 255 255 255 255 255 255 255
255 255 255 255 255 255 255 255 255 255 255 255 255 255 255 234 182 152 125 112 110 150 178 181 186 187 192 190 200 195 197 194 196 193 202 199 202 197 201 200 195 194 195 196 198 195 191 195 198 196 194 193 197 193 194 192 195 194 196 192 188 190 185 188 186 188 188 186 177 175 173 165 153 135 146 165 183 214 239 255 255 255 255 255 255 255 255 255 255 255 255 255 255 255 255 255
255 255 255 255 255 255 255 255 255 255 255 255 255 255 255 238 186 155 125 117 118 148 178 186 182 190 193 193 195 198 195 198 196 196 196 194 199 198 198 199 199 201 199 196 196 203 202 196 198 195 196 196 193 192 191 194 191 192 185 193 191 187 192 189 190 185 178 181 179 178 172 166 156 147 139 157 179 205 230 253 255 255 255 255 255 255 255 255 255 255 255 255 255 255 255 255
255 255 255 255 255 255 255 255 255 255 255 255 255 255 255 243 193 151 134 116 111 143 173 177 186 187 185 196 196 195 194 197 198 196 199 195 198 202 194 201 199 202 197 194 198 198 198 197 196 193 198 196 194 193 193 195 192 191 195 190 195 191 194 188 189 186 187 188 176 180 173 169 162 154 144 151 168 193 220 247 255 255 255 255 255 255 255 255 255 255 255 255 255 255 255 255
255 255 255 255 255 255 255 255 255 255 255 255 255 255 255 247 201 166 131 116 107 131 174 184 182 193 192 192 193 195 199 199 198 195 193 197 201 199 200 201 200 198 196 197 200 202 195 197 193 194 197 197 191 194 191 195 195 193 195 191 189 187 189 193 191 188 185 185 188 174 176 169 165 160 147 140 162 181 210 236 255 255 255 255 255 255 255 255 255 255 255 255 255 255 255 255
255 255 255 255 255 255 255 255 255 255 255 255 255 255 255 252 209 163 141 116 103 120 168 179 184 193 191 189 197 195 196 193 191 201 198 201 202 200 199 200 195 196 201 200 200 196 200 200 195 196 197 192 194 191 197 196 191 193 191 197 195 197 194 190 190 188 186 189 183 182 180 179 171 163 149 143 155 170 201 227 253 255 255 255 255 255 255 255 255 255 255 255 255 255 255 255
255 255 255 255 255 255 255 255 255 255 255 255 255 255 255 254 212 166 140 115 115 119 163 179 181 186 190 195 192 193 196 195 196 195 195 197 193 197 197 198 196 197 197 197 200 201 200 193 192 197 195 199 200 196 194 194 191 190 197 193 194 191 191 195 192 194 186 190 181 180 177 174 172 165 161 143 151 165 190 219 246 255 255 255 255 255 255 255 255 255 255 255 255 255 255 255
255 255 255 255 255 255 255 255 255 255 255 255 255 255 255 255 224 186 142 124 114 119 156 179 178 188 185 194 193 193 199 196 197 200 198 197 201 199 194 198 199 198 197 198 198 197 203 202 201 197 198 196 194 195 195 195 197 194 195 193 194 195 194 188 191 181 184 190 184 180 186 179 170 170 160 148 147 162 190 211 238 255 255 255 255 255 255 255 255 255 255 255 255 255 255 255
255 255 255 255 255 255 255 255 255 255 255 255 255 255 255 255 241 190 148 132 115 113 151 175 178 183 192 190 195 190 196 194 196 196 201 193 198 199 196 199 195 199 200 196 198 196 193 201 198 199 196 198 197 195 196 197 198 192 196 197 195 193 192 193 185 187 184 185 191 183 183 178 173 167 158 148 146 159 176 205 234 253 255 255 255 255 255 255 255 255 255 255 255 255 255 255
255 255 255 255 255 255 255 255 255 255 255 255 255 255 255 255 248 199 160 137 119 118 127 168 174 181 187 194 196 195 196 193 199 196 194 198 193 198 195 199 194 198 197 199 199 192 199 198 196 196 197 194 198 195 197 195 195 194 193 193 194 195 194 194 191 190 194 191 185 188 182 182 175 176 163 153 149 157 167 198 224 250 255 255 255 255 255 255 255 255 255 255 255 255 255 255
255 255 255 255 255 255 255 255 255 255 255 255 255 255 255 255 253 212 170 138 126 109 120 162 178 177 183 190 189 191 202 197 195 195 198 200 193 195 196 200 198 194 199 202 196 193 196 201 194 195 197 201 198 198 196 194 197 196 193 197 188 192 194 189 195 195 187 192 186 182 187 181 181 172 163 165 148 151 171 194 221 245 255 255 255 255 255 255 255 255 255 255 255 255 255 255
255 255 255 255 255 255 255 255 255 255 255 255 255 255 255 255 255 229 184 149 130 107 116 139 167 180 185 187 192 188 195 190 194 194 195 197 194 198 202 200 201 197 201 198 199 197 193 198 198 199 195 198 203 194 199 197 197 198 195 195 198 196 196 193 188 192 193 191 190 189 184 179 183 174 172 167 151 150 169 187 220 241 255 255 255 255 255 255 255 255 255 255 255 255 255 255
255 255 255 255 255 255 255 255 255 255 255 255 255 255 255 255 255 245 198 162 133 115 109 128 166 177 183 185 191 189 195 192 198 199 195 201 193 198 197 197 196 195 198 197 194 198 196 197 201 200 198 195 198 200 198 199 191 196 197 195 197 193 194 188 189 193 193 192 191 185 184 184 176 177 180 166 151 151 163 183 213 239 254 255 255 255 255 255 255 255 255 255 255 255 255 255
255 255 255 255 255 255 255 255 255 255 255 255 255 255 255 255 255 253 212 171 150 121 116 117 153 175 184 184 195 192 193 193 192 203 195 198 196 194 196 197 196 198 199 199 197 199 203 199 195 198 199 195 199 195 196 194 195 195 199 199 195 197 194 199 190 191 190 190 191 194 183 186 182 180 174 170 154 148 159 180 207 233 253 255 255 255 255 255 255 255 255 255 255 255 255 255
255 255 255 255 255 255 255 255 255 255 255 255 255 255 255 255 255 255 231 184 153 133 117 113 139 168 175 183 189 188 192 190 196 194 197 198 197 196 199 201 200 198 196 195 197 198 196 199 199 199 199 197 197 196 197 196 201 195 195 196 200 197 196 199 191 190 190 192 192 188 190 184 180 180 183 172 157 151 157 184 200 229 252 255 255 255 255 255 255 255 255 255 255 255 255 255
255 255 255 255 255 255 255 255 255 255 255 255 255 255 255 255 255 255 247 199 167 140 122 111 122 158 174 178 191 188 189 190 194 192 197 195 199 199 194 195 198 193 202 197 199 196 202 202 200 196 198 197 198 197 195 197 194 195 196 198 197 195 194 197 192 196 194 189 191 187 191 186 182 183 173 167 166 161 153 174 200 227 248 255 255 255 255 255 255 255 255 255 255 255 255 255
255 255 255 255 255 255 255 255 255 255 255 255 255 255 255 255 255 255 254 221 177 152 130 109 107 140 171 180 187 187 191 192 196 194 199 200 196 198 197 200 196 198 199 198 198 196 203 201 198 201 193 202 196 199 196 193 194 198 197 197 196 199 190 197 197 194 187 192 191 193 192 188 190 177 180 175 169 158 160 178 198 222 247 255 255 255 255 255 255 255 255 255 255 255 255 255
255 255 255 255 255 255 255 255 255 255 255 255 255 255 255 255 255 255 255 243 191 162 134 119 117 125 160 171 179 186 193 184 196 194 192 197 193 198 194 194 197 199 201 200 196 198 201 199 196 201 200 197 201 193 197 196 195 198 196 200 192 193 199 194 196 194 197 191 190 187 192 186 185 181 177 173 162 149 160 177 199 222 246 255 255 255 255 255 255 255 255 255 255 255 255 255
255 255 255 255 255 255 255 255 255 255 255 255 255 255 255 255 255 255 255 254 218 179 147 132 110 117 137 169 180 182 189 191 194 193 191 193 195 192 195 199 191 195 196 200 195 194 195 201 199 201 195 198 195 197 198 195 200 199 195 194 198 198 197 193 198 196 192 192 186 191 188 194 186 184 182 169 165 155 159 173 195 219 246 255 255 255 255 255 255 255 255 255 255 255 255 255
255 255 255 255 255 255 255 255 255 255 255 255 255 255 255 255 255 255 255 255 241 199 164 143 118 118 118 152 175 175 185 189 186 190 191 197 198 198 199 198 197 200 196 194 197 199 198 200 201 198 202 199 199 194 197 198 195 199 200 198 199 197 197 197 194 192 195 194 190 191 189 187 185 186 177 177 160 159 157 172 191 221 245 255 255 255 255 255 255 255 255 255 255 255 255 255
255 255 255 255 255 255 255 255 255 255 255 255 255 255 255 255 255 255 255 255 253 222 182 153 124 114 110 132 165 176 181 188 189 191 191 191 197 194 197 197 195 198 198 197 199 199 195 197 197 200 197 197 198 198 196 197 198 197 199 193 198 197 196 194 192 193 191 192 193 190 188 188 182 184 178 175 170 158 160 175 196 223 245 255 255 255 255 255 255 255 255 255 255 255 255 255
255 255 255 255 255 255 255 255 255 255 255 255 255 255 255 255 255 255 255 255 255 244 204 165 143 128 113 108 139 167 178 184 190 190 189 189 194 194 192 198 197 201 199 194 201 198 193 194 198 198 201 198 196 199 201 198 198 199 198 201 196 198 193 196 191 196 195 194 192 192 189 191 188 181 176 173 164 158 157 175 196 223 247 255 255 255 255 255 255 255 255 255 255 255 255 255
255 255 255 255 255 255 255 255 255 255 255 255 255 255 255 255 255 255 255 255 255 255 228 184 153 136 116 110 119 153 172 182 182 187 190 195 194 192 194 194 193 198 198 201 197 194 197 196 196 196 200 196 195 194 197 201 195 196 196 197 198 199 199 193 198 194 196 194 195 190 186 187 185 184 180 174 160 158 158 179 196 224 246 255 255 255 255 255 255 255 255 255 255 255 255 255
255 255 255 255 255 255 255 255 255 255 255 255 255 255 255 255 255 255 255 255 255 255 251 212 177 150 130 109 114 126 161 177 184 186 183 193 186 189 194 195 190 193 201 197 197 203 196 200 198 194 199 198 197 198 201 195 197 194 198 198 197 195 198 197 195 193 192 192 190 194 190 187 185 184 178 176 167 161 162 178 199 225 247 255 255 255 255 255 255 255 255 255 255 255 255 255
255 255 255 255 255 255 255 255 255 255 255 255 255 255 255 255 255 255 255 255 255 255 255 240 196 167 141 126 110 117 130 166 175 182 184 190 190 196 194 193 197 200 198 194 196 200 196 195 196 202 196 199 197 194 198 200 197 198 195 202 196 200 200 202 193 194 193 194 194 190 189 191 183 182 176 173 170 156 161 184 202 226 249 255 255 255 255 255 255 255 255 255 255 255 255 255
255 255 255 255 255 255 255 255 255 255 255 255 255 255 255 255 255 255 255 255 255 255 255 255 228 182 156 137 119 105 115 129 163 174 182 180 187 187 190 197 197 193 197 193 197 200 196 201 194 196 201 195 200 199 195 197 197 195 199 197 200 197 194 193 193 190 194 193 189 189 196 187 189 183 178 175 171 158 155 181 207 230 251 255 255 255 255 255 255 255 255 255 255 255 255 255
255 255 255 255 255 255 255 255 255 255 255 255 255 255 255 255 255 255 255 255 255 255 255 255 251 218 181 157 140 116 116 120 134 169 174 179 186 188 190 191 191 193 195 196 192 196 195 198 194 199 193 199 195 193 200 198 197 201 196 196 193 197 193 195 188 192 195 190 194 189 188 186 180 180 179 168 171 156 169 181 216 234 252 255 255 255 255 255 255 255 255 255 255 255 255 255
255 255 255 255 255 255 255 255 255 255 255 255 255 255 255 255 255 255 255 255 255 255 255 255 255 247 204 175 151 129 118 117 120 138 165 177 183 186 184 188 189 193 191 195 193 194 193 194 197 195 197 200 196 196 196 194 196 193 199 196 192 193 192 195 195 196 193 194 191 194 192 188 184 177 179 178 168 159 168 185 214 237 253 255 255 255 255 255 255 255 255 255 255 255 255 255
255 255 255 255 255 255 255 255 255 255 255 255 255 255 255 255 255 255 255 255 255 255 255 255 255 255 241 199 176 145 130 117 116 119 130 165 173 184 186 184 190 193 186 194 190 193 198 193 193 195 199 198 198 194 199 197 199 196 197 197 197 194 196 195 197 192 194 195 190 191 186 188 178 178 176 176 160 156 178 198 216 242 255 255 255 255 255 255 255 255 255 255 255 255 255 255
255 255 255 255 255 255 255 255 255 255 255 255 255 255 255 255 255 255 255 255 255 255 255 255 255 255 255 238 195 174 144 130 114 112 115 135 164 173 179 182 183 189 185 193 192 195 191 194 189 195 196 197 191 194 194 194 200 193 195 197 194 194 197 190 189 194 195 189 190 189 188 193 186 182 171 163 153 160 178 194 223 245 255 255 255 255 255 255 255 255 255 255 255 255 255 255
255 255 255 255 255 255 255 255 255 255 255 255 255 255 255 255 255 255 255 255 255 255 255 255 255 255 255 254 234 196 170 146 128 119 116 115 130 157 173 183 184 181 186 188 186 192 188 193 189 189 198 195 195 195 194 195 195 195 194 197 196 192 190 194 194 192 188 190 189 185 181 184 181 176 172 161 154 162 180 204 230 249 255 255 255 255 255 255 255 255 255 255 255 255 255 255
255 255 255 255 255 255 255 255 255 255 255 255 255 255 255 255 255 255 255 255 255 255 255 255 255 255 255 255 254 236 202 166 150 132 123 112 114 131 145 167 174 184 186 184 183 190 190 191 193 196 196 195 197 192 193 191 192 194 192 198 195 194 192 188 195 189 190 186 187 182 182 184 176 173 168 160 155 169 189 213 235 253 255 255 255 255 255 255 255 255 255 255 255 255 255 255
255 255 255 255 255 255 255 255 255 255 255 255 255 255 255 255 255 255 255 255 255 255 255 255 255 255 255 255 255 255 236 201 176 149 130 126 117 112 115 128 160 174 176 177 184 187 179 192 182 194 192 188 195 193 190 194 192 192 189 195 188 191 191 192 189 187 190 185 186 185 179 183 177 173 165 158 157 173 196 221 242 255 255 255 255 255 255 255 255 255 255 255 255 255 255 255
255 255 255 255 255 255 255 255 255 255 255 255 255 255 255 255 255 255 255 255 255 255 255 255 255 255 255 255 255 255 255 239 209 181 157 140 133 115 111 116 115 137 162 179 181 181 182 187 182 184 187 188 189 191 189 190 192 191 193 192 193 187 193 187 188 188 188 191 181 178 185 181 179 173 158 155 164 184 202 230 249 255 255 255 255 255 255 255 255 255 255 255 255 255 255 255
255 255 255 255 255 255 255 255 255 255 255 255 255 255 255 255 255 255 255 255 255 255 255 255 255 255 255 255 255 255 255 255 244 211 181 162 147 131 124 108 105 113 126 142 160 175 180 182 179 185 186 189 188 184 189 189 187 192 189 189 188 181 194 188 187 188 180 187 179 178 180 176 170 157 153 161 167 189 216 237 253 255 255 255 255 255 255 255 255 255 255 255 255 255 255 255
255 255 255 255 255 255 255 255 255 255 255 255 255 255 255 255 255 255 255 255 255 255 255 255 255 255 255 255 255 255 255 255 255 250 225 194 169 152 138 127 117 110 110 115 127 139 163 178 178 180 181 181 183 184 186 183 190 182 186 187 185 185 187 185 182 178 179 181 177 177 169 165 162 149 147 163 180 200 224 246 255 255 255 255 255 255 255 255 255 255 255 255 255 255 255 255
255 255 255 255 255 255 255 255 255 255 255 255 255 255 255 255 255 255 255 255 255 255 255 255 255 255 255 255 255 255 255 255 255 255 254 234 206 184 157 147 130 121 116 113 114 112 127 138 155 166 173 177 179 179 186 179 185 184 176 185 178 182 181 178 183 182 180 177 171 176 166 158 144 143 156 172 192 214 235 253 255 255 255 255 255 255 255 255 255 255 255 255 255 255 255 255
255 255 255 255 255 255 255 255 255 255 255 255 255 255 255 255 255 255 255 255 255 255 255 255 255 255 255 255 255 255 255 255 255 255 255 255 249 223 194 177 154 141 132 115 116 108 108 112 118 124 134 150 163 175 172 175 178 174 175 179 179 172 177 178 172 169 169 163 165 162 149 140 140 143 165 181 202 232 247 255 255 255 255 255 255 255 255 255 255 255 255 255 255 255 255 255
255 255 255 255 255 255 255 255 255 255 255 255 255 255 255 255 255 255 255 255 255 255 255 255 255 255 255 255 255 255 255 255 255 255 255 255 255 254 237 209 190 168 157 144 133 121 119 116 110 103 122 120 129 128 143 158 154 161 173 169 174 164 167 170 172 162 154 154 137 133 121 127 136 159 175 197 217 241 254 255 255 255 255 255 255 255 255 255 255 255 255 255 255 255 255 255
255 255 255 255 255 255 255 255 255 255 255 255 255 255 255 255 255 255 255 255 255 255 255 255 255 255 255 255 255 255 255 255 255 255 255 255 255 255 255 250 231 206 187 173 156 150 139 129 123 111 110 112 112 114 114 117 123 123 129 133 129 133 129 142 131 121 123 105 106 112 121 132 149 170 194 214 235 253 255 255 255 255 255 255 255 255 255 255 255 255 255 255 255 255 255 255
255 255 255 255 255 255 255 255 255 255 255 255 255 255 255 255 255 255 255 255 255 255 255 255 255 255 255 255 255 255 255 255 255 255 255 255 255 255 255 255 255 250 235 209 191 174 158 143 142 131 127 122 117 117 111 107 104 107 114 109 117 109 104 104 107 110 106 101 107 117 133 149 170 186 209 232 248 255 255 255 255 255 255 255 255 255 255 255 255 255 255 255 255 255 255 255
255 255 255 255 255 255 255 255 255 255 255 255 255 255 255 255 255 255 255 255 255 255 255 255 255 255 255 255 255 255 255 255 255 255 255 255 255 255 255 255 255 255 255 250 236 217 200 182 172 158 151 142 137 134 124 121 111 120 118 114 106 114 107 110 115 113 114 117 122 137 148 166 191 214 230 251 255 255 255 255 255 255 255 255 255 255 255 255 255 255 255 255 255 255 255 255
255 255 255 255 255 255 255 255 255 255 255 255 255 255 255 255 255 255 255 255 255 255 255 255 255 255 255 255 255 255 255 255 255 255 255 255 255 255 255 255 255 255 255 255 255 253 244 227 212 194 181 174 159 158 152 144 142 132 136 136 131 122 126 118 122 128 132 146 154 159 171 198 218 237 252 255 255 255 255 255 255 255 255 255 255 255 255 255 255 255 255 255 255 255 255 255
255 255 255 255 255 255 255 255 255 255 255 255 255 255 255 255 255 255 255 255 255 255 255 255 255 255 255 255 255 255 255 255 255 255 255 255 255 255 255 255 255 255 255 255 255 255 255 255 253 242 232 214 202 193 186 176 171 163 161 159 154 160 157 152 158 164 160 172 178 196 208 230 247 254 255 255 255 255 255 255 255 255 255 255 255 255 255 255 255 255 255 255 255 255 255 255
255 255 255 255 255 255 255 255 255 255 255 255 255 255 255 255 255 255 255 255 255 255 255 255 255 255 255 255 255 255 255 255 255 255 255 255 255 255 255 255 255 255 255 255 255 255 255 255 255 255 255 254 248 243 231 222 216 209 204 192 194 193 195 193 198 200 201 212 225 237 248 254 255 255 255 255 255 255 255 255 255 255 255 255 255 255 255 255 255 255 255 255 255 255 255 255
255 255 255 255 255 255 255 255 255 255 255 255 255 255 255 255 255 255 255 255 255 255 255 255 255 255 255 255 255 255 255 255 255 255 255 255 255 255 255 255 255 255 255 255 255 255 255 255 255 255 255 255 255 255 255 255 254 252 249 247 246 244 241 241 245 246 252 254 255 255 255 255 255 255 255 255 255 255 255 255 255 255 255 255 255 255 255 255 255 255 255 255 255 255 255 255
255 255 255 255 255 255 255 255 255 255 255 255 255 255 255 255 255 255 255 255 255 255 255 255 255 255 255 255 255 255 255 255 255 255 255 255 255 255 255 255 255 255 255 255 255 255 255 255 255 255 255 255 255 255 255 255 255 255 255 255 255 255 255 255 255 255 255 255 255 255 255 255 255 255 255 255 255 255 255 255 255 255 255 255 255 255 255 255 255 255 255 255 255 255 255 255
255 255 255 255 255 255 255 255 255 255 255 255 255 255 255 255 255 255 255 255 255 255 255 255 255 255 255 255 255 255 255 255 255 255 255 255 255 255 255 255 255 255 255 255 255 255 255 255 255 255 255 255 255 255 255 255 255 255 255 255 255 255 255 255 255 255 255 255 255 255 255 255 255 255 255 255 255 255 255 255 255 255 255 255 255 255 255 255 255 255 255 255 255 255 255 255
255 255 255 255 255 255 255 255 255 255 255 255 255 255 255 255 255 255 255 255 255 255 255 255 255 255 255 255 255 255 255 255 255 255 255 255 255 255 255 255 255 255 255 255 255 255 255 255 255 255 255 255 255 255 255 255 255 255 255 255 255 255 255 255 255 255 255 255 255 255 255 255 255 255 255 255 255 255 255 255 255 255 255 255 255 255 255 255 255 255 255 255 255 255 255 255
255 255 255 255 255 255 255 255 255 255 255 255 255 255 255 255 255 255 255 255 255 255 255 255 255 255 255 255 255 255 255 255 255 255 255 255 255 255 255 255 255 255 255 255 255 255 255 255 255 255 255 255 255 255 255 255 255 255 255 255 255 255 255 255 255 255 255 255 255 255 255 255 255 255 255 255 255 255 255 255 255 255 255 255 255 255 255 255 255 255 255 255 255 255 255 255
255 255 255 255 255 255 255 255 255 255 255 255 255 255 255 255 255 255 255 255 255 255 255 255 255 255 255 255 255 255 255 255 255 255 255 255 255 255 255 255 255 255 255 255 255 255 255 255 255 255 255 255 255 255 255 255 255 255 255 255 255 255 255 255 255 255 255 255 255 255 255 255 255 255 255 255 255 255 255 255 255 255 255 255 255 255 255 255 255 255 255 255 255 255 255 255
255 255 255 255 255 255 255 255 255 255 255 255 255 255 255 255 255 255 255 255 255 255 255 255 255 255 255 255 255 255 255 255 255 255 255 255 255 255 255 255 255 255 255 255 255 255 255 255 255 255 255 255 255 255 255 255 255 255 255 255 255 255 255 255 255 255 255 255 255 255 255 255 255 255 255 255 255 255 255 255 255 255 255 255 255 255 255 255 255 255 255 255 255 255 255 255
255 255 255 255 255 255 255 255 255 255 255 255 255 255 255 255 255 255 255 255 255 255 255 255 255 255 255 255 255 255 255 255 255 255 255 255 255 255 255 255 255 255 255 255 255 255 255 255 255 255 255 255 255 255 255 255 255 255 255 255 255 255 255 255 255 255 255 255 255 255 255 255 255 255 255 255 255 255 255 255 255 255 255 255 255 255 255 255 255 255 255 255 255 255 255 255
255 255 255 255 255 255 255 255 255 255 255 255 255 255 255 255 255 255 255 255 255 255 255 255 255 255 255 255 255 255 255 255 255 255 255 255 255 255 255 255 255 255 255 255 255 255 255 255 255 255 255 255 255 255 255 255 255 255 255 255 255 255 255 255 255 255 255 255 255 255 255 255 255 255 255 255 255 255 255 255 255 255 255 255 255 255 255 255 255 255 255 255 255 255 255 255
255 255 255 255 255 255 255 255 255 255 255 255 255 255 255 255 255 255 255 255 255 255 255 255 255 255 255 255 255 255 255 255 255 255 255 255 255 255 255 255 255 255 255 255 255 255 255 255 255 255 255 255 255 255 255 255 255 255 255 255 255 255 255 255 255 255 255 255 255 255 255 255 255 255 255 255 255 255 255 255 255 255 255 255 255 255 255 255 255 255 255 255 255 255 255 255
255 255 255 255 255 255 255 255 255 255 255 255 255 255 255 255 255 255 255 255 255 255 255 255 255 255 255 255 255 255 255 255 255 255 255 255 255 255 255 255 255 255 255 255 255 255 255 255 255 255 255 255 255 255 255 255 255 255 255 255 255 255 255 255 255 255 255 255 255 255 255 255 255 255 255 255 255 255 255 255 255 255 255 255 255 255 255 255 255 255 255 255 255 255 255 255
