P2
109 109
255
255 255 255 255 255 255 255 255 255 255 255 255 255 255 255 255 255 255 255 255 255 255 255 255 255 255 255 255 255 255 255 255 255 255 255 255 255 255 255 255 255 255 255 255 255 255 255 255 255 255 255 255 255 255 255 255 255 255 255 255 255 255 255 255 255 255 255 255 255 255 255 255 255 255 255 255 255 255 255 255 255 255 255 255 255 255 255 255 255 255 255 255 255 255 255 255 255 255 255 255 255 255 255 255 255 255 255 255 255
255 255 255 255 255 255 255 255 255 255 255 255 255 255 255 255 255 255 255 255 255 255 255 255 255 255 255 255 255 255 255 255 255 255 255 255 255 255 255 255 255 255 255 255 255 255 255 255 255 255 255 255 255 255 255 255 255 255 255 255 255 255 255 255 255 255 255 255 255 255 255 255 255 255 255 255 255 255 255 255 255 255 255 255 255 255 255 255 255 255 255 255 255 255 255 255 255 255 255 255 255 255 255 255 255 255 255 255 255
255 255 255 255 255 255 255 255 255 255 255 255 255 255 255 255 255 255 255 255 255 255 255 255 255 255 255 255 255 255 255 255 255 255 255 255 255 255 255 255 255 255 255 255 255 255 255 255 255 255 255 255 255 255 255 255 255 255 255 255 255 255 255 255 255 255 255 255 255 255 255 255 255 255 255 255 255 255 255 255 255 255 255 255 255 255 255 255 255 255 255 255 255 255 255 255 255 255 255 255 255 255 255 255 255 255 255 255 255
255 255 255 255 255 255 255 255 255 255 255 255 255 255 255 255 255 255 255 255 255 255 255 255 255 255 255 255 255 255 255 255 255 255 255 255 255 255 255 255 255 255 255 255 255 255 255 255 255 255 255 255 255 255 255 255 255 255 255 255 255 255 255 255 255 255 255 255 255 255 255 255 255 255 255 255 255 255 255 255 255 255 255 255 255 255 255 255 255 255 255 255 255 255 255 255 255 255 255 255 255 255 255 255 255 255 255 255 255
255 255 255 255 255 255 255 255 255 255 255 255 255 255 255 255 255 255 255 255 255 255 255 255 255 255 255 255 255 255 255 255 255 255 255 255 255 255 255 255 255 255 255 255 255 255 255 255 255 255 255 255 255 255 255 255 255 255 255 255 255 255 255 255 255 255 255 255 255 255 255 255 255 255 255 255 255 255 255 255 255 255 255 255 255 255 255 255 255 255 255 255 255 255 255 255 255 255 255 255 255 255 255 255 255 255 255 255 255
255 255 255 255 255 255 255 255 255 255 255 255 255 255 255 255 255 255 255 255 255 255 255 255 255 255 255 255 255 255 255 255 255 255 255 255 255 255 255 255 255 255 255 255 255 255 255 255 255 255 255 255 255 255 255 255 255 255 255 255 255 255 255 255 255 255 255 255 255 255 255 255 255 255 255 255 255 255 255 255 255 255 255 255 255 255 255 255 255 255 255 255 255 255 255 255 255 255 255 255 255 255 255 255 255 255 255 255 255
255 255 255 255 255 255 255 255 255 255 255 255 255 255 255 255 255 255 255 255 255 255 255 255 255 255 255 255 255 255 255 255 255 255 255 255 255 255 255 254 252 250 250 248 248 246 246 246 247 250 251 253 254 255 255 255 255 255 255 255 255 255 255 255 255 255 255 255 255 255 255 255 255 255 255 255 255 255 255 255 255 255 255 255 255 255 255 255 255 255 255 255 255 255 255 255 255 255 255 255 255 255 255 255 255 255 255 255 255
255 255 255 255 255 255 255 255 255 255 255 255 255 255 255 255 255 255 255 255 255 255 255 255 255 255 255 255 255 255 255 255 255 255 255 254 252 248 244 241 235 235 233 227 227 226 223 224 226 230 232 237 239 245 249 252 254 255 255 255 255 255 255 255 255 255 255 255 255 255 255 255 255 255 255 255 255 255 255 255 255 255 255 255 255 255 255 255 255 255 255 255 255 255 255 255 255 255 255 255 255 255 255 255 255 255 255 255 255
255 255 255 255 255 255 255 255 255 255 255 255 255 255 255 255 255 255 255 255 255 255 255 255 255 255 255 255 255 255 255 255 255 253 248 243 236 232 225 219 215 216 211 210 208 210 203 208 206 205 212 210 221 224 229 233 240 246 251 254 255 255 255 255 255 255 255 255 255 255 255 255 255 255 255 255 255 255 255 255 255 255 255 255 255 255 255 255 255 255 255 255 255 255 255 255 255 255 255 255 255 255 255 255 255 255 255 255 255
255 255 255 255 255 255 255 255 255 255 255 255 255 255 255 255 255 255 255 255 255 255 255 255 255 255 255 255 255 255 255 251 245 239 229 223 218 210 205 206 198 198 201 194 194 193 194 194 189 192 197 195 197 200 205 208 218 225 231 237 247 254 255 255 255 255 255 255 255 255 255 255 255 255 255 255 255 255 255 255 255 255 255 255 255 255 255 255 255 255 255 255 255 255 255 255 255 255 255 255 255 255 255 255 255 255 255 255 255
255 255 255 255 255 255 255 255 255 255 255 255 255 255 255 255 255 255 255 255 255 255 255 255 255 255 255 255 255 253 244 238 230 222 212 205 199 198 193 195 194 194 191 193 195 195 194 199 189 195 185 194 188 189 196 196 198 204 210 220 226 234 243 251 254 255 255 255 255 255 255 255 255 255 255 255 255 255 255 255 255 255 255 255 255 255 255 255 255 255 255 255 255 255 255 255 255 255 255 255 255 255 255 255 255 255 255 255 255
255 255 255 255 255 255 255 255 255 255 255 255 255 255 255 255 255 255 255 255 255 255 255 255 255 255 255 254 250 237 228 217 208 202 195 194 193 194 193 203 198 200 199 203 202 204 201 198 204 201 200 200 194 196 190 188 189 188 196 197 204 211 221 231 243 251 255 255 255 255 255 255 255 255 255 255 255 255 255 255 255 255 255 255 255 255 255 255 255 255 255 255 255 255 255 255 255 255 255 255 255 255 255 255 255 255 255 255 255
255 255 255 255 255 255 255 255 255 255 255 255 255 255 255 255 255 255 255 255 255 255 255 255 255 255 253 246 234 223 209 203 196 193 196 192 200 204 207 205 207 209 205 205 208 208 204 207 208 209 205 207 206 202 199 199 197 194 191 189 188 194 202 210 225 234 243 251 255 255 255 255 255 255 255 255 255 255 255 255 255 255 255 255 255 255 255 255 255 255 255 255 255 255 255 255 255 255 255 255 255 255 255 255 255 255 255 255 255
255 255 255 255 255 255 255 255 255 255 255 255 255 255 255 255 255 255 255 255 255 255 255 255 255 253 241 227 212 206 198 198 191 197 199 203 200 205 210 208 210 211 208 210 209 206 207 208 208 210 210 204 210 206 207 204 200 202 196 192 186 186 184 194 196 214 219 234 244 254 255 255 255 255 255 255 255 255 255 255 255 255 255 255 255 255 255 255 255 255 255 255 255 255 255 255 255 255 255 255 255 255 255 255 255 255 255 255 255
255 255 255 255 255 255 255 255 255 255 255 255 255 255 255 255 255 255 255 255 255 255 255 255 252 240 227 210 202 198 189 197 197 203 209 209 209 206 209 207 215 208 215 213 212 211 213 214 212 214 211 212 212 210 210 210 205 202 202 199 194 193 191 187 186 190 198 212 224 235 249 255 255 255 255 255 255 255 255 255 255 255 255 255 255 255 255 255 255 255 255 255 255 255 255 255 255 255 255 255 255 255 255 255 255 255 255 255 255
255 255 255 255 255 255 255 255 255 255 255 255 255 255 255 255 255 255 255 255 255 255 255 252 241 221 209 196 194 191 196 201 208 207 207 210 206 208 214 210 211 213 213 212 215 213 213 216 212 214 213 212 213 213 212 209 208 211 205 205 206 204 200 195 189 185 190 191 202 216 230 243 252 255 255 255 255 255 255 255 255 255 255 255 255 255 255 255 255 255 255 255 255 255 255 255 255 255 255 255 255 255 255 255 255 255 255 255 255
255 255 255 255 255 255 255 255 255 255 255 255 255 255 255 255 255 255 255 255 255 255 253 241 224 207 197 188 187 196 200 205 209 209 209 211 214 211 214 215 213 213 216 214 216 215 214 214 218 214 216 216 216 215 213 212 216 214 207 210 206 207 206 202 202 193 188 188 187 197 205 219 236 251 255 255 255 255 255 255 255 255 255 255 255 255 255 255 255 255 255 255 255 255 255 255 255 255 255 255 255 255 255 255 255 255 255 255 255
255 255 255 255 255 255 255 255 255 255 255 255 255 255 255 255 255 255 255 255 255 254 243 225 210 200 182 184 194 202 205 210 210 210 216 214 217 215 210 215 216 218 218 217 215 218 216 213 218 214 213 214 214 213 215 211 210 214 210 209 211 209 203 205 200 197 196 191 185 184 189 202 214 231 245 254 255 255 255 255 255 255 255 255 255 255 255 255 255 255 255 255 255 255 255 255 255 255 255 255 255 255 255 255 255 255 255 255 255
255 255 255 255 255 255 255 255 255 255 255 255 255 255 255 255 255 255 255 255 255 249 230 214 199 187 184 196 198 207 210 210 212 215 215 217 215 213 219 215 215 218 217 218 220 217 220 216 220 215 217 215 217 214 215 214 215 214 212 210 214 212 209 209 207 205 204 199 196 188 184 184 199 210 226 243 253 255 255 255 255 255 255 255 255 255 255 255 255 255 255 255 255 255 255 255 255 255 255 255 255 255 255 255 255 255 255 255 255
255 255 255 255 255 255 255 255 255 255 255 255 255 255 255 255 255 255 255 255 252 235 215 200 191 185 192 201 208 209 209 213 212 218 214 217 217 216 218 213 217 216 219 219 217 220 219 217 218 216 220 214 216 215 215 215 214 216 215 217 212 212 209 210 210 205 210 201 201 196 187 181 180 195 203 221 240 252 255 255 255 255 255 255 255 255 255 255 255 255 255 255 255 255 255 255 255 255 255 255 255 255 255 255 255 255 255 255 255
255 255 255 255 255 255 255 255 255 255 255 255 255 255 255 255 255 255 255 254 243 219 200 189 182 189 201 203 209 210 212 215 215 213 215 217 219 218 220 218 221 217 219 218 216 217 219 222 217 218 215 214 217 218 217 213 218 213 213 214 218 214 210 209 211 210 207 204 202 204 200 194 185 182 187 200 219 235 251 255 255 255 255 255 255 255 255 255 255 255 255 255 255 255 255 255 255 255 255 255 255 255 255 255 255 255 255 255 255
255 255 255 255 255 255 255 255 255 255 255 255 255 255 255 255 255 255 255 249 228 207 191 182 185 198 207 208 210 213 215 215 215 217 218 215 222 218 215 219 220 220 221 215 223 218 221 218 217 219 216 218 219 215 217 219 219 221 214 217 216 216 213 211 214 212 210 208 208 208 200 196 190 187 179 185 198 214 233 250 255 255 255 255 255 255 255 255 255 255 255 255 255 255 255 255 255 255 255 255 255 255 255 255 255 255 255 255 255
255 255 255 255 255 255 255 255 255 255 255 255 255 255 255 255 255 255 254 237 216 197 187 185 191 206 208 209 210 212 218 214 218 217 216 216 218 217 219 219 220 219 220 222 217 219 220 221 220 221 217 219 217 218 221 216 216 215 217 219 216 215 215 217 213 212 209 211 206 207 207 206 199 200 189 181 188 195 211 230 249 255 255 255 255 255 255 255 255 255 255 255 255 255 255 255 255 255 255 255 255 255 255 255 255 255 255 255 255
255 255 255 255 255 255 255 255 255 255 255 255 255 255 255 255 255 255 249 221 203 183 175 185 193 204 208 211 210 214 210 215 216 222 218 220 221 219 220 223 219 221 218 224 219 219 220 222 216 219 219 224 219 216 220 219 217 217 217 218 217 214 214 216 215 214 215 212 212 212 209 211 202 200 196 186 179 184 195 212 232 251 255 255 255 255 255 255 255 255 255 255 255 255 255 255 255 255 255 255 255 255 255 255 255 255 255 255 255
255 255 255 255 255 255 255 255 255 255 255 255 255 255 255 255 255 255 235 213 188 180 177 194 205 206 209 212 214 217 216 219 219 217 216 218 221 221 218 223 219 217 222 218 219 222 222 220 220 217 217 218 218 218 219 217 216 218 220 216 218 217 218 214 215 215 212 213 210 212 209 209 207 204 198 195 184 178 183 196 207 230 250 255 255 255 255 255 255 255 255 255 255 255 255 255 255 255 255 255 255 255 255 255 255 255 255 255 255
255 255 255 255 255 255 255 255 255 255 255 255 255 255 255 255 255 251 223 200 181 173 185 199 205 207 211 209 216 215 217 219 218 219 218 218 220 221 222 215 219 219 219 219 222 222 221 220 219 220 216 217 217 223 218 216 222 215 217 219 218 218 215 219 215 217 215 214 214 208 212 207 209 211 201 198 201 187 179 177 195 215 234 251 255 255 255 255 255 255 255 255 255 255 255 255 255 255 255 255 255 255 255 255 255 255 255 255 255
255 255 255 255 255 255 255 255 255 255 255 255 255 255 255 255 255 240 210 193 180 179 193 200 212 210 213 214 215 217 218 220 221 218 221 220 222 218 220 222 220 220 219 222 222 221 223 221 217 219 220 222 221 218 221 219 218 218 218 217 217 217 216 217 216 217 215 214 213 214 213 206 210 211 204 205 200 193 185 179 182 198 214 237 253 255 255 255 255 255 255 255 255 255 255 255 255 255 255 255 255 255 255 255 255 255 255 255 255
255 255 255 255 255 255 255 255 255 255 255 255 255 255 255 255 254 227 202 182 170 180 200 201 207 212 213 214 218 216 221 217 221 219 217 224 219 223 220 222 221 220 222 219 218 222 221 222 220 221 219 224 217 216 219 220 220 218 216 219 218 218 217 215 217 218 217 216 212 213 213 214 212 212 206 206 205 200 198 186 179 175 200 221 239 254 255 255 255 255 255 255 255 255 255 255 255 255 255 255 255 255 255 255 255 255 255 255 255
255 255 255 255 255 255 255 255 255 255 255 255 255 255 255 255 248 217 194 170 165 184 198 203 210 212 213 215 212 216 219 221 218 218 218 219 217 221 220 219 222 218 218 222 223 219 221 220 219 220 219 218 220 222 217 221 219 220 216 221 216 219 216 218 217 214 216 215 215 215 214 213 214 210 215 205 206 204 199 196 184 173 183 198 223 244 255 255 255 255 255 255 255 255 255 255 255 255 255 255 255 255 255 255 255 255 255 255 255
255 255 255 255 255 255 255 255 255 255 255 255 255 255 255 255 238 202 176 162 163 191 204 207 212 216 213 218 220 218 219 221 219 219 220 220 221 220 222 219 218 219 222 222 220 220 224 225 222 216 220 219 219 220 219 219 219 220 220 218 220 216 219 219 218 217 217 214 217 214 214 213 214 211 212 207 209 209 202 197 197 180 178 189 204 228 248 255 255 255 255 255 255 255 255 255 255 255 255 255 255 255 255 255 255 255 255 255 255
255 255 255 255 255 255 255 255 255 255 255 255 255 255 255 255 223 187 166 150 170 196 206 207 208 211 217 217 217 218 219 220 218 221 221 219 217 221 222 222 218 223 220 221 221 222 222 219 223 220 220 223 219 215 220 215 221 219 218 217 220 219 217 220 212 216 219 216 216 218 219 215 213 213 210 211 210 205 204 202 196 195 178 181 190 208 230 252 255 255 255 255 255 255 255 255 255 255 255 255 255 255 255 255 255 255 255 255 255
255 255 255 255 255 255 255 255 255 255 255 255 255 255 255 252 212 176 156 149 172 196 208 212 211 211 217 217 218 219 218 220 223 222 223 222 221 222 221 222 220 219 223 218 224 223 222 221 221 220 219 223 220 219 222 219 220 220 221 220 218 217 218 217 219 214 219 216 217 215 215 214 215 214 213 212 209 209 206 205 200 200 190 180 176 192 212 240 253 255 255 255 255 255 255 255 255 255 255 255 255 255 255 255 255 255 255 255 255
255 255 255 255 255 255 255 255 255 255 255 255 255 255 255 244 203 167 155 154 184 203 209 212 217 216 218 217 219 220 219 216 221 220 221 221 219 220 223 221 220 220 219 222 222 221 221 223 223 219 221 220 222 218 219 220 220 220 223 221 218 218 218 217 219 220 218 218 213 217 217 214 214 216 215 214 207 211 210 210 204 201 197 191 178 186 202 221 245 255 255 255 255 255 255 255 255 255 255 255 255 255 255 255 255 255 255 255 255
255 255 255 255 255 255 255 255 255 255 255 255 255 255 255 237 190 157 153 153 185 207 211 211 211 213 216 217 217 217 220 219 221 222 220 220 220 222 220 221 218 219 219 219 223 221 221 222 218 220 220 221 221 217 220 220 220 220 221 221 218 219 220 219 220 219 216 217 217 221 218 218 218 217 213 211 212 212 209 207 207 205 203 196 181 179 184 208 230 251 255 255 255 255 255 255 255 255 255 255 255 255 255 255 255 255 255 255 255
255 255 255 255 255 255 255 255 255 255 255 255 255 255 255 227 186 160 151 160 196 205 211 215 214 219 217 221 218 221 218 222 220 218 221 219 223 221 225 222 223 223 221 222 224 221 220 221 223 220 222 219 222 219 219 219 220 221 221 221 217 219 218 219 217 215 220 217 217 217 216 215 215 216 218 213 213 213 209 212 206 208 203 197 195 180 178 193 216 241 254 255 255 255 255 255 255 255 255 255 255 255 255 255 255 255 255 255 255
255 255 255 255 255 255 255 255 255 255 255 255 255 255 254 220 176 153 155 168 197 210 210 216 215 217 217 218 220 219 219 219 219 222 221 222 219 220 221 223 222 221 223 221 223 219 219 222 219 219 224 220 223 224 224 219 220 220 221 219 217 217 219 220 219 218 219 216 220 216 219 214 216 214 213 217 215 211 212 210 212 205 209 202 198 188 174 183 195 224 247 255 255 255 255 255 255 255 255 255 255 255 255 255 255 255 255 255 255
255 255 255 255 255 255 255 255 255 255 255 255 255 255 252 211 176 150 143 175 203 206 212 213 212 218 217 220 219 221 220 224 218 223 219 223 220 223 219 220 220 221 223 223 220 220 220 220 222 224 219 217 223 218 220 221 223 222 220 218 218 217 220 220 220 218 218 219 217 220 219 213 216 221 220 213 213 211 211 214 211 210 204 204 201 195 187 183 186 208 233 253 255 255 255 255 255 255 255 255 255 255 255 255 255 255 255 255 255
255 255 255 255 255 255 255 255 255 255 255 255 255 255 250 204 169 154 146 181 202 210 210 210 216 214 216 217 220 219 221 220 221 222 224 221 220 220 221 219 221 220 223 222 221 223 221 220 223 220 222 222 221 219 216 218 222 222 220 216 222 221 216 214 217 218 217 221 217 218 216 217 215 214 218 214 215 214 212 210 209 206 209 206 204 200 190 177 186 194 218 246 255 255 255 255 255 255 255 255 255 255 255 255 255 255 255 255 255
255 255 255 255 255 255 255 255 255 255 255 255 255 255 246 199 167 149 145 185 201 208 213 214 215 215 217 216 217 217 222 220 219 221 221 220 219 219 223 222 222 224 223 219 223 222 220 222 220 221 221 221 221 221 221 221 217 220 221 219 221 218 220 221 218 217 223 220 219 219 217 216 217 214 211 216 216 213 212 215 212 214 206 211 203 200 195 189 177 186 204 234 253 255 255 255 255 255 255 255 255 255 255 255 255 255 255 255 255
255 255 255 255 255 255 255 255 255 255 255 255 255 255 244 198 172 146 154 187 205 207 213 218 219 216 220 217 221 219 219 221 221 219 223 220 223 220 221 222 220 222 221 222 219 222 223 220 221 220 223 222 218 220 216 220 221 222 220 217 218 217 216 217 218 219 215 216 218 216 220 219 218 215 219 218 215 215 216 216 209 212 208 205 205 204 197 193 179 179 195 218 242 255 255 255 255 255 255 255 255 255 255 255 255 255 255 255 255
255 255 255 255 255 255 255 255 255 255 255 255 255 255 241 193 165 148 151 192 204 212 207 216 215 216 216 216 214 220 220 221 222 221 220 222 225 223 221 221 222 221 219 219 218 220 220 221 219 222 220 221 218 220 221 221 223 219 220 218 217 222 221 218 219 218 218 217 218 219 217 216 218 217 217 216 217 215 217 217 216 212 212 212 208 210 206 198 185 176 184 205 231 253 255 255 255 255 255 255 255 255 255 255 255 255 255 255 255
255 255 255 255 255 255 255 255 255 255 255 255 255 255 240 191 156 147 155 193 206 208 213 215 219 217 218 220 218 219 218 217 216 219 221 219 219 218 220 223 218 221 220 221 223 219 222 222 221 221 219 220 218 220 215 221 220 218 219 220 221 217 222 216 219 218 221 217 219 219 218 218 216 219 220 217 217 215 217 215 212 212 212 208 212 205 201 196 199 181 174 196 218 244 255 255 255 255 255 255 255 255 255 255 255 255 255 255 255
255 255 255 255 255 255 255 255 255 255 255 255 255 255 236 192 160 147 155 192 210 210 213 214 214 218 216 218 220 221 222 221 223 222 222 223 221 221 221 223 221 223 221 223 221 222 222 221 222 222 220 218 220 218 219 218 222 220 218 217 221 215 220 218 219 219 217 217 219 218 219 218 218 218 217 219 215 215 213 215 214 213 212 212 210 210 204 205 195 188 178 190 207 233 253 255 255 255 255 255 255 255 255 255 255 255 255 255 255
255 255 255 255 255 255 255 255 255 255 255 255 255 255 233 188 158 143 153 193 203 211 214 216 216 214 219 220 217 221 219 222 218 221 221 221 221 221 222 222 220 219 220 221 221 223 221 219 220 220 218 219 220 217 223 217 216 221 218 218 221 219 217 222 221 214 219 220 219 219 217 218 218 217 221 217 217 217 218 218 214 215 213 208 210 208 211 204 199 196 179 178 198 221 247 255 255 255 255 255 255 255 255 255 255 255 255 255 255
255 255 255 255 255 255 255 255 255 255 255 255 255 255 235 186 155 141 157 191 206 211 213 215 219 216 220 219 218 217 222 220 219 220 222 222 222 220 220 219 220 224 220 220 223 218 221 221 222 220 219 222 220 220 220 219 220 222 222 221 219 220 218 219 219 220 220 219 221 219 218 217 220 217 216 219 215 218 218 215 216 216 213 212 211 210 209 206 201 193 186 182 192 213 238 255 255 255 255 255 255 255 255 255 255 255 255 255 255
255 255 255 255 255 255 255 255 255 255 255 255 255 255 235 188 160 147 153 192 206 212 212 215 217 218 217 221 221 222 220 219 223 223 220 224 222 224 222 222 221 222 220 221 223 221 220 221 219 221 219 218 220 221 222 219 221 219 219 218 220 219 217 218 219 217 220 218 219 219 218 218 220 217 217 215 216 217 219 215 219 214 212 212 216 209 211 206 206 199 193 180 188 197 225 251 255 255 255 255 255 255 255 255 255 255 255 255 255
255 255 255 255 255 255 255 255 255 255 255 255 255 255 237 189 158 149 153 191 203 207 213 216 217 218 217 220 218 221 217 217 220 219 223 221 219 219 220 223 223 221 220 221 222 222 216 222 222 220 219 222 219 214 219 222 221 220 216 221 219 218 219 218 217 217 218 218 221 217 215 217 220 222 219 218 218 218 216 217 216 217 214 216 216 212 212 210 205 200 197 186 183 197 216 243 255 255 255 255 255 255 255 255 255 255 255 255 255
255 255 255 255 255 255 255 255 255 255 255 255 255 255 237 190 155 142 156 192 203 212 215 211 215 219 217 219 218 219 220 221 220 221 221 220 218 221 220 218 224 221 221 224 219 220 221 223 221 223 222 222 220 219 221 219 222 216 219 221 219 218 220 218 220 221 217 220 221 216 220 223 220 215 217 221 218 215 215 214 214 215 213 217 214 210 210 209 207 203 199 187 181 187 209 234 253 255 255 255 255 255 255 255 255 255 255 255 255
255 255 255 255 255 255 255 255 255 255 255 255 255 255 240 191 156 146 151 193 208 210 212 212 214 218 216 217 219 221 220 219 222 220 222 223 218 221 220 222 222 219 218 223 219 219 222 219 223 221 219 221 220 217 219 221 220 221 218 222 218 220 219 218 218 218 219 218 219 219 219 218 217 216 218 219 222 220 219 219 213 215 219 216 215 212 214 213 209 204 202 198 184 182 206 226 249 255 255 255 255 255 255 255 255 255 255 255 255
255 255 255 255 255 255 255 255 255 255 255 255 255 255 244 196 161 134 150 185 202 207 213 216 214 217 217 222 216 219 220 221 219 221 221 223 222 218 222 222 222 221 218 222 221 219 223 221 220 220 220 221 217 222 223 218 219 223 220 219 218 218 219 221 220 218 219 224 219 220 218 216 219 216 215 219 215 217 217 216 219 218 215 218 215 214 210 213 209 206 202 197 187 183 192 220 244 255 255 255 255 255 255 255 255 255 255 255 255
255 255 255 255 255 255 255 255 255 255 255 255 255 255 247 202 160 150 145 181 204 210 213 212 214 217 217 220 217 217 220 221 219 219 220 222 219 222 221 223 220 219 224 219 221 219 220 219 219 220 222 216 220 220 220 218 220 221 219 219 222 222 221 219 221 221 220 221 217 220 219 216 219 218 221 217 219 219 217 218 219 220 214 218 216 214 211 212 213 208 207 201 195 182 192 209 237 254 255 255 255 255 255 255 255 255 255 255 255
255 255 255 255 255 255 255 255 255 255 255 255 255 255 249 203 167 144 141 175 199 208 211 212 213 220 218 219 219 221 220 219 217 221 218 222 221 220 219 220 218 224 220 220 220 223 221 221 218 221 220 217 224 219 224 220 221 219 220 218 220 220 222 219 221 219 221 220 219 221 220 218 218 218 221 221 221 219 218 217 217 218 215 213 217 212 214 210 210 207 200 199 197 182 189 204 231 252 255 255 255 255 255 255 255 255 255 255 255
255 255 255 255 255 255 255 255 255 255 255 255 255 255 253 213 170 152 138 174 198 207 208 214 214 218 215 217 219 220 221 218 221 221 220 222 224 221 218 220 219 222 222 221 219 220 223 223 218 217 224 219 220 222 222 222 215 219 218 220 218 218 221 217 219 220 221 219 220 220 223 220 218 219 219 220 217 219 218 219 220 215 217 221 216 211 214 209 209 206 206 199 197 189 181 202 222 247 255 255 255 255 255 255 255 255 255 255 255
255 255 255 255 255 255 255 255 255 255 255 255 255 255 254 223 175 149 137 161 200 207 210 211 214 218 219 216 220 216 220 218 220 220 220 220 222 222 222 221 220 221 223 219 223 221 221 225 218 219 219 218 219 222 218 220 219 219 219 219 221 218 220 222 223 220 220 223 221 221 220 219 223 221 218 221 218 217 219 217 218 218 219 215 217 213 215 212 211 212 210 205 198 189 181 194 217 241 255 255 255 255 255 255 255 255 255 255 255
255 255 255 255 255 255 255 255 255 255 255 255 255 255 255 232 179 157 137 154 195 205 209 213 213 217 217 216 218 216 221 220 220 222 218 221 223 219 220 218 221 220 222 222 220 220 217 217 220 219 222 218 220 221 218 217 219 220 219 220 221 219 221 219 221 221 220 219 220 216 219 219 217 220 220 215 220 217 219 218 216 218 215 217 214 217 211 214 211 209 206 206 197 191 183 189 209 236 254 255 255 255 255 255 255 255 255 255 255
255 255 255 255 255 255 255 255 255 255 255 255 255 255 255 240 188 164 141 145 187 204 210 211 213 214 215 219 218 220 222 220 219 221 218 223 221 222 219 222 219 221 221 217 223 222 222 220 220 219 219 218 220 216 220 221 223 222 215 219 216 219 220 218 217 219 220 220 219 219 220 218 219 219 220 220 218 220 221 218 218 218 217 218 215 214 213 215 212 210 210 208 200 192 184 188 205 233 253 255 255 255 255 255 255 255 255 255 255
255 255 255 255 255 255 255 255 255 255 255 255 255 255 255 244 202 161 145 145 178 201 212 210 213 211 215 215 216 218 220 219 220 221 222 220 219 220 219 223 221 222 221 219 219 221 221 219 222 218 222 221 219 222 222 222 220 220 219 224 220 221 220 220 220 222 222 220 220 222 219 218 218 219 218 219 219 219 221 218 219 214 215 219 218 213 215 212 212 211 208 206 204 197 185 185 203 229 251 255 255 255 255 255 255 255 255 255 255
255 255 255 255 255 255 255 255 255 255 255 255 255 255 255 252 214 170 146 138 165 199 208 211 210 214 214 217 219 217 219 219 222 219 219 219 218 220 223 221 220 219 219 220 219 222 220 218 221 222 219 219 220 219 221 221 220 222 221 220 221 220 221 217 221 220 222 220 220 216 218 221 219 218 222 219 219 217 218 219 219 221 221 216 217 219 219 215 215 210 211 210 203 197 193 186 202 223 248 255 255 255 255 255 255 255 255 255 255
255 255 255 255 255 255 255 255 255 255 255 255 255 255 255 254 223 183 149 141 156 198 203 208 210 213 216 217 215 217 219 215 218 220 219 220 220 218 218 220 218 221 219 223 221 221 220 221 224 220 219 220 220 221 220 218 222 219 220 221 221 220 221 221 222 221 218 220 224 219 220 220 218 219 218 222 220 217 218 219 221 217 217 217 217 216 216 212 214 214 211 212 210 198 189 182 194 218 245 255 255 255 255 255 255 255 255 255 255
255 255 255 255 255 255 255 255 255 255 255 255 255 255 255 255 236 187 154 145 141 183 201 210 210 210 211 216 218 220 218 219 214 218 219 219 224 221 219 222 223 223 222 220 219 217 219 220 220 225 219 219 220 221 221 220 223 222 223 221 225 216 222 218 224 220 222 221 218 223 220 220 220 217 217 221 220 219 220 221 220 218 218 214 221 214 215 213 217 213 213 209 209 201 193 184 196 217 241 255 255 255 255 255 255 255 255 255 255
255 255 255 255 255 255 255 255 255 255 255 255 255 255 255 255 247 204 166 143 139 170 202 209 208 215 215 216 217 218 218 215 218 219 218 218 219 220 220 219 222 220 221 217 221 221 219 223 220 220 218 221 221 224 222 219 220 220 220 223 217 223 218 221 217 220 218 221 222 219 219 220 218 219 219 220 219 221 219 218 218 219 217 215 218 216 213 215 210 215 214 210 210 202 197 184 195 211 239 254 255 255 255 255 255 255 255 255 255
255 255 255 255 255 255 255 255 255 255 255 255 255 255 255 255 253 218 170 152 134 160 195 203 212 210 212 216 216 216 218 217 220 218 219 217 222 222 225 219 219 219 220 221 221 218 220 221 223 221 222 220 222 220 221 219 221 219 222 218 222 216 221 220 220 216 219 219 219 220 222 221 220 218 217 220 219 221 220 217 218 221 220 217 217 216 213 216 218 210 211 211 205 206 191 187 190 214 235 254 255 255 255 255 255 255 255 255 255
255 255 255 255 255 255 255 255 255 255 255 255 255 255 255 255 255 233 185 158 139 150 184 203 208 212 214 215 218 217 215 219 220 222 223 220 223 220 222 222 219 223 218 222 219 220 220 220 223 219 221 220 218 219 219 218 219 220 221 220 219 223 221 221 220 220 220 222 221 220 221 221 222 220 219 218 221 218 221 220 217 220 217 218 217 215 214 215 212 217 211 212 206 203 195 187 191 211 235 254 255 255 255 255 255 255 255 255 255
255 255 255 255 255 255 255 255 255 255 255 255 255 255 255 255 255 246 200 158 144 134 169 199 205 209 215 216 216 217 217 217 217 219 221 221 218 219 217 220 219 219 220 219 223 215 222 222 221 222 220 218 220 224 222 220 222 222 222 219 221 222 222 222 221 220 219 219 218 219 221 221 219 223 218 219 222 217 220 217 220 220 220 217 218 215 216 217 214 215 215 209 212 204 198 187 194 209 235 253 255 255 255 255 255 255 255 255 255
255 255 255 255 255 255 255 255 255 255 255 255 255 255 255 255 255 253 218 173 152 137 151 187 202 206 211 213 215 215 215 217 218 219 217 222 220 219 216 220 221 221 221 220 223 220 220 221 217 223 221 222 220 218 221 218 221 221 220 221 221 219 217 221 221 220 222 220 220 220 224 219 219 222 221 219 221 219 215 223 220 219 220 220 217 218 216 216 211 214 217 210 207 204 198 186 192 210 232 252 255 255 255 255 255 255 255 255 255
255 255 255 255 255 255 255 255 255 255 255 255 255 255 255 255 255 255 236 192 157 138 140 178 203 208 210 208 212 212 216 215 214 217 220 221 221 219 219 219 218 219 221 223 221 219 220 220 220 221 219 217 221 219 220 219 222 221 221 218 222 222 221 221 217 221 224 221 217 219 220 217 220 219 218 219 217 223 219 219 219 219 216 218 217 217 218 219 213 213 212 211 210 204 202 189 189 209 230 252 255 255 255 255 255 255 255 255 255
255 255 255 255 255 255 255 255 255 255 255 255 255 255 255 255 255 255 250 205 170 145 136 159 194 206 209 209 210 215 217 217 215 217 217 218 220 219 220 221 221 218 219 220 220 218 218 220 218 220 221 216 217 217 219 220 223 220 219 222 221 221 221 223 223 222 222 222 222 219 223 224 218 220 222 223 222 219 221 223 219 219 221 216 218 217 218 212 216 214 214 208 204 207 199 188 193 209 233 252 255 255 255 255 255 255 255 255 255
255 255 255 255 255 255 255 255 255 255 255 255 255 255 255 255 255 255 255 228 185 151 135 142 177 200 203 211 212 213 216 216 218 217 220 221 221 218 220 223 224 218 218 221 220 220 221 218 223 218 218 224 220 218 224 221 221 221 218 220 220 219 221 222 218 223 221 221 222 222 218 222 221 219 219 220 224 224 219 222 219 219 218 219 220 219 218 218 213 214 214 214 205 202 198 190 191 208 231 253 255 255 255 255 255 255 255 255 255
255 255 255 255 255 255 255 255 255 255 255 255 255 255 255 255 255 255 255 246 206 169 144 135 164 195 204 208 211 213 215 216 215 215 219 218 218 216 220 218 217 225 221 219 221 220 218 220 220 220 220 223 219 220 223 221 221 222 224 220 221 221 218 218 220 221 220 221 219 219 224 220 219 218 219 222 223 219 221 219 222 220 222 220 218 217 217 217 215 215 216 214 205 202 196 188 189 205 233 253 255 255 255 255 255 255 255 255 255
255 255 255 255 255 255 255 255 255 255 255 255 255 255 255 255 255 255 255 255 226 184 154 134 142 177 201 206 209 209 211 211 212 217 220 221 220 218 221 218 220 220 221 218 219 220 220 220 221 218 221 221 225 220 222 221 220 222 222 221 223 221 222 223 220 222 219 217 223 220 224 222 221 222 221 220 223 220 221 221 219 222 217 220 220 216 216 216 216 212 216 210 208 201 198 187 192 209 234 253 255 255 255 255 255 255 255 255 255
255 255 255 255 255 255 255 255 255 255 255 255 255 255 255 255 255 255 255 255 245 206 162 140 136 151 193 203 208 210 210 213 213 218 214 218 216 217 222 216 219 216 218 220 220 224 221 223 223 218 222 222 221 221 221 223 223 217 219 222 222 222 220 221 220 221 224 221 224 218 222 219 222 221 220 219 220 219 219 220 220 222 220 219 221 220 219 219 218 214 213 208 207 201 197 188 191 213 236 253 255 255 255 255 255 255 255 255 255
255 255 255 255 255 255 255 255 255 255 255 255 255 255 255 255 255 255 255 255 254 227 182 158 139 141 173 197 203 211 211 215 214 215 217 216 219 219 219 221 222 220 222 219 218 220 219 220 220 222 223 220 218 221 220 224 220 221 223 222 222 218 221 224 220 222 221 224 220 222 219 222 217 221 222 220 223 220 219 218 222 222 217 218 220 218 219 216 212 211 211 210 208 205 202 185 195 215 240 254 255 255 255 255 255 255 255 255 255
255 255 255 255 255 255 255 255 255 255 255 255 255 255 255 255 255 255 255 255 255 249 207 169 145 125 146 187 201 206 204 209 212 216 214 218 218 218 218 219 221 220 218 219 219 219 223 221 219 224 221 220 221 218 218 222 224 219 218 222 222 222 224 217 222 221 224 221 221 222 222 223 219 221 223 221 221 220 219 220 219 218 219 222 218 216 211 215 216 215 211 211 208 204 197 187 201 220 241 255 255 255 255 255 255 255 255 255 255
255 255 255 255 255 255 255 255 255 255 255 255 255 255 255 255 255 255 255 255 255 255 236 190 162 137 138 162 192 200 208 209 211 213 214 216 218 217 220 216 217 223 217 222 220 217 220 221 220 222 222 222 222 221 224 219 219 219 220 221 222 222 220 222 219 220 223 226 220 219 221 221 221 223 219 220 220 220 220 218 220 218 221 219 218 220 215 215 216 214 214 211 207 203 197 189 202 221 243 255 255 255 255 255 255 255 255 255 255
255 255 255 255 255 255 255 255 255 255 255 255 255 255 255 255 255 255 255 255 255 255 252 217 176 151 137 144 176 196 206 211 215 212 214 213 217 215 216 218 217 220 217 224 220 222 218 222 220 222 218 219 220 223 220 220 219 222 223 225 221 223 220 223 222 221 219 219 221 219 220 222 222 221 223 221 218 221 220 220 221 218 221 221 219 217 215 216 216 209 212 212 207 202 197 190 205 223 247 255 255 255 255 255 255 255 255 255 255
255 255 255 255 255 255 255 255 255 255 255 255 255 255 255 255 255 255 255 255 255 255 255 243 202 168 149 134 148 179 198 205 205 213 212 216 217 215 218 218 218 216 220 218 219 222 220 223 217 221 221 222 217 215 220 219 217 220 222 220 225 221 225 222 222 222 222 221 222 222 224 221 218 222 222 221 222 220 219 220 221 220 218 219 219 219 215 219 216 214 210 210 206 201 189 190 204 231 250 255 255 255 255 255 255 255 255 255 255
255 255 255 255 255 255 255 255 255 255 255 255 255 255 255 255 255 255 255 255 255 255 255 254 233 190 158 142 139 157 187 205 210 210 212 211 218 215 216 217 220 219 219 217 219 218 217 218 221 222 217 219 219 222 217 218 222 221 219 221 221 219 221 221 219 220 218 222 223 219 221 222 223 221 222 219 221 218 221 218 220 217 216 219 218 214 217 215 216 213 213 207 205 196 190 192 211 232 252 255 255 255 255 255 255 255 255 255 255
255 255 255 255 255 255 255 255 255 255 255 255 255 255 255 255 255 255 255 255 255 255 255 255 252 223 180 150 141 132 163 188 207 207 212 216 213 212 214 214 219 215 217 221 221 221 220 222 222 220 222 220 218 222 221 223 222 222 220 223 222 221 219 221 219 221 218 220 223 221 221 223 224 222 220 221 220 220 219 219 220 220 218 223 221 221 219 218 217 213 212 206 202 195 187 195 216 238 254 255 255 255 255 255 255 255 255 255 255
255 255 255 255 255 255 255 255 255 255 255 255 255 255 255 255 255 255 255 255 255 255 255 255 255 247 207 176 155 142 142 164 194 202 210 213 212 211 213 217 218 215 222 215 222 221 222 219 218 221 221 219 223 219 221 221 221 221 222 218 222 222 220 223 219 223 221 223 221 218 223 221 223 221 219 223 221 220 221 219 220 218 221 221 214 217 218 214 215 213 209 208 204 193 189 202 223 244 255 255 255 255 255 255 255 255 255 255 255
255 255 255 255 255 255 255 255 255 255 255 255 255 255 255 255 255 255 255 255 255 255 255 255 255 255 240 202 172 145 140 145 171 199 204 211 211 211 213 213 215 218 220 216 218 217 218 216 220 219 222 220 219 221 222 220 223 222 217 223 221 219 222 223 222 218 221 220 219 222 223 220 223 220 223 217 220 219 218 219 218 216 219 220 216 219 215 215 212 211 211 205 205 188 195 204 228 249 255 255 255 255 255 255 255 255 255 255 255
255 255 255 255 255 255 255 255 255 255 255 255 255 255 255 255 255 255 255 255 255 255 255 255 255 255 254 233 199 157 144 141 144 171 193 209 209 210 213 213 209 213 215 218 218 217 218 221 221 219 219 217 220 221 222 222 222 222 222 221 224 221 223 224 221 221 223 219 221 223 220 223 220 221 219 221 221 220 223 219 218 216 219 214 217 214 216 214 210 207 203 205 199 190 197 209 238 252 255 255 255 255 255 255 255 255 255 255 255
255 255 255 255 255 255 255 255 255 255 255 255 255 255 255 255 255 255 255 255 255 255 255 255 255 255 255 253 226 189 158 143 137 146 171 193 206 204 211 213 212 213 215 217 219 216 216 215 220 220 220 221 222 219 217 222 219 222 220 220 221 220 220 223 221 222 222 223 219 220 223 219 223 217 219 222 224 221 217 218 217 220 220 215 217 217 215 212 209 209 206 199 192 192 203 223 244 254 255 255 255 255 255 255 255 255 255 255 255
255 255 255 255 255 255 255 255 255 255 255 255 255 255 255 255 255 255 255 255 255 255 255 255 255 255 255 255 251 223 182 158 146 136 143 171 198 203 208 212 212 214 213 209 218 219 218 216 219 221 216 220 218 220 220 223 218 219 220 220 220 218 222 219 222 223 223 222 220 221 217 216 217 220 220 220 220 220 219 222 221 218 216 218 213 213 212 215 211 212 206 199 192 200 214 232 251 255 255 255 255 255 255 255 255 255 255 255 255
255 255 255 255 255 255 255 255 255 255 255 255 255 255 255 255 255 255 255 255 255 255 255 255 255 255 255 255 255 251 223 183 162 145 139 146 175 195 205 210 211 211 211 215 211 215 215 217 218 216 216 219 216 220 220 218 219 219 220 220 221 223 219 220 219 223 221 219 218 219 221 222 220 221 221 220 219 218 222 223 219 218 220 216 215 213 211 212 210 204 201 191 196 204 224 241 254 255 255 255 255 255 255 255 255 255 255 255 255
255 255 255 255 255 255 255 255 255 255 255 255 255 255 255 255 255 255 255 255 255 255 255 255 255 255 255 255 255 255 250 220 187 166 147 138 142 161 189 205 207 208 209 208 211 213 217 215 217 220 217 216 218 218 217 219 218 217 221 222 221 218 224 218 222 223 218 219 221 220 221 219 220 218 217 220 219 218 217 216 218 218 217 215 211 214 211 208 205 204 197 194 201 213 234 250 255 255 255 255 255 255 255 255 255 255 255 255 255
255 255 255 255 255 255 255 255 255 255 255 255 255 255 255 255 255 255 255 255 255 255 255 255 255 255 255 255 255 255 255 249 218 191 159 151 140 142 157 184 201 205 207 211 212 211 217 214 216 216 217 219 218 220 219 220 220 216 219 220 215 220 218 219 221 218 221 219 220 218 222 221 221 218 217 216 216 218 218 218 216 215 215 214 211 211 209 207 203 199 194 193 207 224 242 254 255 255 255 255 255 255 255 255 255 255 255 255 255
255 255 255 255 255 255 255 255 255 255 255 255 255 255 255 255 255 255 255 255 255 255 255 255 255 255 255 255 255 255 255 255 252 227 194 168 151 147 136 154 174 196 202 208 210 210 212 212 214 216 215 216 215 216 219 215 219 221 216 220 218 221 222 219 218 216 221 218 219 218 219 220 220 221 222 218 220 215 215 219 212 217 216 215 214 211 207 208 202 196 195 207 218 234 251 255 255 255 255 255 255 255 255 255 255 255 255 255 255
255 255 255 255 255 255 255 255 255 255 255 255 255 255 255 255 255 255 255 255 255 255 255 255 255 255 255 255 255 255 255 255 255 253 231 199 170 152 145 133 149 166 192 201 206 210 210 209 211 213 211 212 215 214 219 218 218 217 215 217 220 220 217 220 217 219 219 218 220 215 219 221 217 215 217 219 217 218 216 216 214 215 213 212 209 207 205 201 196 191 201 213 232 245 255 255 255 255 255 255 255 255 255 255 255 255 255 255 255
255 255 255 255 255 255 255 255 255 255 255 255 255 255 255 255 255 255 255 255 255 255 255 255 255 255 255 255 255 255 255 255 255 255 254 240 207 178 161 146 141 142 160 178 191 202 209 206 205 214 211 214 216 217 216 211 213 217 216 215 223 222 218 217 217 220 218 218 220 219 217 217 218 215 218 218 215 216 213 216 213 213 208 207 207 205 203 194 194 199 212 223 241 253 255 255 255 255 255 255 255 255 255 255 255 255 255 255 255
255 255 255 255 255 255 255 255 255 255 255 255 255 255 255 255 255 255 255 255 255 255 255 255 255 255 255 255 255 255 255 255 255 255 255 255 245 212 188 163 154 140 143 151 158 185 199 202 208 208 210 211 214 209 212 214 217 213 215 215 212 213 217 216 216 217 216 219 217 216 217 216 213 215 215 212 211 214 215 213 214 212 210 207 205 205 201 195 198 209 222 238 251 255 255 255 255 255 255 255 255 255 255 255 255 255 255 255 255
255 255 255 255 255 255 255 255 255 255 255 255 255 255 255 255 255 255 255 255 255 255 255 255 255 255 255 255 255 255 255 255 255 255 255 255 255 250 228 198 174 153 148 136 135 148 169 188 195 204 202 208 211 211 211 211 212 215 215 216 214 214 216 218 220 215 214 216 214 217 215 214 212 212 215 214 212 213 211 212 213 208 210 204 205 197 188 201 206 217 234 249 255 255 255 255 255 255 255 255 255 255 255 255 255 255 255 255 255
255 255 255 255 255 255 255 255 255 255 255 255 255 255 255 255 255 255 255 255 255 255 255 255 255 255 255 255 255 255 255 255 255 255 255 255 255 255 254 240 211 185 167 156 143 139 141 149 170 192 195 205 205 206 210 208 211 210 211 213 213 213 213 217 214 213 215 216 217 216 213 215 216 211 216 215 212 213 211 207 207 207 205 201 196 195 199 206 222 235 249 255 255 255 255 255 255 255 255 255 255 255 255 255 255 255 255 255 255
255 255 255 255 255 255 255 255 255 255 255 255 255 255 255 255 255 255 255 255 255 255 255 255 255 255 255 255 255 255 255 255 255 255 255 255 255 255 255 255 249 229 202 181 165 153 143 141 142 153 168 183 196 201 203 206 209 207 210 209 211 214 213 211 212 212 211 216 212 212 212 216 212 211 208 210 210 211 207 204 201 202 194 190 191 198 209 221 232 248 254 255 255 255 255 255 255 255 255 255 255 255 255 255 255 255 255 255 255
255 255 255 255 255 255 255 255 255 255 255 255 255 255 255 255 255 255 255 255 255 255 255 255 255 255 255 255 255 255 255 255 255 255 255 255 255 255 255 255 255 254 244 224 195 176 162 155 145 143 146 152 164 174 190 197 201 200 202 208 207 209 206 208 208 210 211 210 211 212 207 210 214 206 208 205 206 205 204 201 192 193 187 192 200 211 223 236 249 255 255 255 255 255 255 255 255 255 255 255 255 255 255 255 255 255 255 255 255
255 255 255 255 255 255 255 255 255 255 255 255 255 255 255 255 255 255 255 255 255 255 255 255 255 255 255 255 255 255 255 255 255 255 255 255 255 255 255 255 255 255 255 253 240 219 199 179 164 156 144 151 142 149 155 165 173 187 193 196 198 208 204 205 204 205 209 204 202 208 204 205 204 204 206 205 199 198 195 191 188 188 194 206 213 227 238 249 255 255 255 255 255 255 255 255 255 255 255 255 255 255 255 255 255 255 255 255 255
255 255 255 255 255 255 255 255 255 255 255 255 255 255 255 255 255 255 255 255 255 255 255 255 255 255 255 255 255 255 255 255 255 255 255 255 255 255 255 255 255 255 255 255 255 253 241 219 201 184 169 162 154 148 151 143 148 150 158 169 173 183 195 192 199 196 201 203 198 201 198 195 195 198 192 187 185 187 184 189 191 200 213 220 229 242 252 255 255 255 255 255 255 255 255 255 255 255 255 255 255 255 255 255 255 255 255 255 255
255 255 255 255 255 255 255 255 255 255 255 255 255 255 255 255 255 255 255 255 255 255 255 255 255 255 255 255 255 255 255 255 255 255 255 255 255 255 255 255 255 255 255 255 255 255 255 254 244 223 207 193 180 171 162 159 154 151 149 145 153 155 162 166 169 172 177 179 179 181 187 183 184 178 178 183 184 188 190 198 205 217 225 235 247 253 255 255 255 255 255 255 255 255 255 255 255 255 255 255 255 255 255 255 255 255 255 255 255
255 255 255 255 255 255 255 255 255 255 255 255 255 255 255 255 255 255 255 255 255 255 255 255 255 255 255 255 255 255 255 255 255 255 255 255 255 255 255 255 255 255 255 255 255 255 255 255 255 255 248 234 221 206 189 182 168 165 162 162 159 161 159 157 164 164 163 166 170 166 170 172 177 180 177 185 190 196 208 217 226 233 245 252 255 255 255 255 255 255 255 255 255 255 255 255 255 255 255 255 255 255 255 255 255 255 255 255 255
255 255 255 255 255 255 255 255 255 255 255 255 255 255 255 255 255 255 255 255 255 255 255 255 255 255 255 255 255 255 255 255 255 255 255 255 255 255 255 255 255 255 255 255 255 255 255 255 255 255 255 255 254 248 236 221 211 196 191 188 180 178 173 179 177 176 173 171 182 183 182 186 191 194 200 204 216 221 227 236 245 251 254 255 255 255 255 255 255 255 255 255 255 255 255 255 255 255 255 255 255 255 255 255 255 255 255 255 255
255 255 255 255 255 255 255 255 255 255 255 255 255 255 255 255 255 255 255 255 255 255 255 255 255 255 255 255 255 255 255 255 255 255 255 255 255 255 255 255 255 255 255 255 255 255 255 255 255 255 255 255 255 255 255 255 250 242 233 225 213 211 207 201 203 194 199 194 195 203 206 209 213 215 222 231 235 243 248 252 255 255 255 255 255 255 255 255 255 255 255 255 255 255 255 255 255 255 255 255 255 255 255 255 255 255 255 255 255
255 255 255 255 255 255 255 255 255 255 255 255 255 255 255 255 255 255 255 255 255 255 255 255 255 255 255 255 255 255 255 255 255 255 255 255 255 255 255 255 255 255 255 255 255 255 255 255 255 255 255 255 255 255 255 255 255 255 255 254 252 248 244 238 235 229 232 226 230 231 232 237 238 242 248 251 254 255 255 255 255 255 255 255 255 255 255 255 255 255 255 255 255 255 255 255 255 255 255 255 255 255 255 255 255 255 255 255 255
255 255 255 255 255 255 255 255 255 255 255 255 255 255 255 255 255 255 255 255 255 255 255 255 255 255 255 255 255 255 255 255 255 255 255 255 255 255 255 255 255 255 255 255 255 255 255 255 255 255 255 255 255 255 255 255 255 255 255 255 255 255 255 255 255 255 255 254 254 255 255 255 255 255 255 255 255 255 255 255 255 255 255 255 255 255 255 255 255 255 255 255 255 255 255 255 255 255 255 255 255 255 255 255 255 255 255 255 255
255 255 255 255 255 255 255 255 255 255 255 255 255 255 255 255 255 255 255 255 255 255 255 255 255 255 255 255 255 255 255 255 255 255 255 255 255 255 255 255 255 255 255 255 255 255 255 255 255 255 255 255 255 255 255 255 255 255 255 255 255 255 255 255 255 255 255 255 255 255 255 255 255 255 255 255 255 255 255 255 255 255 255 255 255 255 255 255 255 255 255 255 255 255 255 255 255 255 255 255 255 255 255 255 255 255 255 255 255
255 255 255 255 255 255 255 255 255 255 255 255 255 255 255 255 255 255 255 255 255 255 255 255 255 255 255 255 255 255 255 255 255 255 255 255 255 255 255 255 255 255 255 255 255 255 255 255 255 255 255 255 255 255 255 255 255 255 255 255 255 255 255 255 255 255 255 255 255 255 255 255 255 255 255 255 255 255 255 255 255 255 255 255 255 255 255 255 255 255 255 255 255 255 255 255 255 255 255 255 255 255 255 255 255 255 255 255 255
255 255 255 255 255 255 255 255 255 255 255 255 255 255 255 255 255 255 255 255 255 255 255 255 255 255 255 255 255 255 255 255 255 255 255 255 255 255 255 255 255 255 255 255 255 255 255 255 255 255 255 255 255 255 255 255 255 255 255 255 255 255 255 255 255 255 255 255 255 255 255 255 255 255 255 255 255 255 255 255 255 255 255 255 255 255 255 255 255 255 255 255 255 255 255 255 255 255 255 255 255 255 255 255 255 255 255 255 255
255 255 255 255 255 255 255 255 255 255 255 255 255 255 255 255 255 255 255 255 255 255 255 255 255 255 255 255 255 255 255 255 255 255 255 255 255 255 255 255 255 255 255 255 255 255 255 255 255 255 255 255 255 255 255 255 255 255 255 255 255 255 255 255 255 255 255 255 255 255 255 255 255 255 255 255 255 255 255 255 255 255 255 255 255 255 255 255 255 255 255 255 255 255 255 255 255 255 255 255 255 255 255 255 255 255 255 255 255
255 255 255 255 255 255 255 255 255 255 255 255 255 255 255 255 255 255 255 255 255 255 255 255 255 255 255 255 255 255 255 255 255 255 255 255 255 255 255 255 255 255 255 255 255 255 255 255 255 255 255 255 255 255 255 255 255 255 255 255 255 255 255 255 255 255 255 255 255 255 255 255 255 255 255 255 255 255 255 255 255 255 255 255 255 255 255 255 255 255 255 255 255 255 255 255 255 255 255 255 255 255 255 255 255 255 255 255 255
255 255 255 255 255 255 255 255 255 255 255 255 255 255 255 255 255 255 255 255 255 255 255 255 255 255 255 255 255 255 255 255 255 255 255 255 255 255 255 255 255 255 255 255 255 255 255 255 255 255 255 255 255 255 255 255 255 255 255 255 255 255 255 255 255 255 255 255 255 255 255 255 255 255 255 255 255 255 255 255 255 255 255 255 255 255 255 255 255 255 255 255 255 255 255 255 255 255 255 255 255 255 255 255 255 255 255 255 255
255 255 255 255 255 255 255 255 255 255 255 255 255 255 255 255 255 255 255 255 255 255 255 255 255 255 255 255 255 255 255 255 255 255 255 255 255 255 255 255 255 255 255 255 255 255 255 255 255 255 255 255 255 255 255 255 255 255 255 255 255 255 255 255 255 255 255 255 255 255 255 255 255 255 255 255 255 255 255 255 255 255 255 255 255 255 255 255 255 255 255 255 255 255 255 255 255 255 255 255 255 255 255 255 255 255 255 255 255
