P2
92 92
255
255 255 255 255 255 255 255 255 255 255 255 255 255 255 255 255 255 255 255 255 255 255 255 255 255 255 255 255 255 255 255 255 255 255 255 255 255 255 255 255 255 255 255 255 255 255 255 255 255 255 255 255 255 255 255 255 255 255 255 255 255 255 255 255 255 255 255 255 255 255 255 255 255 255 255 255 255 255 255 255 255 255 255 255 255 255 255 255 255 255 255 255
255 255 255 255 255 255 255 255 255 255 255 255 255 255 255 255 255 255 255 255 255 255 255 255 255 255 255 255 255 255 255 255 255 255 255 255 255 255 255 255 255 255 255 255 255 255 255 255 255 255 255 255 255 255 255 255 255 255 255 255 255 255 255 255 255 255 255 255 255 255 255 255 255 255 255 255 255 255 255 255 255 255 255 255 255 255 255 255 255 255 255 255
255 255 255 255 255 255 255 255 255 255 255 255 255 255 255 255 255 255 255 255 255 255 255 255 255 255 255 255 255 255 255 255 255 255 255 255 255 255 255 255 255 255 255 255 255 255 255 255 255 255 255 255 255 255 255 255 255 255 255 255 255 255 255 255 255 255 255 255 255 255 255 255 255 255 255 255 255 255 255 255 255 255 255 255 255 255 255 255 255 255 255 255
255 255 255 255 255 255 255 255 255 255 255 255 255 255 255 255 255 255 255 255 255 255 255 255 255 255 255 255 255 255 255 255 255 255 255 255 255 255 255 255 255 255 255 255 255 255 255 255 255 255 255 255 255 255 255 255 255 255 255 255 255 255 255 255 255 255 255 255 255 255 255 255 255 255 255 255 255 255 255 255 255 255 255 255 255 255 255 255 255 255 255 255
255 255 255 255 255 255 255 255 255 255 255 255 255 255 255 255 255 255 255 255 255 255 255 255 255 255 255 255 255 255 255 255 255 255 255 255 255 255 255 255 255 255 255 255 255 255 255 255 255 255 255 255 255 255 255 255 255 255 255 255 255 255 255 255 255 255 255 255 255 255 255 255 255 255 255 255 255 255 255 255 255 255 255 255 255 255 255 255 255 255 255 255
255 255 255 255 255 255 255 255 255 255 255 255 255 255 255 255 255 255 255 255 255 255 255 255 255 255 255 255 255 255 255 255 255 255 255 255 255 255 255 255 255 255 255 255 255 255 255 255 255 255 255 255 255 255 255 255 255 255 255 255 255 255 255 255 255 255 255 255 255 255 255 255 255 255 255 255 255 255 255 255 255 255 255 255 255 255 255 255 255 255 255 255
255 255 255 255 255 255 255 255 255 255 255 255 255 255 255 255 255 255 255 255 255 255 255 255 255 255 255 255 255 255 255 255 255 255 255 255 255 255 255 255 255 255 255 255 255 255 255 255 255 255 255 255 255 255 255 255 255 255 255 255 255 255 255 255 255 255 255 255 255 255 255 255 255 255 255 255 255 255 255 255 255 255 255 255 255 255 255 255 255 255 255 255
255 255 255 255 255 255 255 255 255 255 255 255 255 255 255 255 255 255 255 255 255 255 255 255 255 255 255 255 255 255 255 255 255 255 255 255 255 255 255 255 255 255 255 255 255 255 255 255 255 255 255 255 255 255 255 255 255 255 255 255 255 255 255 255 255 255 255 255 255 255 255 255 255 255 255 255 255 255 255 255 255 255 255 255 255 255 255 255 255 255 255 255
255 255 255 255 255 255 255 255 255 255 255 255 255 255 255 255 255 255 255 255 255 255 255 255 255 255 255 255 255 254 252 251 250 249 250 249 250 250 252 253 254 255 255 255 255 255 255 255 255 255 255 255 255 255 255 255 255 255 255 255 255 255 255 255 255 255 255 255 255 255 255 255 255 255 255 255 255 255 255 255 255 255 255 255 255 255 255 255 255 255 255 255
255 255 255 255 255 255 255 255 255 255 255 255 255 255 255 255 255 255 255 255 255 255 255 255 255 254 250 247 242 239 235 230 230 229 229 230 228 230 232 234 239 242 246 250 254 255 255 255 255 255 255 255 255 255 255 255 255 255 255 255 255 255 255 255 255 255 255 255 255 255 255 255 255 255 255 255 255 255 255 255 255 255 255 255 255 255 255 255 255 255 255 255
255 255 255 255 255 255 255 255 255 255 255 255 255 255 255 255 255 255 255 255 255 255 255 253 247 238 231 223 219 215 209 205 205 203 204 207 207 207 210 213 215 221 223 231 234 242 248 252 255 255 255 255 255 255 255 255 255 255 255 255 255 255 255 255 255 255 255 255 255 255 255 255 255 255 255 255 255 255 255 255 255 255 255 255 255 255 255 255 255 255 255 255
255 255 255 255 255 255 255 255 255 255 255 255 255 255 255 255 255 255 255 255 255 253 247 234 225 213 208 198 195 190 184 187 183 184 177 181 187 185 185 191 191 198 202 207 212 218 226 235 241 250 254 255 255 255 255 255 255 255 255 255 255 255 255 255 255 255 255 255 255 255 255 255 255 255 255 255 255 255 255 255 255 255 255 255 255 255 255 255 255 255 255 255
255 255 255 255 255 255 255 255 255 255 255 255 255 255 255 255 255 255 255 255 250 237 223 212 199 192 185 178 172 168 167 168 165 168 163 160 163 165 167 169 167 176 180 186 189 197 201 210 219 232 240 247 253 255 255 255 255 255 255 255 255 255 255 255 255 255 255 255 255 255 255 255 255 255 255 255 255 255 255 255 255 255 255 255 255 255 255 255 255 255 255 255
255 255 255 255 255 255 255 255 255 255 255 255 255 255 255 255 255 255 255 247 229 212 195 185 177 166 165 160 156 157 158 158 154 158 161 161 160 161 159 162 160 163 165 167 171 172 179 186 198 202 213 225 236 245 254 255 255 255 255 255 255 255 255 255 255 255 255 255 255 255 255 255 255 255 255 255 255 255 255 255 255 255 255 255 255 255 255 255 255 255 255 255
255 255 255 255 255 255 255 255 255 255 255 255 255 255 255 255 255 255 247 225 200 186 170 164 153 150 152 149 151 157 161 163 167 169 170 168 164 167 164 165 163 163 155 158 155 156 161 164 175 178 191 199 212 224 239 247 254 255 255 255 255 255 255 255 255 255 255 255 255 255 255 255 255 255 255 255 255 255 255 255 255 255 255 255 255 255 255 255 255 255 255 255
255 255 255 255 255 255 255 255 255 255 255 255 255 255 255 255 255 249 226 200 179 162 150 143 143 143 155 158 165 166 171 170 170 174 174 178 174 177 171 177 172 168 167 170 159 161 154 153 156 163 170 176 186 200 213 227 240 251 255 255 255 255 255 255 255 255 255 255 255 255 255 255 255 255 255 255 255 255 255 255 255 255 255 255 255 255 255 255 255 255 255 255
255 255 255 255 255 255 255 255 255 255 255 255 255 255 255 255 253 227 198 171 159 140 136 137 142 151 161 166 172 171 175 180 178 177 176 178 181 178 174 180 176 175 173 172 169 162 167 158 157 154 157 160 166 180 192 205 219 234 245 254 255 255 255 255 255 255 255 255 255 255 255 255 255 255 255 255 255 255 255 255 255 255 255 255 255 255 255 255 255 255 255 255
255 255 255 255 255 255 255 255 255 255 255 255 255 255 255 255 238 200 176 150 143 128 127 131 155 167 169 176 178 177 179 181 180 183 185 183 183 183 183 179 182 176 179 178 177 171 170 167 164 162 154 155 154 159 166 182 193 208 224 238 252 255 255 255 255 255 255 255 255 255 255 255 255 255 255 255 255 255 255 255 255 255 255 255 255 255 255 255 255 255 255 255
255 255 255 255 255 255 255 255 255 255 255 255 255 255 255 251 211 178 148 131 118 116 128 153 168 174 175 180 178 181 182 182 184 182 180 184 184 188 184 183 184 180 182 179 177 176 176 170 172 169 160 157 150 151 151 156 173 186 199 216 233 248 255 255 255 255 255 255 255 255 255 255 255 255 255 255 255 255 255 255 255 255 255 255 255 255 255 255 255 255 255 255
255 255 255 255 255 255 255 255 255 255 255 255 255 255 255 235 190 159 129 123 110 112 147 165 171 179 182 177 181 186 184 184 186 188 185 184 187 188 186 187 184 183 183 186 185 177 177 176 178 173 166 168 162 156 150 153 155 164 181 195 212 227 245 255 255 255 255 255 255 255 255 255 255 255 255 255 255 255 255 255 255 255 255 255 255 255 255 255 255 255 255 255
255 255 255 255 255 255 255 255 255 255 255 255 255 255 252 213 171 140 120 111 106 128 164 170 175 179 182 184 185 189 189 186 188 188 188 187 187 185 185 187 186 185 184 183 185 182 184 181 177 178 173 172 167 160 151 149 147 150 162 175 190 206 227 243 254 255 255 255 255 255 255 255 255 255 255 255 255 255 255 255 255 255 255 255 255 255 255 255 255 255 255 255
255 255 255 255 255 255 255 255 255 255 255 255 255 255 241 194 159 128 113 101 113 151 170 172 178 179 185 181 191 188 187 189 194 194 189 190 191 188 190 190 188 188 190 188 188 185 181 184 181 175 178 175 172 168 165 156 149 145 145 156 170 184 204 221 242 254 255 255 255 255 255 255 255 255 255 255 255 255 255 255 255 255 255 255 255 255 255 255 255 255 255 255
255 255 255 255 255 255 255 255 255 255 255 255 255 255 223 175 148 126 101 102 130 160 172 175 183 183 185 189 186 188 185 190 193 189 190 187 191 190 190 191 188 189 187 190 190 183 184 181 186 178 179 178 177 170 172 167 163 157 148 146 152 161 181 203 219 240 253 255 255 255 255 255 255 255 255 255 255 255 255 255 255 255 255 255 255 255 255 255 255 255 255 255
255 255 255 255 255 255 255 255 255 255 255 255 255 251 205 168 138 116 104 107 148 170 176 180 180 186 187 189 188 190 193 193 188 193 190 191 190 191 189 191 188 187 189 189 187 188 187 187 182 178 185 177 177 176 173 172 170 165 154 145 147 153 163 180 201 220 240 254 255 255 255 255 255 255 255 255 255 255 255 255 255 255 255 255 255 255 255 255 255 255 255 255
255 255 255 255 255 255 255 255 255 255 255 255 255 242 193 159 131 107 101 117 159 172 177 184 183 185 184 187 189 192 190 192 195 192 193 190 194 195 189 190 189 188 190 190 191 187 189 190 186 188 186 184 180 177 176 171 171 167 165 161 148 145 152 158 179 201 220 242 254 255 255 255 255 255 255 255 255 255 255 255 255 255 255 255 255 255 255 255 255 255 255 255
255 255 255 255 255 255 255 255 255 255 255 255 255 230 182 143 119 106 108 136 164 176 179 184 186 188 190 192 192 189 191 192 192 191 191 194 190 195 192 189 192 189 191 190 189 188 188 185 188 188 186 182 184 182 179 173 175 173 167 165 158 149 145 151 164 179 200 224 244 255 255 255 255 255 255 255 255 255 255 255 255 255 255 255 255 255 255 255 255 255 255 255
255 255 255 255 255 255 255 255 255 255 255 255 254 216 170 138 120 104 108 150 174 181 178 186 185 189 187 189 190 190 195 190 192 192 192 195 193 194 193 191 189 192 191 191 192 190 187 187 187 189 187 185 185 181 179 176 177 175 173 168 164 159 148 142 152 165 186 202 226 247 255 255 255 255 255 255 255 255 255 255 255 255 255 255 255 255 255 255 255 255 255 255
255 255 255 255 255 255 255 255 255 255 255 255 250 203 163 136 107 106 114 161 174 181 183 185 187 191 189 191 192 192 194 195 193 196 196 192 189 197 194 192 192 192 194 191 191 192 190 193 188 187 189 184 185 184 183 178 181 178 177 171 170 165 157 150 146 152 165 183 206 230 250 255 255 255 255 255 255 255 255 255 255 255 255 255 255 255 255 255 255 255 255 255
255 255 255 255 255 255 255 255 255 255 255 255 245 197 158 127 109 104 125 166 172 182 185 188 187 189 190 195 194 192 194 196 193 193 196 194 194 194 193 193 191 189 193 191 191 187 189 191 191 189 185 184 189 186 180 183 182 178 178 175 174 168 162 160 148 141 153 171 187 215 237 253 255 255 255 255 255 255 255 255 255 255 255 255 255 255 255 255 255 255 255 255
255 255 255 255 255 255 255 255 255 255 255 255 239 191 150 127 110 107 135 168 174 181 185 188 189 189 194 193 192 193 196 196 195 196 193 195 192 194 195 192 193 193 191 190 189 192 190 191 189 191 187 188 185 185 184 185 182 180 182 177 179 173 166 165 156 143 143 154 174 192 219 241 255 255 255 255 255 255 255 255 255 255 255 255 255 255 255 255 255 255 255 255
255 255 255 255 255 255 255 255 255 255 255 255 234 181 145 120 109 106 142 171 176 183 183 187 189 188 194 192 193 192 193 194 197 194 195 194 194 193 193 193 192 194 194 192 191 187 190 191 192 189 190 189 185 186 187 181 184 179 182 175 181 175 172 169 163 155 140 143 162 178 203 226 249 255 255 255 255 255 255 255 255 255 255 255 255 255 255 255 255 255 255 255
255 255 255 255 255 255 255 255 255 255 255 255 228 178 139 114 110 106 151 174 177 185 182 193 191 189 194 193 192 190 192 195 196 193 193 195 193 195 193 195 195 195 191 189 191 193 188 189 191 188 188 185 185 188 184 185 184 184 181 182 176 177 174 171 166 161 152 146 154 164 185 211 236 254 255 255 255 255 255 255 255 255 255 255 255 255 255 255 255 255 255 255
255 255 255 255 255 255 255 255 255 255 255 255 222 170 143 115 101 107 152 176 181 186 185 187 192 192 190 194 193 192 193 194 194 196 196 197 192 194 197 195 193 193 196 194 189 188 189 189 191 189 187 190 187 186 186 185 184 186 185 179 177 182 174 174 172 164 157 149 141 155 172 194 220 243 255 255 255 255 255 255 255 255 255 255 255 255 255 255 255 255 255 255
255 255 255 255 255 255 255 255 255 255 255 255 217 167 133 115 103 109 154 175 183 184 187 186 190 190 190 191 191 195 195 191 193 193 195 195 193 196 195 193 192 193 194 193 194 192 195 190 192 195 188 186 189 188 189 186 187 188 186 184 178 181 179 174 173 166 160 153 144 146 159 183 205 230 250 255 255 255 255 255 255 255 255 255 255 255 255 255 255 255 255 255
255 255 255 255 255 255 255 255 255 255 255 254 213 167 135 113 102 109 159 171 180 188 187 190 191 193 190 190 195 196 192 193 196 194 194 195 195 194 195 197 192 191 193 193 189 192 193 193 192 187 191 191 193 191 187 187 189 187 181 183 182 179 177 179 179 172 171 162 151 141 148 166 191 214 241 255 255 255 255 255 255 255 255 255 255 255 255 255 255 255 255 255
255 255 255 255 255 255 255 255 255 255 255 254 214 168 133 110 102 115 159 172 185 186 187 188 192 193 193 197 194 192 195 196 196 196 193 196 193 193 194 197 193 193 191 193 191 193 192 192 189 193 191 189 189 186 192 188 185 188 187 184 184 184 180 180 178 177 171 161 161 149 146 161 176 200 226 249 255 255 255 255 255 255 255 255 255 255 255 255 255 255 255 255
255 255 255 255 255 255 255 255 255 255 255 254 213 160 131 114 98 116 161 175 179 184 189 190 190 192 194 195 196 193 190 198 192 194 194 193 194 196 195 193 196 194 195 192 191 188 191 196 192 189 191 192 188 189 184 188 188 188 188 188 185 184 180 180 180 177 170 170 163 152 143 150 167 189 216 240 255 255 255 255 255 255 255 255 255 255 255 255 255 255 255 255
255 255 255 255 255 255 255 255 255 255 255 254 214 168 129 116 99 110 159 174 179 185 186 190 189 189 193 193 194 192 194 195 197 194 191 194 192 193 192 190 193 193 190 193 189 190 191 194 190 193 189 189 189 190 186 188 188 188 188 186 185 183 181 181 181 180 173 175 166 159 151 141 153 176 202 232 251 255 255 255 255 255 255 255 255 255 255 255 255 255 255 255
255 255 255 255 255 255 255 255 255 255 255 255 217 167 133 108 98 110 157 174 181 185 184 190 192 193 194 193 194 194 191 198 197 195 193 197 195 196 196 196 192 195 194 193 193 192 194 196 192 191 194 194 193 192 188 190 192 189 185 187 186 185 184 181 179 182 176 175 169 161 157 147 151 168 190 218 243 255 255 255 255 255 255 255 255 255 255 255 255 255 255 255
255 255 255 255 255 255 255 255 255 255 255 255 223 169 137 117 101 111 152 175 178 180 189 192 189 187 192 195 195 192 196 196 193 192 194 194 193 191 192 193 191 189 193 191 191 192 196 195 193 190 192 189 189 189 184 192 187 189 185 191 187 188 187 182 184 179 176 177 168 165 163 146 141 158 179 205 232 253 255 255 255 255 255 255 255 255 255 255 255 255 255 255
255 255 255 255 255 255 255 255 255 255 255 255 224 174 136 109 98 107 147 171 179 185 187 188 189 193 192 190 190 198 196 194 191 193 194 196 193 194 193 192 194 195 196 192 195 193 191 192 193 191 189 193 190 188 190 190 192 190 189 186 185 187 184 188 180 180 179 179 173 172 161 155 145 151 172 196 222 246 255 255 255 255 255 255 255 255 255 255 255 255 255 255
255 255 255 255 255 255 255 255 255 255 255 255 229 180 143 118 102 103 141 170 176 185 184 190 188 191 192 194 191 193 195 194 196 192 196 190 193 194 194 190 196 193 195 193 191 190 193 191 193 189 194 193 193 190 190 190 192 192 185 189 191 187 184 186 184 183 179 177 178 170 165 159 149 151 162 185 215 237 254 255 255 255 255 255 255 255 255 255 255 255 255 255
255 255 255 255 255 255 255 255 255 255 255 255 237 184 142 117 104 100 133 166 178 182 187 188 190 189 191 193 193 195 193 193 196 193 195 193 194 193 196 193 193 193 190 191 193 194 191 191 191 192 190 191 191 191 190 188 192 194 187 189 189 191 187 189 185 180 179 178 180 181 172 161 148 146 159 177 205 229 252 255 255 255 255 255 255 255 255 255 255 255 255 255
255 255 255 255 255 255 255 255 255 255 255 255 243 190 151 121 106 103 128 166 176 182 186 188 190 190 190 194 196 193 196 195 195 195 189 195 196 193 194 193 193 195 193 194 191 191 192 190 191 195 195 192 193 189 191 191 192 191 193 188 189 184 184 183 189 184 188 182 177 177 171 171 153 147 158 167 194 222 246 255 255 255 255 255 255 255 255 255 255 255 255 255
255 255 255 255 255 255 255 255 255 255 255 255 248 198 154 123 107 100 120 165 175 182 185 188 189 191 191 191 194 192 193 193 195 190 195 192 195 194 191 190 192 197 196 194 195 195 193 188 190 191 192 188 190 191 193 189 190 192 190 190 191 185 187 186 185 181 186 181 177 176 171 173 160 151 147 163 188 215 239 254 255 255 255 255 255 255 255 255 255 255 255 255
255 255 255 255 255 255 255 255 255 255 255 255 253 206 161 129 106 97 111 161 175 180 185 187 188 189 190 193 193 195 193 196 196 194 195 192 196 195 193 194 193 194 194 195 192 192 193 195 193 192 195 193 191 191 191 191 192 191 189 189 189 188 188 187 187 187 185 184 178 176 176 168 163 156 150 161 181 203 233 253 255 255 255 255 255 255 255 255 255 255 255 255
255 255 255 255 255 255 255 255 255 255 255 255 255 220 167 139 107 95 105 142 171 177 184 185 187 189 191 193 191 191 195 196 198 191 194 192 194 194 194 197 193 193 192 195 193 190 193 195 195 190 191 192 194 193 191 193 190 191 191 192 191 189 188 188 185 188 191 185 182 180 178 175 168 155 152 154 173 202 224 249 255 255 255 255 255 255 255 255 255 255 255 255
255 255 255 255 255 255 255 255 255 255 255 255 255 231 180 137 115 98 104 130 171 177 181 188 187 189 192 187 193 194 194 194 193 195 192 198 190 196 188 193 195 194 196 195 195 192 191 194 193 192 195 194 193 194 192 192 194 191 190 190 189 189 186 186 189 191 183 183 183 182 180 171 169 163 152 157 172 195 220 246 255 255 255 255 255 255 255 255 255 255 255 255
255 255 255 255 255 255 255 255 255 255 255 255 255 244 191 150 122 103 98 119 163 178 182 183 190 190 191 193 193 192 191 193 194 192 193 195 194 195 196 194 193 193 194 192 195 192 189 194 193 193 194 189 191 191 193 193 191 191 194 189 194 191 190 187 187 187 188 186 185 182 182 177 168 167 155 152 165 189 213 240 255 255 255 255 255 255 255 255 255 255 255 255
255 255 255 255 255 255 255 255 255 255 255 255 255 252 206 160 122 109 98 108 145 175 179 185 186 186 190 190 193 191 194 192 194 198 194 193 194 191 193 198 192 193 196 193 196 194 193 192 193 191 195 196 191 190 193 188 193 192 191 191 188 188 192 186 188 188 187 184 186 180 180 177 174 167 157 155 163 188 208 236 254 255 255 255 255 255 255 255 255 255 255 255
255 255 255 255 255 255 255 255 255 255 255 255 255 255 226 173 139 111 95 95 135 171 179 178 186 189 188 189 192 192 191 190 195 193 194 193 193 197 192 192 194 197 191 190 191 193 194 194 194 191 191 195 194 192 194 191 191 196 193 193 192 191 191 190 189 188 186 190 184 182 180 178 172 165 161 154 163 181 203 232 252 255 255 255 255 255 255 255 255 255 255 255
255 255 255 255 255 255 255 255 255 255 255 255 255 255 239 185 148 119 107 97 120 163 173 182 185 186 189 190 189 189 194 192 193 194 196 191 194 195 195 193 196 192 192 192 195 192 192 194 192 195 193 193 195 195 191 189 192 190 191 195 194 193 189 193 187 189 191 186 184 184 181 179 175 169 163 155 165 175 203 231 251 255 255 255 255 255 255 255 255 255 255 255
255 255 255 255 255 255 255 255 255 255 255 255 255 255 251 205 160 127 103 92 102 144 172 176 182 188 189 190 191 191 192 189 195 196 193 192 192 193 194 197 194 193 195 195 194 194 193 193 191 192 193 192 191 194 191 191 191 193 192 190 190 192 192 193 186 189 190 189 184 181 186 177 179 172 165 154 163 181 200 226 248 255 255 255 255 255 255 255 255 255 255 255
255 255 255 255 255 255 255 255 255 255 255 255 255 255 255 227 175 138 118 99 96 127 164 175 180 187 186 189 193 192 192 192 192 193 194 192 195 197 193 196 195 196 193 196 194 192 193 196 189 192 192 192 193 191 191 193 193 191 194 191 191 190 187 189 190 189 186 189 186 183 184 183 176 170 167 159 157 170 199 223 247 255 255 255 255 255 255 255 255 255 255 255
255 255 255 255 255 255 255 255 255 255 255 255 255 255 255 244 193 150 123 103 96 102 149 173 178 182 187 187 188 194 190 194 193 195 194 192 197 194 192 197 194 195 194 192 194 193 194 196 193 193 196 194 191 193 193 189 190 190 193 191 192 188 193 192 190 189 187 191 186 188 183 183 179 174 167 160 158 178 198 221 246 255 255 255 255 255 255 255 255 255 255 255
255 255 255 255 255 255 255 255 255 255 255 255 255 255 255 253 216 165 134 108 97 101 126 164 174 178 190 186 188 186 192 192 189 193 193 192 195 192 195 195 195 195 190 198 193 194 194 193 191 197 192 195 194 192 192 195 193 191 193 191 190 193 194 193 189 189 189 191 185 189 182 183 181 177 169 156 159 174 196 218 245 255 255 255 255 255 255 255 255 255 255 255
255 255 255 255 255 255 255 255 255 255 255 255 255 255 255 255 239 188 146 127 100 97 106 150 173 183 185 183 187 186 192 192 190 193 191 192 193 194 196 194 192 193 194 192 195 194 195 194 193 194 194 191 194 194 194 193 195 190 193 193 193 192 192 191 189 193 192 189 187 187 185 180 178 176 168 164 153 173 198 220 243 255 255 255 255 255 255 255 255 255 255 255
255 255 255 255 255 255 255 255 255 255 255 255 255 255 255 255 253 214 169 136 108 101 95 120 165 176 178 184 185 186 190 187 191 191 193 194 191 190 192 195 192 192 194 193 194 192 194 191 194 197 195 195 192 193 194 194 194 192 192 195 193 195 192 193 191 190 193 186 188 187 186 183 182 174 170 160 162 174 191 219 245 255 255 255 255 255 255 255 255 255 255 255
255 255 255 255 255 255 255 255 255 255 255 255 255 255 255 255 255 240 188 154 122 104 97 104 135 171 173 179 182 186 192 189 194 191 193 193 194 192 194 196 194 194 195 197 193 197 192 194 196 195 197 195 195 193 194 192 194 191 193 195 192 197 194 191 186 193 193 189 186 186 186 184 181 175 171 161 159 178 197 218 244 255 255 255 255 255 255 255 255 255 255 255
255 255 255 255 255 255 255 255 255 255 255 255 255 255 255 255 255 253 217 169 140 113 98 95 111 152 170 176 182 188 186 190 192 190 192 191 192 193 193 193 196 194 191 195 193 192 196 195 197 196 195 195 195 193 194 195 191 193 193 196 194 196 191 193 193 190 191 189 190 186 184 182 182 179 171 160 160 182 198 224 246 255 255 255 255 255 255 255 255 255 255 255
255 255 255 255 255 255 255 255 255 255 255 255 255 255 255 255 255 255 241 196 154 127 109 98 99 125 160 174 180 181 181 186 192 188 193 190 193 190 193 192 194 194 194 199 195 194 194 193 194 193 196 194 193 195 193 193 194 198 194 192 194 194 193 193 194 187 188 192 190 186 185 180 176 177 174 160 161 176 200 224 246 255 255 255 255 255 255 255 255 255 255 255
255 255 255 255 255 255 255 255 255 255 255 255 255 255 255 255 255 255 254 226 180 144 120 102 95 101 133 167 174 178 182 187 188 184 188 193 190 192 194 194 190 194 195 198 193 194 192 194 192 194 196 194 195 194 193 191 192 194 191 197 190 193 192 194 191 192 189 188 189 181 187 182 178 177 171 159 165 179 204 227 248 255 255 255 255 255 255 255 255 255 255 255
255 255 255 255 255 255 255 255 255 255 255 255 255 255 255 255 255 255 255 249 208 163 130 115 101 97 108 145 166 179 178 182 180 187 188 188 190 192 191 193 192 194 196 194 198 193 193 194 197 196 197 196 193 195 191 194 194 196 192 197 196 189 197 193 192 192 190 187 188 186 183 182 184 174 169 160 164 184 205 228 249 255 255 255 255 255 255 255 255 255 255 255
255 255 255 255 255 255 255 255 255 255 255 255 255 255 255 255 255 255 255 255 239 193 154 131 109 98 97 115 148 168 176 181 181 184 188 190 185 190 193 194 191 194 195 195 191 194 193 196 193 191 195 195 194 197 197 194 194 193 194 190 195 195 192 193 193 190 189 188 189 187 185 185 178 174 164 161 167 186 207 235 252 255 255 255 255 255 255 255 255 255 255 255
255 255 255 255 255 255 255 255 255 255 255 255 255 255 255 255 255 255 255 255 254 229 184 152 122 107 98 104 120 153 172 175 181 185 187 183 192 188 190 191 194 192 193 190 191 194 194 194 193 194 196 195 193 192 194 194 196 192 190 192 195 194 190 191 189 190 191 185 188 187 183 184 182 169 166 161 176 191 214 238 254 255 255 255 255 255 255 255 255 255 255 255
255 255 255 255 255 255 255 255 255 255 255 255 255 255 255 255 255 255 255 255 255 252 217 173 147 123 104 97 99 116 151 171 178 181 182 187 188 188 188 185 189 192 191 192 193 192 190 196 193 194 191 193 196 193 190 194 195 194 193 192 195 195 191 192 190 189 189 191 185 185 185 179 179 172 163 161 174 194 218 240 255 255 255 255 255 255 255 255 255 255 255 255
255 255 255 255 255 255 255 255 255 255 255 255 255 255 255 255 255 255 255 255 255 255 247 208 168 142 122 100 98 99 123 155 169 177 177 184 182 185 191 185 188 189 189 190 189 192 195 196 194 192 194 198 194 195 191 194 193 192 192 194 194 190 194 193 191 192 191 190 185 183 182 174 173 169 158 165 181 203 227 246 255 255 255 255 255 255 255 255 255 255 255 255
255 255 255 255 255 255 255 255 255 255 255 255 255 255 255 255 255 255 255 255 255 255 255 245 203 162 132 116 104 93 101 117 151 165 174 181 181 181 181 189 189 187 190 189 190 191 192 194 192 196 192 191 194 191 193 193 192 192 191 193 194 191 194 189 191 190 190 182 184 188 180 175 171 170 161 170 184 206 231 250 255 255 255 255 255 255 255 255 255 255 255 255
255 255 255 255 255 255 255 255 255 255 255 255 255 255 255 255 255 255 255 255 255 255 255 255 239 198 163 141 119 98 92 98 113 143 165 177 175 180 182 182 187 186 187 189 187 193 190 190 193 191 195 194 193 191 191 192 192 192 196 192 191 192 186 189 189 185 188 186 185 180 179 178 165 157 161 176 190 215 236 253 255 255 255 255 255 255 255 255 255 255 255 255
255 255 255 255 255 255 255 255 255 255 255 255 255 255 255 255 255 255 255 255 255 255 255 255 255 238 197 161 138 122 106 100 93 109 133 162 167 176 177 185 183 188 187 187 191 189 192 189 185 186 191 191 196 188 195 194 191 195 191 190 192 191 190 189 190 191 183 183 182 180 178 172 165 155 163 178 201 223 244 255 255 255 255 255 255 255 255 255 255 255 255 255
255 255 255 255 255 255 255 255 255 255 255 255 255 255 255 255 255 255 255 255 255 255 255 255 255 255 240 199 165 138 126 103 98 93 105 125 149 169 177 176 181 183 182 186 187 186 188 189 190 190 190 194 191 191 191 192 190 191 189 187 188 189 192 188 188 187 185 180 182 178 175 170 158 156 168 187 205 228 250 255 255 255 255 255 255 255 255 255 255 255 255 255
255 255 255 255 255 255 255 255 255 255 255 255 255 255 255 255 255 255 255 255 255 255 255 255 255 255 255 240 203 166 145 128 114 104 97 95 105 132 164 171 176 177 179 180 184 181 184 189 190 190 186 188 190 191 192 191 187 189 186 190 190 189 185 186 183 183 181 180 178 175 173 164 154 159 172 199 216 238 254 255 255 255 255 255 255 255 255 255 255 255 255 255
255 255 255 255 255 255 255 255 255 255 255 255 255 255 255 255 255 255 255 255 255 255 255 255 255 255 255 255 243 210 173 153 129 115 105 98 96 102 121 142 163 172 169 175 178 182 181 187 186 186 185 187 191 184 186 187 192 188 188 189 187 188 187 184 179 180 181 175 169 169 163 154 156 162 186 205 228 247 255 255 255 255 255 255 255 255 255 255 255 255 255 255
255 255 255 255 255 255 255 255 255 255 255 255 255 255 255 255 255 255 255 255 255 255 255 255 255 255 255 255 255 249 221 186 160 144 123 114 103 101 96 107 121 143 163 173 176 177 178 179 183 182 183 183 185 183 187 185 186 189 188 184 182 183 185 179 183 179 172 172 166 161 154 144 156 174 193 216 238 253 255 255 255 255 255 255 255 255 255 255 255 255 255 255
255 255 255 255 255 255 255 255 255 255 255 255 255 255 255 255 255 255 255 255 255 255 255 255 255 255 255 255 255 255 253 229 196 171 150 134 120 111 101 99 106 109 123 143 159 166 172 177 174 181 179 178 180 182 184 180 184 183 185 181 179 179 181 180 176 170 173 165 159 150 145 155 170 186 202 229 248 255 255 255 255 255 255 255 255 255 255 255 255 255 255 255
255 255 255 255 255 255 255 255 255 255 255 255 255 255 255 255 255 255 255 255 255 255 255 255 255 255 255 255 255 255 255 255 243 212 185 159 142 126 115 102 102 99 100 105 120 135 150 162 168 167 171 178 177 176 177 181 175 177 179 179 176 173 174 172 171 167 165 157 142 146 142 165 180 199 221 241 254 255 255 255 255 255 255 255 255 255 255 255 255 255 255 255
255 255 255 255 255 255 255 255 255 255 255 255 255 255 255 255 255 255 255 255 255 255 255 255 255 255 255 255 255 255 255 255 255 252 230 204 174 156 139 125 120 104 105 103 101 105 112 117 129 140 154 160 167 169 172 169 173 171 170 172 167 166 166 165 156 149 137 130 138 145 156 174 194 214 234 252 255 255 255 255 255 255 255 255 255 255 255 255 255 255 255 255
255 255 255 255 255 255 255 255 255 255 255 255 255 255 255 255 255 255 255 255 255 255 255 255 255 255 255 255 255 255 255 255 255 255 255 245 221 195 173 155 142 129 118 115 104 103 101 100 102 103 108 117 124 137 141 145 144 153 145 148 146 140 133 122 121 115 123 128 140 159 169 192 211 233 250 255 255 255 255 255 255 255 255 255 255 255 255 255 255 255 255 255
255 255 255 255 255 255 255 255 255 255 255 255 255 255 255 255 255 255 255 255 255 255 255 255 255 255 255 255 255 255 255 255 255 255 255 255 254 241 218 197 173 156 145 134 120 120 113 107 104 103 104 100 109 104 101 109 108 109 109 110 108 102 104 102 107 119 123 138 150 171 190 207 231 247 255 255 255 255 255 255 255 255 255 255 255 255 255 255 255 255 255 255
255 255 255 255 255 255 255 255 255 255 255 255 255 255 255 255 255 255 255 255 255 255 255 255 255 255 255 255 255 255 255 255 255 255 255 255 255 255 254 242 222 197 181 164 151 142 139 123 120 117 117 112 109 109 101 111 104 104 104 105 108 102 111 111 117 126 141 153 173 191 211 231 248 255 255 255 255 255 255 255 255 255 255 255 255 255 255 255 255 255 255 255
255 255 255 255 255 255 255 255 255 255 255 255 255 255 255 255 255 255 255 255 255 255 255 255 255 255 255 255 255 255 255 255 255 255 255 255 255 255 255 255 254 247 230 211 191 180 166 156 147 142 137 130 130 126 118 118 121 120 111 118 120 123 122 132 137 152 163 180 200 215 236 250 255 255 255 255 255 255 255 255 255 255 255 255 255 255 255 255 255 255 255 255
255 255 255 255 255 255 255 255 255 255 255 255 255 255 255 255 255 255 255 255 255 255 255 255 255 255 255 255 255 255 255 255 255 255 255 255 255 255 255 255 255 255 255 253 242 227 210 196 184 174 166 160 159 150 143 145 147 142 138 143 147 143 148 154 166 179 193 212 228 245 254 255 255 255 255 255 255 255 255 255 255 255 255 255 255 255 255 255 255 255 255 255
255 255 255 255 255 255 255 255 255 255 255 255 255 255 255 255 255 255 255 255 255 255 255 255 255 255 255 255 255 255 255 255 255 255 255 255 255 255 255 255 255 255 255 255 255 255 253 246 237 222 210 200 192 191 185 181 178 177 172 175 178 179 186 197 203 216 232 245 254 255 255 255 255 255 255 255 255 255 255 255 255 255 255 255 255 255 255 255 255 255 255 255
255 255 255 255 255 255 255 255 255 255 255 255 255 255 255 255 255 255 255 255 255 255 255 255 255 255 255 255 255 255 255 255 255 255 255 255 255 255 255 255 255 255 255 255 255 255 255 255 255 255 253 250 246 238 233 231 225 222 222 222 226 230 237 242 249 254 255 255 255 255 255 255 255 255 255 255 255 255 255 255 255 255 255 255 255 255 255 255 255 255 255 255
255 255 255 255 255 255 255 255 255 255 255 255 255 255 255 255 255 255 255 255 255 255 255 255 255 255 255 255 255 255 255 255 255 255 255 255 255 255 255 255 255 255 255 255 255 255 255 255 255 255 255 255 255 255 255 255 255 255 255 255 255 255 255 255 255 255 255 255 255 255 255 255 255 255 255 255 255 255 255 255 255 255 255 255 255 255 255 255 255 255 255 255
255 255 255 255 255 255 255 255 255 255 255 255 255 255 255 255 255 255 255 255 255 255 255 255 255 255 255 255 255 255 255 255 255 255 255 255 255 255 255 255 255 255 255 255 255 255 255 255 255 255 255 255 255 255 255 255 255 255 255 255 255 255 255 255 255 255 255 255 255 255 255 255 255 255 255 255 255 255 255 255 255 255 255 255 255 255 255 255 255 255 255 255
255 255 255 255 255 255 255 255 255 255 255 255 255 255 255 255 255 255 255 255 255 255 255 255 255 255 255 255 255 255 255 255 255 255 255 255 255 255 255 255 255 255 255 255 255 255 255 255 255 255 255 255 255 255 255 255 255 255 255 255 255 255 255 255 255 255 255 255 255 255 255 255 255 255 255 255 255 255 255 255 255 255 255 255 255 255 255 255 255 255 255 255
255 255 255 255 255 255 255 255 255 255 255 255 255 255 255 255 255 255 255 255 255 255 255 255 255 255 255 255 255 255 255 255 255 255 255 255 255 255 255 255 255 255 255 255 255 255 255 255 255 255 255 255 255 255 255 255 255 255 255 255 255 255 255 255 255 255 255 255 255 255 255 255 255 255 255 255 255 255 255 255 255 255 255 255 255 255 255 255 255 255 255 255
255 255 255 255 255 255 255 255 255 255 255 255 255 255 255 255 255 255 255 255 255 255 255 255 255 255 255 255 255 255 255 255 255 255 255 255 255 255 255 255 255 255 255 255 255 255 255 255 255 255 255 255 255 255 255 255 255 255 255 255 255 255 255 255 255 255 255 255 255 255 255 255 255 255 255 255 255 255 255 255 255 255 255 255 255 255 255 255 255 255 255 255
255 255 255 255 255 255 255 255 255 255 255 255 255 255 255 255 255 255 255 255 255 255 255 255 255 255 255 255 255 255 255 255 255 255 255 255 255 255 255 255 255 255 255 255 255 255 255 255 255 255 255 255 255 255 255 255 255 255 255 255 255 255 255 255 255 255 255 255 255 255 255 255 255 255 255 255 255 255 255 255 255 255 255 255 255 255 255 255 255 255 255 255
255 255 255 255 255 255 255 255 255 255 255 255 255 255 255 255 255 255 255 255 255 255 255 255 255 255 255 255 255 255 255 255 255 255 255 255 255 255 255 255 255 255 255 255 255 255 255 255 255 255 255 255 255 255 255 255 255 255 255 255 255 255 255 255 255 255 255 255 255 255 255 255 255 255 255 255 255 255 255 255 255 255 255 255 255 255 255 255 255 255 255 255
255 255 255 255 255 255 255 255 255 255 255 255 255 255 255 255 255 255 255 255 255 255 255 255 255 255 255 255 255 255 255 255 255 255 255 255 255 255 255 255 255 255 255 255 255 255 255 255 255 255 255 255 255 255 255 255 255 255 255 255 255 255 255 255 255 255 255 255 255 255 255 255 255 255 255 255 255 255 255 255 255 255 255 255 255 255 255 255 255 255 255 255
