P2
36 37
255
253 240 227 204 202 186 194 194 200 199 201 204 202 209 202 206 203 215 210 203 209 207 205 209 206 208 205 205 211 207 202 207 201 197 204 202
254 244 226 213 203 192 194 200 201 203 196 200 207 203 204 209 203 206 208 206 207 206 209 211 205 207 206 203 207 206 205 203 199 202 200 199
255 245 234 216 205 193 192 192 205 199 203 204 205 207 209 208 210 207 212 212 211 210 207 209 203 208 207 205 206 207 207 205 202 202 203 204
255 249 234 220 207 195 187 196 203 198 204 205 205 202 208 208 208 209 208 207 205 210 207 207 206 207 208 204 206 207 206 200 207 206 204 200
255 251 236 225 212 201 196 197 201 200 211 207 204 207 209 205 206 207 207 206 209 210 206 209 208 210 209 207 204 206 207 201 200 200 205 205
255 254 239 228 214 201 196 195 196 200 203 207 208 203 203 207 206 212 209 212 210 211 207 208 213 210 207 209 209 204 207 209 207 205 204 203
255 254 246 232 221 210 198 193 195 201 206 204 207 205 209 210 211 207 214 209 208 206 211 209 213 209 206 209 211 206 210 209 204 206 207 203
255 255 249 238 224 210 201 195 191 202 202 203 205 207 209 207 210 209 208 210 209 211 213 209 209 207 209 203 206 207 207 205 207 207 203 205
255 255 252 242 228 216 201 198 201 200 201 205 206 210 208 209 210 209 208 210 206 209 212 210 206 209 207 211 214 211 204 206 206 202 205 202
255 255 255 248 236 218 211 201 198 203 201 202 204 208 204 211 204 211 207 208 208 210 208 212 209 209 212 207 206 207 206 210 202 206 208 208
255 255 255 251 240 227 213 201 196 198 203 204 207 206 208 207 211 209 205 207 206 213 210 204 210 208 210 204 208 208 208 211 205 206 203 203
255 255 255 253 245 234 216 210 194 199 198 200 199 205 206 205 210 210 209 208 209 208 207 211 210 209 211 210 212 208 209 209 208 206 207 206
255 255 255 255 250 237 223 214 210 197 199 203 197 207 207 209 209 203 210 204 210 210 207 207 209 207 206 208 211 209 212 205 208 207 207 206
255 255 255 255 252 243 232 225 210 201 203 202 200 205 206 205 212 206 206 211 210 205 207 212 208 210 207 203 206 208 209 208 207 206 204 208
255 255 255 255 255 249 237 225 216 207 198 203 201 204 204 206 206 207 209 205 207 208 211 209 209 212 214 210 206 210 209 206 206 206 208 202
255 255 255 255 255 253 245 231 222 212 200 196 203 203 205 206 205 208 209 209 208 209 207 207 213 212 205 205 205 210 209 206 208 203 207 208
255 255 255 255 255 255 251 240 231 214 211 202 202 203 208 203 203 208 209 211 203 206 208 210 209 208 207 204 206 209 208 210 208 207 206 207
255 255 255 255 255 255 254 247 236 223 211 206 204 201 200 201 205 208 203 207 207 206 204 207 208 205 212 209 204 211 204 205 209 204 207 201
255 255 255 255 255 255 255 251 242 233 219 211 203 204 198 201 204 205 205 206 206 205 208 208 206 204 210 210 202 206 204 208 206 208 203 202
255 255 255 255 255 255 255 255 248 239 229 219 211 205 198 198 201 205 206 205 206 206 207 205 210 203 204 203 210 210 210 209 205 201 207 204
255 255 255 255 255 255 255 255 254 248 236 227 216 208 199 198 203 200 205 209 199 205 207 199 204 210 208 204 204 208 201 208 203 201 204 205
255 255 255 255 255 255 255 255 255 253 247 235 228 217 210 200 200 202 197 202 203 198 197 203 202 206 210 207 203 208 202 204 204 200 203 203
255 255 255 255 255 255 255 255 255 255 252 244 237 222 216 203 201 198 198 202 202 202 201 205 203 204 207 207 204 207 203 205 206 207 204 203
255 255 255 255 255 255 255 255 255 255 255 251 244 233 226 215 204 197 201 200 205 200 201 203 201 198 202 206 208 204 207 199 202 201 207 204
255 255 255 255 255 255 255 255 255 255 255 255 250 245 237 223 218 208 199 196 196 201 198 200 201 203 202 204 202 204 196 199 196 199 198 201
255 255 255 255 255 255 255 255 255 255 255 255 255 251 243 236 225 218 209 202 195 193 198 196 197 196 200 205 198 204 197 200 197 194 202 198
255 255 255 255 255 255 255 255 255 255 255 255 255 255 251 243 234 227 216 211 202 200 194 194 197 196 197 194 200 197 199 199 196 199 199 192
255 255 255 255 255 255 255 255 255 255 255 255 255 255 255 251 246 236 229 222 212 200 196 196 194 189 195 195 194 192 197 194 194 198 191 191
255 255 255 255 255 255 255 255 255 255 255 255 255 255 255 255 254 248 241 230 226 211 207 200 191 189 190 189 195 189 189 195 190 192 190 192
255 255 255 255 255 255 255 255 255 255 255 255 255 255 255 255 255 254 250 243 233 229 216 208 205 201 188 185 187 185 183 188 187 183 186 182
255 255 255 255 255 255 255 255 255 255 255 255 255 255 255 255 255 255 255 252 245 241 230 225 217 207 202 199 192 183 183 180 173 174 173 178
255 255 255 255 255 255 255 255 255 255 255 255 255 255 255 255 255 255 255 255 254 250 246 238 231 221 213 207 198 196 192 184 182 178 176 165
255 255 255 255 255 255 255 255 255 255 255 255 255 255 255 255 255 255 255 255 255 255 254 250 241 236 228 223 219 210 207 198 189 177 183 174
255 255 255 255 255 255 255 255 255 255 255 255 255 255 255 255 255 255 255 255 255 255 255 255 254 249 243 238 228 225 218 215 210 203 194 192
255 255 255 255 255 255 255 255 255 255 255 255 255 255 255 255 255 255 255 255 255 255 255 255 255 255 253 252 246 244 236 231 227 223 214 207
255 255 255 255 255 255 255 255 255 255 255 255 255 255 255 255 255 255 255 255 255 255 255 255 255 255 255 255 255 254 252 250 243 241 239 234
255 255 255 255 255 255 255 255 255 255 255 255 255 255 255 255 255 255 255 255 255 255 255 255 255 255 255 255 255 255 255 255 255 254 253 250
