P2
96 96
255
255 255 255 255 255 255 255 255 255 255 255 255 255 255 255 255 255 255 255 255 255 255 255 255 255 255 255 255 255 255 255 255 255 255 255 255 255 255 255 255 255 255 255 255 254 253 253 254 253 254 254 254 255 255 255 255 255 255 255 255 255 255 255 255 255 255 255 255 255 255 255 255 255 255 255 255 255 255 255 255 255 255 255 255 255 255 255 255 255 255 255 255 255 255 255 255
255 255 255 255 255 255 255 255 255 255 255 255 255 255 255 255 255 255 255 255 255 255 255 255 255 255 255 255 255 255 255 255 255 255 255 255 255 254 253 251 249 249 244 244 242 241 238 238 238 240 241 240 243 246 247 248 252 253 254 255 255 255 255 255 255 255 255 255 255 255 255 255 255 255 255 255 255 255 255 255 255 255 255 255 255 255 255 255 255 255 255 255 255 255 255 255
255 255 255 255 255 255 255 255 255 255 255 255 255 255 255 255 255 255 255 255 255 255 255 255 255 255 255 255 255 255 255 255 255 254 253 250 245 243 237 235 233 228 224 223 219 221 218 218 220 218 223 224 222 228 228 232 236 241 240 246 251 253 254 255 255 255 255 255 255 255 255 255 255 255 255 255 255 255 255 255 255 255 255 255 255 255 255 255 255 255 255 255 255 255 255 255
255 255 255 255 255 255 255 255 255 255 255 255 255 255 255 255 255 255 255 255 255 255 255 255 255 255 255 255 255 255 255 252 249 244 240 236 229 222 220 214 211 210 207 205 204 201 197 202 202 203 204 205 206 210 213 216 213 219 225 232 233 238 245 249 253 255 255 255 255 255 255 255 255 255 255 255 255 255 255 255 255 255 255 255 255 255 255 255 255 255 255 255 255 255 255 255
255 255 255 255 255 255 255 255 255 255 255 255 255 255 255 255 255 255 255 255 255 255 255 255 255 255 255 255 254 252 247 241 234 226 225 216 210 207 201 194 194 197 188 194 185 189 185 186 186 183 187 189 192 191 196 193 199 203 208 208 217 219 226 232 237 247 251 254 255 255 255 255 255 255 255 255 255 255 255 255 255 255 255 255 255 255 255 255 255 255 255 255 255 255 255 255
255 255 255 255 255 255 255 255 255 255 255 255 255 255 255 255 255 255 255 255 255 255 255 255 255 255 254 251 245 234 230 223 214 210 199 196 195 192 186 184 185 180 179 180 176 174 176 176 174 175 178 181 177 176 182 180 182 187 188 190 198 206 207 212 222 230 237 241 249 255 255 255 255 255 255 255 255 255 255 255 255 255 255 255 255 255 255 255 255 255 255 255 255 255 255 255
255 255 255 255 255 255 255 255 255 255 255 255 255 255 255 255 255 255 255 255 255 255 255 255 255 250 245 238 227 216 210 205 195 189 190 179 180 181 176 173 176 176 178 171 178 180 175 183 180 173 172 175 175 175 170 172 176 177 181 177 189 187 191 200 206 210 216 226 234 245 251 255 255 255 255 255 255 255 255 255 255 255 255 255 255 255 255 255 255 255 255 255 255 255 255 255
255 255 255 255 255 255 255 255 255 255 255 255 255 255 255 255 255 255 255 255 255 255 255 252 243 235 226 218 208 203 193 186 185 180 177 177 174 177 172 176 178 175 182 184 179 176 188 187 187 183 183 185 180 180 178 172 180 173 173 173 172 175 178 185 192 197 209 209 217 226 235 245 253 255 255 255 255 255 255 255 255 255 255 255 255 255 255 255 255 255 255 255 255 255 255 255
255 255 255 255 255 255 255 255 255 255 255 255 255 255 255 255 255 255 255 255 255 254 248 237 228 221 215 206 197 190 181 172 177 173 174 173 179 183 184 185 188 186 188 187 187 190 190 190 188 194 191 192 188 186 182 181 184 187 184 181 174 175 170 174 173 188 185 198 202 209 219 230 237 246 253 255 255 255 255 255 255 255 255 255 255 255 255 255 255 255 255 255 255 255 255 255
255 255 255 255 255 255 255 255 255 255 255 255 255 255 255 255 255 255 255 255 251 244 232 224 209 205 195 186 181 180 173 174 176 181 179 185 190 190 181 191 192 194 192 195 190 190 192 188 193 192 194 194 193 193 189 191 188 190 188 187 183 183 178 180 173 176 174 186 190 194 203 212 222 233 243 252 255 255 255 255 255 255 255 255 255 255 255 255 255 255 255 255 255 255 255 255
255 255 255 255 255 255 255 255 255 255 255 255 255 255 255 255 255 255 255 248 240 230 218 208 197 188 182 177 171 171 176 176 183 183 188 189 191 192 192 190 191 194 193 189 189 195 194 196 193 191 193 193 196 191 198 190 196 193 189 189 189 191 188 181 185 174 169 174 175 184 188 201 206 218 229 237 247 255 255 255 255 255 255 255 255 255 255 255 255 255 255 255 255 255 255 255
255 255 255 255 255 255 255 255 255 255 255 255 255 255 255 255 255 253 246 237 223 212 202 193 189 179 175 172 176 184 185 190 187 192 190 193 192 191 193 196 199 197 199 191 199 193 192 195 197 194 198 193 198 193 194 194 196 190 189 199 190 191 194 187 189 184 182 177 172 178 178 181 191 204 213 227 236 244 254 255 255 255 255 255 255 255 255 255 255 255 255 255 255 255 255 255
255 255 255 255 255 255 255 255 255 255 255 255 255 255 255 255 254 244 232 220 211 198 187 182 170 180 176 183 183 187 193 188 190 191 196 196 194 192 198 199 198 189 196 199 202 196 200 197 195 194 195 202 195 200 195 194 193 195 195 193 191 192 191 190 188 186 185 183 178 172 178 171 179 187 197 207 220 232 244 254 255 255 255 255 255 255 255 255 255 255 255 255 255 255 255 255
255 255 255 255 255 255 255 255 255 255 255 255 255 255 255 252 245 227 220 207 193 185 176 170 171 176 181 190 188 186 198 193 197 198 193 198 197 194 202 198 196 200 199 197 200 196 199 198 198 196 199 199 198 195 199 200 194 196 199 195 200 197 191 196 194 186 189 182 185 181 179 173 166 183 190 196 207 219 231 242 253 255 255 255 255 255 255 255 255 255 255 255 255 255 255 255
255 255 255 255 255 255 255 255 255 255 255 255 255 255 252 243 230 219 205 191 182 175 176 176 179 183 188 187 193 196 194 192 200 199 197 194 196 202 195 196 198 200 200 197 199 200 202 200 205 200 202 202 201 198 195 193 198 196 198 196 195 195 197 197 197 188 198 198 192 189 185 178 176 174 175 183 189 206 214 232 242 253 255 255 255 255 255 255 255 255 255 255 255 255 255 255
255 255 255 255 255 255 255 255 255 255 255 255 255 253 241 228 216 202 191 182 175 180 177 183 187 189 191 193 194 197 197 194 197 195 199 199 194 199 200 199 199 200 204 200 202 202 203 197 204 201 197 200 200 199 200 199 199 201 198 195 197 199 203 193 199 195 198 197 192 190 191 185 181 185 170 175 182 196 207 216 228 241 252 255 255 255 255 255 255 255 255 255 255 255 255 255
255 255 255 255 255 255 255 255 255 255 255 255 253 240 230 217 205 192 179 173 173 179 189 190 188 191 195 194 199 198 197 197 201 200 197 195 199 197 199 197 198 198 200 200 195 203 202 198 201 198 201 204 202 199 202 199 203 203 202 199 193 199 194 195 201 196 196 190 200 194 189 189 189 184 178 171 177 179 192 205 217 224 243 253 255 255 255 255 255 255 255 255 255 255 255 255
255 255 255 255 255 255 255 255 255 255 255 254 244 227 213 201 196 181 176 168 185 184 184 194 189 196 189 198 196 194 203 195 200 202 200 202 197 203 195 200 201 197 202 204 202 201 198 200 200 202 200 203 201 199 207 194 200 203 201 198 201 200 200 195 200 195 193 198 197 197 195 193 193 191 184 179 173 178 181 190 206 218 231 245 254 255 255 255 255 255 255 255 255 255 255 255
255 255 255 255 255 255 255 255 255 255 254 244 231 214 203 190 182 180 177 178 185 181 189 191 194 200 197 196 193 194 197 197 199 202 202 201 201 198 200 199 200 203 201 200 203 198 200 202 200 202 203 200 198 202 202 198 197 200 201 201 204 200 200 201 197 199 200 196 202 199 197 194 196 193 189 181 176 178 175 179 195 205 216 234 245 255 255 255 255 255 255 255 255 255 255 255
255 255 255 255 255 255 255 255 255 255 248 238 219 206 192 180 177 172 181 187 186 190 199 196 193 198 196 197 196 199 199 200 199 197 204 200 204 201 200 199 202 204 200 200 197 199 203 204 197 202 198 199 202 203 201 201 200 200 202 197 202 201 199 197 195 197 199 197 199 202 196 201 195 194 189 186 187 178 170 174 186 194 204 218 236 250 255 255 255 255 255 255 255 255 255 255
255 255 255 255 255 255 255 255 255 252 239 227 209 196 186 174 175 184 185 190 190 193 197 192 197 199 198 193 198 198 201 197 196 197 208 201 201 201 199 199 201 202 198 199 202 201 203 201 200 202 202 198 201 198 202 199 199 201 201 201 201 201 199 203 202 202 200 195 199 202 199 196 194 196 194 188 187 189 186 176 175 182 194 210 221 239 252 255 255 255 255 255 255 255 255 255
255 255 255 255 255 255 255 255 254 245 227 212 198 186 179 174 180 185 188 195 192 197 197 196 197 198 201 198 202 198 205 203 202 203 200 201 204 204 202 197 197 204 197 196 199 202 202 198 200 203 196 203 201 202 201 203 197 203 197 199 197 203 203 203 199 202 202 206 197 201 200 201 197 197 196 197 197 185 185 176 167 180 184 200 211 231 242 254 255 255 255 255 255 255 255 255
255 255 255 255 255 255 255 255 248 231 218 201 185 178 174 177 188 188 184 198 196 198 196 200 196 201 202 202 197 197 200 202 199 199 199 200 204 203 199 200 207 204 197 200 199 200 201 201 204 202 198 201 199 199 196 202 200 203 202 198 205 195 199 199 201 201 202 201 201 201 194 198 203 204 196 191 192 187 187 184 181 173 178 188 198 215 232 248 255 255 255 255 255 255 255 255
255 255 255 255 255 255 255 252 239 224 207 193 178 176 175 180 188 192 194 199 196 199 196 202 197 199 196 200 200 198 200 202 204 200 200 201 204 198 196 197 199 199 201 202 199 201 199 198 201 202 201 200 201 204 196 201 200 201 200 200 200 198 201 200 200 201 202 203 201 201 204 199 203 198 200 194 191 192 188 188 185 176 170 185 191 206 221 238 251 255 255 255 255 255 255 255
255 255 255 255 255 255 254 244 229 216 196 185 180 176 180 185 193 193 189 199 196 201 196 199 198 201 197 200 206 204 202 198 203 201 201 200 199 197 204 200 198 200 199 202 198 197 203 201 198 198 201 203 200 203 197 197 198 202 205 202 203 202 200 199 202 199 201 201 197 203 202 199 199 197 202 200 199 196 191 189 185 180 175 178 188 196 213 227 245 254 255 255 255 255 255 255
255 255 255 255 255 255 251 235 222 203 186 174 175 181 184 189 192 192 194 198 199 204 198 200 203 202 200 198 202 204 201 203 196 202 202 203 202 201 202 195 199 200 200 200 202 198 202 201 203 204 200 199 203 193 201 198 201 199 200 203 200 201 204 201 196 200 200 203 202 198 198 201 196 197 201 196 200 196 189 191 190 184 179 175 176 188 204 216 233 250 255 255 255 255 255 255
255 255 255 255 255 254 242 223 208 195 183 177 177 187 187 191 194 193 198 198 203 201 200 201 201 199 201 199 202 200 195 198 200 199 203 202 201 204 197 206 201 198 197 203 201 198 203 198 202 202 199 202 192 199 206 198 200 202 199 199 199 201 205 198 206 202 204 200 204 199 204 197 200 200 197 199 193 193 195 190 190 190 181 172 172 183 199 214 225 243 254 255 255 255 255 255
255 255 255 255 255 250 237 216 199 185 177 176 178 185 188 196 194 199 200 195 197 197 201 198 196 196 198 198 203 200 200 201 200 199 197 200 198 199 202 204 201 200 198 201 197 200 199 198 201 199 198 201 200 201 202 200 206 200 200 201 197 198 201 201 201 201 198 199 199 200 203 197 199 201 199 202 198 199 191 196 192 192 183 183 176 174 193 198 219 234 251 255 255 255 255 255
255 255 255 255 254 241 227 211 192 185 177 175 184 194 190 194 197 195 196 200 200 193 194 201 198 200 202 201 199 199 202 203 203 202 198 202 203 198 203 200 198 198 201 200 194 203 200 202 198 195 196 203 202 198 201 195 199 205 202 208 202 199 203 196 197 201 203 204 203 204 200 197 200 200 202 202 196 198 198 197 189 188 186 187 180 175 175 194 208 224 243 254 255 255 255 255
255 255 255 255 250 234 215 204 186 176 174 178 186 190 199 196 196 197 202 197 199 201 196 196 198 200 202 202 200 202 203 203 204 201 200 200 197 201 201 198 203 199 197 199 198 201 199 197 200 199 199 201 196 196 201 200 204 202 200 201 198 199 201 200 200 199 199 199 202 200 196 199 199 201 202 196 194 198 197 194 196 191 189 187 181 174 171 187 203 218 236 251 255 255 255 255
255 255 255 255 244 230 210 189 181 173 176 181 192 192 195 196 196 196 201 199 201 201 204 203 203 201 195 202 201 198 203 199 199 199 200 200 202 197 202 197 200 202 200 199 200 201 202 196 201 201 198 197 200 199 198 198 196 204 204 197 196 200 200 201 200 201 196 201 205 204 200 203 198 198 201 204 199 198 197 198 198 193 191 185 185 178 169 178 196 214 230 244 255 255 255 255
255 255 255 253 238 220 205 195 173 170 181 191 190 192 196 193 195 200 198 199 197 201 201 201 198 203 198 203 201 197 200 205 201 204 202 200 200 198 202 197 197 199 195 202 196 196 201 195 199 200 200 199 199 201 200 200 200 202 196 191 199 201 199 203 202 197 202 203 199 200 200 202 198 199 201 196 197 201 198 199 201 197 195 189 189 177 172 171 186 203 223 239 252 255 255 255
255 255 255 248 231 215 204 186 176 179 185 191 198 198 196 197 194 199 198 195 200 207 199 199 203 200 198 201 203 202 204 199 201 201 199 202 201 200 199 197 200 199 199 199 201 196 198 192 194 197 195 201 196 198 199 194 196 197 198 199 194 202 198 196 197 205 199 200 202 204 200 200 201 201 196 195 203 199 194 204 200 194 197 187 190 180 175 170 185 195 215 232 250 255 255 255
255 255 255 243 223 209 193 181 172 177 182 193 189 197 195 197 195 202 198 196 201 199 201 202 197 200 200 198 202 199 198 205 197 198 197 200 199 199 201 196 197 193 199 193 200 196 194 199 196 196 195 195 198 196 197 197 195 196 194 202 195 200 203 202 200 199 201 200 202 196 202 199 203 198 201 200 200 202 201 201 197 199 193 191 192 190 178 169 181 192 205 228 244 255 255 255
255 255 253 239 223 206 189 177 175 187 189 189 191 197 194 200 200 199 201 201 203 201 199 203 199 200 198 202 198 199 197 198 195 197 201 200 200 196 193 195 198 194 200 194 200 199 197 199 194 199 197 195 194 200 199 197 197 202 198 198 201 201 201 200 200 201 199 201 198 199 204 204 199 200 202 202 199 199 201 204 195 197 195 194 192 185 184 174 178 188 207 224 235 253 255 255
255 255 250 233 216 203 184 175 181 187 188 193 192 196 195 196 200 199 201 200 201 198 198 203 199 196 201 205 197 203 206 197 198 200 200 201 202 201 195 196 192 198 198 200 196 191 194 195 195 199 195 194 196 196 197 197 195 194 194 202 197 197 199 197 195 196 202 195 197 201 200 202 205 202 202 196 196 201 197 199 199 199 202 191 197 192 187 173 174 180 199 217 234 251 255 255
255 255 247 227 210 188 184 174 179 188 193 189 198 194 198 202 198 199 205 200 201 200 196 197 197 201 198 201 200 205 204 196 197 198 196 201 194 194 194 194 194 192 199 195 198 191 197 196 194 196 195 196 190 195 197 201 197 196 202 196 194 196 201 202 198 199 197 198 202 202 204 200 202 198 203 202 202 199 203 198 197 195 195 197 196 187 183 183 173 182 195 209 230 247 255 255
255 254 243 224 204 187 180 173 182 190 191 189 197 200 194 195 195 202 197 201 198 201 203 201 199 203 202 200 199 197 195 200 203 197 195 202 198 192 198 195 196 200 200 196 194 192 196 199 197 199 198 198 194 196 198 198 193 198 197 198 199 199 204 199 199 200 197 201 201 198 202 196 201 201 200 200 205 196 199 199 198 197 195 202 196 191 182 184 172 173 188 207 222 243 254 255
255 254 238 217 204 187 174 173 184 190 196 195 201 199 196 198 194 196 197 201 198 199 199 198 202 201 200 200 197 198 198 199 197 202 196 200 196 199 194 192 195 197 202 197 197 197 199 192 195 198 196 196 197 195 199 197 196 195 194 201 195 199 199 202 197 204 198 199 199 204 200 202 202 204 201 204 199 199 199 197 197 196 198 196 194 194 187 183 176 181 191 200 223 239 253 255
255 249 233 216 202 186 172 173 177 192 191 192 196 198 196 196 199 201 202 201 198 202 202 202 199 201 195 202 199 205 200 196 198 199 201 199 200 199 192 195 197 197 194 195 198 194 196 195 197 191 197 193 194 195 197 199 195 197 194 204 197 196 201 196 197 198 199 202 196 202 199 197 201 201 203 202 199 200 199 198 198 195 197 196 196 199 187 186 179 173 188 198 216 235 252 255
255 248 232 213 201 174 179 181 186 189 189 190 193 202 201 201 199 196 201 199 202 199 203 200 208 202 201 201 200 196 198 197 197 198 195 200 198 195 191 199 194 194 192 196 194 196 197 195 197 195 202 194 194 199 195 198 194 194 197 195 199 201 199 195 196 205 199 194 204 199 198 199 201 203 199 202 201 201 200 201 199 198 194 197 197 191 190 186 176 172 178 196 214 233 249 255
255 247 228 211 190 181 173 177 189 187 197 196 192 198 197 202 200 202 204 200 198 199 202 201 197 201 198 200 202 199 197 199 200 203 200 198 201 196 196 197 196 194 195 198 194 193 197 194 192 194 193 192 197 198 196 196 195 194 197 198 198 192 198 197 199 200 195 199 202 198 201 199 204 201 202 200 206 199 202 201 203 202 198 200 196 192 191 185 183 175 175 197 210 229 247 255
255 245 224 207 189 183 172 182 189 198 196 198 193 198 199 195 197 200 197 202 197 202 201 199 202 205 199 197 199 203 199 194 199 202 197 199 193 194 197 192 195 192 195 198 194 189 194 196 196 196 193 197 196 196 194 192 196 203 196 198 195 192 198 194 196 198 199 198 194 200 201 203 199 201 202 198 201 199 200 196 198 198 197 198 195 193 188 184 184 174 182 192 211 224 244 255
254 244 226 206 187 180 179 181 191 193 195 192 199 198 202 201 201 199 200 201 199 202 204 199 201 201 199 195 201 196 203 197 199 198 195 197 196 194 196 196 193 192 196 199 192 199 193 194 189 194 192 197 190 190 194 199 200 197 199 199 197 199 196 194 202 202 201 201 195 199 199 199 202 199 200 205 199 204 197 202 199 197 197 196 193 191 193 188 182 172 175 189 206 224 243 255
254 239 224 204 187 179 178 187 183 193 192 198 201 198 195 199 199 200 198 199 200 202 203 205 200 198 198 200 196 193 198 194 195 199 193 196 194 200 198 196 194 199 196 194 198 196 198 193 197 196 190 194 196 199 196 196 194 190 197 198 197 200 202 199 198 197 198 202 202 200 202 205 203 201 205 200 202 200 199 198 200 200 203 195 198 195 193 189 179 180 172 188 207 225 242 255
254 240 221 201 187 174 178 183 184 192 196 194 198 198 198 196 205 202 199 201 202 203 200 203 203 198 203 199 200 196 193 194 201 196 200 193 198 194 197 193 189 199 199 194 193 197 196 199 197 199 194 197 199 193 198 195 197 188 195 194 193 195 198 198 202 197 198 200 202 201 199 201 202 205 200 200 195 204 202 201 196 199 198 193 196 191 192 191 185 175 179 186 208 219 240 254
254 238 222 203 184 175 173 186 183 192 197 194 197 197 194 199 208 200 201 199 201 199 198 203 197 203 198 199 198 200 199 199 196 197 196 196 194 196 187 198 195 200 196 197 196 195 192 200 193 195 192 195 193 193 192 196 198 196 193 190 195 202 198 201 201 200 202 201 201 200 201 200 200 206 204 203 199 198 203 201 204 196 199 193 198 194 195 187 179 179 178 189 201 223 239 254
253 238 220 201 192 173 174 182 188 192 197 198 197 197 199 204 198 200 203 201 200 203 201 199 202 202 205 198 197 195 201 199 201 198 199 198 195 196 191 196 194 199 196 195 189 194 192 190 192 193 196 200 196 197 194 192 191 194 198 197 195 195 198 203 196 198 197 199 201 202 207 201 197 200 199 199 200 199 202 204 201 198 201 194 195 196 189 193 179 180 174 186 201 220 239 253
253 238 219 202 183 176 175 183 190 192 197 194 200 198 193 197 198 203 202 200 201 201 196 201 199 201 194 198 198 193 197 201 199 199 197 198 198 194 198 195 198 192 191 194 194 190 196 198 193 194 198 198 198 195 196 194 193 194 193 199 193 197 196 196 195 198 197 199 198 199 201 203 198 197 201 200 203 202 202 197 199 198 197 198 197 194 194 190 185 180 177 188 204 220 239 254
252 236 222 201 182 179 176 183 185 192 190 199 196 196 201 198 201 200 200 199 202 198 200 206 203 202 200 201 201 200 198 197 196 197 195 198 198 198 195 196 191 197 196 193 204 194 190 195 194 196 196 192 196 194 194 194 199 195 196 194 196 195 198 198 199 199 197 198 202 200 201 202 198 203 201 202 196 198 202 202 199 203 197 202 200 195 189 186 183 172 176 187 199 223 239 253
254 239 220 204 192 171 183 185 188 189 195 192 197 198 199 199 200 197 200 202 202 201 203 202 198 203 203 201 199 194 196 203 196 201 202 198 198 193 197 194 191 194 194 196 194 191 195 195 197 198 196 195 194 193 197 194 197 198 193 196 196 201 196 196 197 197 194 200 201 198 199 203 202 203 199 202 204 205 200 204 199 200 196 196 197 197 192 184 184 176 176 187 205 219 243 253
254 243 222 206 189 169 172 183 187 190 200 197 193 201 196 201 198 198 203 200 201 199 198 202 201 198 197 200 196 201 197 201 196 198 199 198 199 199 194 191 197 200 193 194 195 196 192 196 198 192 191 195 193 192 198 198 194 196 199 191 195 199 195 199 202 202 199 200 197 194 200 203 199 201 201 202 201 199 201 202 204 198 198 197 197 202 191 185 179 176 179 186 201 221 242 254
255 243 222 207 190 176 174 185 186 192 191 196 199 197 204 200 202 197 198 204 199 201 199 198 199 200 199 194 201 198 197 201 195 191 194 193 197 199 200 196 197 201 193 193 197 193 197 194 195 193 193 197 198 193 196 191 197 199 199 197 197 195 200 196 201 199 194 203 196 201 199 200 200 202 198 202 201 198 200 198 204 200 202 202 194 195 194 186 182 170 174 188 206 225 242 255
254 243 227 207 186 181 176 179 185 196 194 195 200 200 197 198 205 199 200 204 200 200 198 198 199 201 198 198 197 202 197 198 199 196 201 199 201 197 198 194 195 196 195 195 194 195 192 198 196 193 198 195 193 197 198 198 194 195 196 199 199 201 198 197 198 203 198 202 204 201 203 206 202 201 198 200 200 198 202 201 198 200 199 200 196 193 194 188 182 175 181 187 207 228 245 255
255 247 230 209 197 176 173 180 187 190 191 197 193 199 198 201 201 199 203 197 198 207 201 201 201 200 198 198 197 201 198 198 198 196 195 196 191 194 200 194 191 195 196 200 197 194 194 195 199 192 194 194 192 192 197 198 191 195 194 197 196 203 197 197 198 201 199 197 202 196 202 205 202 202 201 198 201 203 201 198 196 199 198 198 194 194 190 188 179 168 178 191 208 232 247 255
255 248 233 213 195 179 179 180 187 191 199 198 202 198 197 200 198 199 203 199 202 200 201 204 199 200 198 199 196 196 198 197 198 202 198 194 198 196 198 201 194 194 197 193 198 192 191 189 195 193 196 195 192 195 194 198 192 196 192 197 197 196 198 199 197 200 199 198 198 196 204 199 198 201 199 201 200 200 199 199 199 197 200 190 198 193 192 186 178 175 182 191 216 233 249 255
255 252 233 217 198 189 177 176 185 185 192 198 196 200 200 197 201 204 202 203 201 198 199 200 202 197 199 198 198 198 204 200 200 198 197 197 197 197 198 192 195 201 192 192 197 194 200 194 204 194 197 194 193 192 192 196 193 194 194 197 197 197 198 198 196 197 203 201 200 197 200 199 199 205 201 195 204 200 200 195 195 197 198 199 191 193 187 185 177 176 180 204 218 234 252 255
255 253 238 223 209 187 180 176 183 190 196 194 196 199 199 199 204 202 201 201 198 206 201 196 197 198 200 200 202 195 195 200 197 196 203 203 199 196 188 198 201 201 199 199 195 194 198 195 192 191 190 193 197 196 199 198 198 197 202 193 199 196 197 196 202 202 197 196 200 197 204 203 201 197 204 202 197 201 205 199 202 192 199 196 196 189 185 185 171 170 186 202 220 242 252 255
255 254 242 221 203 187 178 171 183 187 197 197 194 195 201 200 199 197 202 201 204 199 204 203 200 203 202 203 200 204 200 199 203 199 198 197 197 199 200 199 193 198 199 195 197 197 195 197 195 199 195 196 195 198 196 198 195 202 199 203 197 197 200 203 202 196 203 196 201 201 201 198 196 198 205 201 200 200 201 199 198 196 197 194 194 195 186 180 177 179 191 203 224 242 254 255
255 255 246 227 209 194 183 171 179 187 192 191 192 198 195 200 202 197 202 200 202 200 203 207 200 201 200 203 199 201 199 196 196 196 198 200 195 199 194 194 196 200 196 196 196 200 197 195 197 192 198 195 197 198 195 195 198 197 200 197 195 196 199 200 199 198 198 199 201 199 198 198 200 201 200 203 198 200 200 197 201 198 194 197 197 194 187 183 173 177 196 212 232 245 255 255
255 255 249 233 216 202 186 171 179 186 189 191 197 199 197 196 203 201 205 199 197 203 194 200 199 200 202 201 202 197 198 198 201 198 200 199 195 197 197 198 199 200 195 198 198 199 202 198 195 199 197 200 197 193 196 199 195 199 199 202 202 200 196 198 198 197 202 198 203 198 199 203 203 197 199 199 201 198 200 202 195 201 198 198 190 189 184 173 178 185 197 215 234 248 255 255
255 255 252 239 220 204 186 172 174 183 188 190 195 195 199 203 202 199 199 205 202 201 196 206 200 202 198 197 198 200 197 199 200 199 199 197 201 198 198 197 197 198 193 195 200 197 190 192 197 197 196 199 196 195 196 202 199 199 198 197 197 202 198 199 197 200 202 199 205 199 198 204 198 202 201 203 201 203 201 200 199 192 196 191 194 187 178 172 179 188 204 218 238 252 255 255
255 255 255 244 226 208 192 181 173 179 188 194 196 190 195 196 197 202 200 197 197 199 198 199 201 201 199 203 197 201 202 194 198 197 200 200 198 196 201 199 204 197 198 196 197 195 193 197 200 193 194 195 199 197 197 193 197 197 198 198 203 202 204 203 201 202 200 200 199 201 203 199 201 199 199 199 196 200 193 201 197 197 196 195 187 185 179 170 184 192 206 229 244 255 255 255
255 255 255 248 234 212 198 186 169 175 186 187 190 197 196 199 198 197 199 201 202 201 205 201 201 206 200 203 200 204 196 199 196 199 196 201 197 196 195 201 197 196 199 198 197 196 194 198 199 201 196 196 197 200 197 199 198 201 199 199 201 198 198 200 202 197 198 202 199 202 199 200 202 202 197 203 197 199 199 201 198 201 195 186 188 184 176 172 184 199 216 233 250 255 255 255
255 255 255 253 241 224 205 186 175 172 180 185 188 197 197 196 199 199 201 200 201 206 197 202 204 198 198 204 201 200 200 196 195 204 201 200 196 199 197 196 198 199 197 196 193 200 199 199 200 199 201 197 195 193 196 199 199 202 199 198 198 196 195 202 203 198 201 199 201 198 201 200 200 204 202 201 201 201 198 197 196 196 190 195 186 183 171 181 193 205 220 241 253 255 255 255
255 255 255 255 243 226 208 199 183 176 179 181 190 190 196 190 196 200 194 203 200 199 199 198 201 205 202 199 200 201 201 200 202 196 201 196 200 200 196 198 201 197 200 191 201 201 199 201 198 196 199 193 200 199 202 198 200 198 202 199 205 199 200 198 202 200 202 203 200 202 203 201 201 195 198 198 198 201 193 199 198 194 186 188 184 179 176 176 196 210 227 246 255 255 255 255
255 255 255 255 251 236 220 205 188 179 174 180 190 197 195 194 200 197 194 201 199 204 201 204 199 201 197 202 200 198 201 201 205 203 197 202 199 197 198 196 200 197 199 201 201 200 199 198 200 200 201 198 202 198 194 204 201 198 202 201 199 201 199 205 202 200 203 199 200 203 203 202 203 200 198 200 197 197 196 203 193 191 192 189 184 171 173 192 203 216 238 250 255 255 255 255
255 255 255 255 255 242 227 211 194 183 175 178 187 188 194 193 193 195 197 202 199 201 199 204 201 203 201 198 198 201 198 202 199 200 201 201 205 199 203 198 204 199 199 201 199 192 196 193 202 199 204 198 197 199 198 201 198 199 199 203 198 203 199 200 201 201 196 202 201 201 204 199 195 200 196 202 200 197 196 198 196 184 188 183 176 170 184 195 211 225 245 254 255 255 255 255
255 255 255 255 255 251 234 216 201 191 174 178 179 187 194 193 195 198 197 203 200 199 196 201 200 203 204 203 197 200 201 198 199 203 201 197 199 204 197 202 200 197 202 198 201 200 200 199 196 204 201 200 200 201 199 196 200 201 201 202 201 203 198 200 199 206 197 206 201 201 198 201 200 202 200 202 197 195 195 196 191 189 191 181 170 175 186 202 220 234 250 255 255 255 255 255
255 255 255 255 255 254 243 224 214 196 183 170 180 184 189 189 194 197 196 201 200 199 194 199 197 201 199 198 201 200 200 200 205 199 199 200 199 201 200 206 204 201 202 198 203 200 201 197 197 200 202 202 200 206 203 197 201 201 201 201 201 204 202 203 202 199 201 200 202 200 201 204 197 203 195 204 196 194 194 194 191 187 180 171 177 183 192 208 227 244 254 255 255 255 255 255
255 255 255 255 255 255 250 236 217 208 189 173 178 179 186 187 193 194 196 194 194 203 197 198 200 201 201 205 201 203 200 200 198 196 202 202 199 201 198 197 201 203 197 200 202 196 200 197 205 196 201 200 202 202 198 203 198 203 203 202 201 197 201 199 199 199 200 206 201 202 197 202 198 196 199 196 194 197 193 191 189 183 182 174 182 187 206 217 236 250 255 255 255 255 255 255
255 255 255 255 255 255 254 247 231 214 194 189 178 172 182 186 186 195 195 193 198 199 200 198 193 201 197 196 199 202 200 195 199 206 202 200 197 202 202 200 204 202 202 203 201 199 197 199 202 201 203 203 199 198 201 201 199 201 203 202 202 204 206 202 200 197 202 200 202 198 206 200 199 199 201 196 204 190 193 188 189 177 175 178 189 197 212 227 244 255 255 255 255 255 255 255
255 255 255 255 255 255 255 251 237 223 207 190 182 174 175 180 187 191 191 195 196 196 198 198 201 199 202 198 198 202 202 201 201 199 201 203 202 204 199 206 203 197 204 197 198 203 201 199 197 203 194 196 195 197 198 199 200 201 201 201 197 199 203 204 199 201 204 198 203 200 198 197 197 193 194 198 197 192 191 185 185 179 176 178 191 209 221 237 252 255 255 255 255 255 255 255
255 255 255 255 255 255 255 255 248 235 217 202 188 179 171 183 187 187 193 191 197 195 200 197 195 195 197 201 198 198 197 199 198 204 203 200 199 197 202 203 202 199 200 200 201 201 204 202 198 201 201 203 199 198 199 199 201 200 204 201 201 200 200 202 202 197 198 199 199 197 201 199 195 202 194 197 194 191 184 181 172 172 178 187 208 218 232 248 255 255 255 255 255 255 255 255
255 255 255 255 255 255 255 255 254 241 231 212 197 186 176 169 174 186 188 188 196 203 198 198 203 198 200 202 200 198 205 197 202 200 200 200 203 200 197 198 201 204 201 200 205 204 197 199 200 199 199 202 201 206 197 201 202 201 204 207 202 198 201 198 200 200 202 198 200 196 195 200 198 199 195 194 191 187 179 176 172 174 183 197 215 227 246 254 255 255 255 255 255 255 255 255
255 255 255 255 255 255 255 255 255 251 238 223 207 199 184 175 169 178 191 190 187 194 191 195 193 199 200 199 200 198 204 198 201 199 195 196 203 199 202 203 198 204 200 203 204 203 196 201 201 204 203 202 200 203 204 202 197 199 202 202 197 200 201 198 201 200 202 204 199 199 199 198 194 195 194 190 183 184 179 175 177 185 193 210 221 238 251 255 255 255 255 255 255 255 255 255
255 255 255 255 255 255 255 255 255 255 249 234 219 208 198 182 178 173 181 187 188 192 192 197 200 191 196 200 201 199 197 201 201 198 199 202 201 199 198 203 201 202 200 202 201 203 200 199 200 205 201 199 202 200 199 204 198 196 197 201 199 193 202 200 199 202 198 198 198 199 197 198 192 196 193 187 183 181 173 177 182 189 206 222 236 248 255 255 255 255 255 255 255 255 255 255
255 255 255 255 255 255 255 255 255 255 255 244 230 216 200 187 181 178 172 179 181 188 190 191 197 199 198 193 200 197 196 203 201 196 198 202 200 199 199 198 199 202 201 207 200 200 203 200 196 197 198 200 201 202 203 200 201 205 201 200 202 203 193 201 200 200 196 192 199 196 196 196 189 190 191 187 180 174 175 183 189 206 221 234 246 255 255 255 255 255 255 255 255 255 255 255
255 255 255 255 255 255 255 255 255 255 255 254 242 233 218 204 191 179 174 175 182 186 188 189 193 195 199 194 192 200 194 200 200 199 196 200 198 200 198 200 198 199 202 200 199 196 199 203 197 198 201 201 196 198 202 202 197 199 193 201 197 199 202 199 195 201 198 195 197 194 193 192 188 184 185 181 167 170 184 189 199 214 230 244 254 255 255 255 255 255 255 255 255 255 255 255
255 255 255 255 255 255 255 255 255 255 255 255 253 241 229 214 200 190 189 175 178 179 188 188 194 192 194 193 195 189 197 196 193 199 195 199 198 200 197 201 202 199 199 198 202 198 202 204 201 196 200 200 198 197 202 199 201 199 202 198 200 196 194 196 194 196 195 202 194 193 189 189 187 180 175 170 173 183 192 205 212 229 244 253 255 255 255 255 255 255 255 255 255 255 255 255
255 255 255 255 255 255 255 255 255 255 255 255 255 253 241 227 216 202 191 182 178 169 179 183 184 190 193 196 194 194 196 195 201 199 197 201 197 196 200 201 203 201 201 200 199 199 204 197 198 199 196 203 202 201 201 199 198 200 201 202 198 196 198 195 194 196 191 192 193 191 184 189 184 180 177 176 186 188 202 219 226 239 252 255 255 255 255 255 255 255 255 255 255 255 255 255
255 255 255 255 255 255 255 255 255 255 255 255 255 255 252 240 229 219 202 191 187 180 174 172 183 185 190 192 193 189 194 194 195 198 199 198 192 201 199 201 201 196 197 201 202 200 199 199 198 203 197 198 202 195 198 200 196 201 199 200 195 194 192 191 194 191 192 192 195 187 185 178 174 173 176 182 187 209 212 230 241 252 255 255 255 255 255 255 255 255 255 255 255 255 255 255
255 255 255 255 255 255 255 255 255 255 255 255 255 255 255 252 244 228 218 204 193 189 176 168 170 178 180 187 187 189 188 193 196 194 194 198 197 198 197 197 196 195 203 199 193 200 204 194 195 197 201 197 195 198 198 200 196 198 197 201 191 195 196 191 194 196 196 188 183 183 179 175 170 176 184 198 206 216 231 244 252 255 255 255 255 255 255 255 255 255 255 255 255 255 255 255
255 255 255 255 255 255 255 255 255 255 255 255 255 255 255 255 253 245 235 222 209 198 182 188 176 175 176 180 186 186 188 189 193 192 196 195 193 193 198 197 196 196 197 204 198 201 198 194 201 198 198 192 201 196 199 197 198 198 195 192 193 195 192 189 192 191 189 180 184 172 163 173 182 187 200 209 220 231 244 254 255 255 255 255 255 255 255 255 255 255 255 255 255 255 255 255
255 255 255 255 255 255 255 255 255 255 255 255 255 255 255 255 255 254 247 235 228 216 206 190 182 176 175 173 176 175 179 188 192 190 191 193 194 192 198 190 196 195 196 194 192 201 194 196 196 198 191 197 199 194 197 195 190 199 190 191 195 196 191 188 188 181 183 179 174 173 180 189 189 203 214 221 237 245 254 255 255 255 255 255 255 255 255 255 255 255 255 255 255 255 255 255
255 255 255 255 255 255 255 255 255 255 255 255 255 255 255 255 255 255 255 248 239 228 217 206 198 190 182 180 178 176 178 176 183 186 184 184 190 191 193 193 194 196 188 193 192 193 190 193 194 198 191 193 195 191 201 196 190 193 191 189 187 188 184 185 179 178 170 177 178 185 190 195 205 217 225 239 250 255 255 255 255 255 255 255 255 255 255 255 255 255 255 255 255 255 255 255
255 255 255 255 255 255 255 255 255 255 255 255 255 255 255 255 255 255 255 255 252 243 231 223 211 203 193 191 180 178 175 174 175 175 184 176 187 190 193 187 191 194 194 194 187 188 195 192 196 194 193 190 193 191 192 190 188 186 182 188 184 184 179 175 172 179 176 184 190 196 202 209 221 235 243 252 255 255 255 255 255 255 255 255 255 255 255 255 255 255 255 255 255 255 255 255
255 255 255 255 255 255 255 255 255 255 255 255 255 255 255 255 255 255 255 255 255 254 248 238 230 219 213 203 195 190 181 174 174 169 177 178 181 182 185 183 188 190 188 192 189 192 182 184 188 187 183 189 186 191 182 181 188 186 179 182 178 175 173 172 173 181 187 195 206 210 220 231 238 248 254 255 255 255 255 255 255 255 255 255 255 255 255 255 255 255 255 255 255 255 255 255
255 255 255 255 255 255 255 255 255 255 255 255 255 255 255 255 255 255 255 255 255 255 255 251 244 235 227 217 209 202 199 187 186 181 175 178 173 172 174 177 179 184 180 187 181 184 180 188 187 190 188 186 177 183 186 180 174 177 171 173 172 178 181 184 184 196 202 213 221 228 234 245 252 255 255 255 255 255 255 255 255 255 255 255 255 255 255 255 255 255 255 255 255 255 255 255
255 255 255 255 255 255 255 255 255 255 255 255 255 255 255 255 255 255 255 255 255 255 255 255 254 250 244 237 223 223 212 205 199 193 188 185 184 177 175 174 175 171 172 172 179 175 172 174 171 174 177 176 177 176 176 175 173 176 176 178 185 184 190 201 202 210 219 224 234 242 250 255 255 255 255 255 255 255 255 255 255 255 255 255 255 255 255 255 255 255 255 255 255 255 255 255
255 255 255 255 255 255 255 255 255 255 255 255 255 255 255 255 255 255 255 255 255 255 255 255 255 255 254 250 243 236 230 218 213 205 203 202 194 188 190 182 181 178 181 174 180 177 174 177 178 175 175 181 174 176 182 181 180 187 189 195 194 203 205 218 222 229 233 243 250 254 255 255 255 255 255 255 255 255 255 255 255 255 255 255 255 255 255 255 255 255 255 255 255 255 255 255
255 255 255 255 255 255 255 255 255 255 255 255 255 255 255 255 255 255 255 255 255 255 255 255 255 255 255 255 255 251 245 240 232 226 222 216 210 207 201 196 194 195 188 189 185 186 188 190 189 186 186 188 197 190 196 195 196 196 207 213 218 222 224 235 236 246 252 255 255 255 255 255 255 255 255 255 255 255 255 255 255 255 255 255 255 255 255 255 255 255 255 255 255 255 255 255
255 255 255 255 255 255 255 255 255 255 255 255 255 255 255 255 255 255 255 255 255 255 255 255 255 255 255 255 255 255 255 253 250 245 240 234 231 226 220 217 217 211 209 206 204 203 202 200 198 198 203 205 206 208 210 212 214 220 224 225 234 238 245 248 253 255 255 255 255 255 255 255 255 255 255 255 255 255 255 255 255 255 255 255 255 255 255 255 255 255 255 255 255 255 255 255
255 255 255 255 255 255 255 255 255 255 255 255 255 255 255 255 255 255 255 255 255 255 255 255 255 255 255 255 255 255 255 255 255 255 254 251 246 240 239 232 232 228 227 224 222 226 223 224 222 222 223 222 225 229 228 233 233 239 244 246 250 254 254 255 255 255 255 255 255 255 255 255 255 255 255 255 255 255 255 255 255 255 255 255 255 255 255 255 255 255 255 255 255 255 255 255
255 255 255 255 255 255 255 255 255 255 255 255 255 255 255 255 255 255 255 255 255 255 255 255 255 255 255 255 255 255 255 255 255 255 255 255 255 255 253 251 248 247 243 244 243 240 240 238 238 240 238 243 241 246 247 249 252 253 254 255 255 255 255 255 255 255 255 255 255 255 255 255 255 255 255 255 255 255 255 255 255 255 255 255 255 255 255 255 255 255 255 255 255 255 255 255
255 255 255 255 255 255 255 255 255 255 255 255 255 255 255 255 255 255 255 255 255 255 255 255 255 255 255 255 255 255 255 255 255 255 255 255 255 255 255 255 255 255 255 254 254 255 253 253 253 254 254 254 255 255 255 255 255 255 255 255 255 255 255 255 255 255 255 255 255 255 255 255 255 255 255 255 255 255 255 255 255 255 255 255 255 255 255 255 255 255 255 255 255 255 255 255
