P2
109 109
255
255 255 255 255 255 255 255 255 255 255 255 255 255 255 255 255 255 255 255 255 255 255 255 255 255 255 255 255 255 255 255 255 255 255 255 255 255 255 255 255 255 255 255 255 255 255 255 255 255 254 254 254 254 254 252 252 253 253 253 253 254 255 255 255 255 255 255 255 255 255 255 255 255 255 255 255 255 255 255 255 255 255 255 255 255 255 255 255 255 255 255 255 255 255 255 255 255 255 255 255 255 255 255 255 255 255 255 255 255
255 255 255 255 255 255 255 255 255 255 255 255 255 255 255 255 255 255 255 255 255 255 255 255 255 255 255 255 255 255 255 255 255 255 255 255 255 255 255 255 254 255 254 253 254 251 249 248 247 245 245 244 244 242 240 241 243 243 243 244 247 245 250 249 251 254 255 255 255 255 255 255 255 255 255 255 255 255 255 255 255 255 255 255 255 255 255 255 255 255 255 255 255 255 255 255 255 255 255 255 255 255 255 255 255 255 255 255 255
255 255 255 255 255 255 255 255 255 255 255 255 255 255 255 255 255 255 255 255 255 255 255 255 255 255 255 255 255 255 255 255 255 255 255 255 255 255 253 252 248 245 245 244 243 241 239 235 236 235 233 229 229 231 230 229 230 231 232 232 234 234 236 237 240 243 245 249 250 253 254 255 255 255 255 255 255 255 255 255 255 255 255 255 255 255 255 255 255 255 255 255 255 255 255 255 255 255 255 255 255 255 255 255 255 255 255 255 255
255 255 255 255 255 255 255 255 255 255 255 255 255 255 255 255 255 255 255 255 255 255 255 255 255 255 255 255 255 255 255 255 255 255 255 253 249 245 243 240 237 234 232 232 232 228 226 225 220 223 222 220 222 220 219 216 217 218 217 219 221 222 223 228 228 231 234 237 241 244 246 250 252 254 255 255 255 255 255 255 255 255 255 255 255 255 255 255 255 255 255 255 255 255 255 255 255 255 255 255 255 255 255 255 255 255 255 255 255
255 255 255 255 255 255 255 255 255 255 255 255 255 255 255 255 255 255 255 255 255 255 255 255 255 255 255 255 255 255 255 255 254 251 246 242 238 234 229 228 224 224 226 221 221 218 216 216 216 213 214 215 213 220 209 214 214 214 215 210 214 214 216 215 217 220 222 224 230 230 233 238 243 248 250 254 255 255 255 255 255 255 255 255 255 255 255 255 255 255 255 255 255 255 255 255 255 255 255 255 255 255 255 255 255 255 255 255 255
255 255 255 255 255 255 255 255 255 255 255 255 255 255 255 255 255 255 255 255 255 255 255 255 255 255 255 255 255 255 253 249 245 239 236 232 224 225 217 214 217 215 213 213 212 216 216 214 216 215 219 216 216 216 214 218 216 213 218 215 216 213 213 213 212 213 214 214 216 217 224 227 233 234 241 246 249 253 255 255 255 255 255 255 255 255 255 255 255 255 255 255 255 255 255 255 255 255 255 255 255 255 255 255 255 255 255 255 255
255 255 255 255 255 255 255 255 255 255 255 255 255 255 255 255 255 255 255 255 255 255 255 255 255 255 255 255 253 251 244 241 232 227 225 220 216 214 215 211 218 211 218 215 219 217 219 219 218 218 217 219 219 217 218 220 217 217 220 216 219 216 219 216 216 218 217 214 212 213 211 216 218 223 230 231 238 244 250 253 255 255 255 255 255 255 255 255 255 255 255 255 255 255 255 255 255 255 255 255 255 255 255 255 255 255 255 255 255
255 255 255 255 255 255 255 255 255 255 255 255 255 255 255 255 255 255 255 255 255 255 255 255 255 255 254 251 245 240 234 227 222 215 217 210 212 214 216 216 214 217 218 218 217 215 221 219 221 220 221 216 221 222 219 222 222 218 222 221 217 219 222 218 218 219 218 214 215 216 213 213 215 213 217 220 226 233 239 246 251 254 255 255 255 255 255 255 255 255 255 255 255 255 255 255 255 255 255 255 255 255 255 255 255 255 255 255 255
255 255 255 255 255 255 255 255 255 255 255 255 255 255 255 255 255 255 255 255 255 255 255 255 255 252 247 240 233 228 223 215 211 211 211 214 216 215 219 214 218 219 220 224 223 220 216 219 222 221 224 222 222 219 222 221 221 219 219 222 222 217 220 218 220 219 221 220 217 220 217 218 214 212 212 215 219 224 224 235 240 250 254 255 255 255 255 255 255 255 255 255 255 255 255 255 255 255 255 255 255 255 255 255 255 255 255 255 255
255 255 255 255 255 255 255 255 255 255 255 255 255 255 255 255 255 255 255 255 255 255 255 253 249 242 236 227 222 217 216 214 216 214 216 216 218 220 217 220 218 222 220 221 221 221 221 224 221 225 225 224 223 220 222 219 222 225 222 221 221 219 220 225 222 218 225 218 219 220 219 220 217 220 212 213 211 213 212 224 232 239 246 254 255 255 255 255 255 255 255 255 255 255 255 255 255 255 255 255 255 255 255 255 255 255 255 255 255
255 255 255 255 255 255 255 255 255 255 255 255 255 255 255 255 255 255 255 255 255 255 253 247 240 234 227 221 212 210 216 213 215 219 215 220 219 219 222 223 225 221 223 221 225 222 225 224 222 224 222 223 219 222 223 220 222 223 224 222 225 222 225 223 225 223 222 221 222 220 220 220 219 220 216 218 219 212 215 217 221 230 237 246 250 254 255 255 255 255 255 255 255 255 255 255 255 255 255 255 255 255 255 255 255 255 255 255 255
255 255 255 255 255 255 255 255 255 255 255 255 255 255 255 255 255 255 255 255 255 251 245 238 228 222 215 214 211 212 217 217 218 219 222 220 224 219 221 222 223 223 222 222 224 223 224 225 225 222 225 223 223 226 226 225 221 224 225 223 224 225 224 223 222 221 222 223 221 222 219 223 220 221 215 218 217 216 213 215 215 217 231 236 242 247 254 255 255 255 255 255 255 255 255 255 255 255 255 255 255 255 255 255 255 255 255 255 255
255 255 255 255 255 255 255 255 255 255 255 255 255 255 255 255 255 255 255 254 249 243 234 227 220 217 213 214 219 217 218 218 220 221 219 221 222 224 224 221 222 224 225 225 225 222 221 225 224 224 223 224 224 224 221 226 224 224 223 224 223 223 223 222 223 226 226 224 222 221 222 222 223 223 221 221 220 219 220 213 215 216 219 223 231 241 247 252 255 255 255 255 255 255 255 255 255 255 255 255 255 255 255 255 255 255 255 255 255
255 255 255 255 255 255 255 255 255 255 255 255 255 255 255 255 255 255 254 249 242 234 227 214 219 210 215 216 218 219 221 219 220 221 220 224 221 222 224 225 223 221 222 225 227 223 227 225 226 222 224 225 227 220 223 227 225 221 227 227 221 226 224 223 223 224 225 226 224 222 223 221 224 221 220 220 220 218 218 219 221 216 213 218 223 229 236 244 250 254 255 255 255 255 255 255 255 255 255 255 255 255 255 255 255 255 255 255 255
255 255 255 255 255 255 255 255 255 255 255 255 255 255 255 255 255 254 249 241 230 224 218 212 217 219 221 220 220 220 219 223 224 220 226 223 225 225 224 226 224 224 225 224 227 227 225 227 223 224 225 225 224 226 227 226 224 227 224 225 225 227 223 225 227 222 226 224 223 223 223 223 222 224 222 222 221 222 219 222 219 214 218 213 216 220 224 234 241 249 255 255 255 255 255 255 255 255 255 255 255 255 255 255 255 255 255 255 255
255 255 255 255 255 255 255 255 255 255 255 255 255 255 255 255 254 248 241 231 222 217 212 218 216 219 218 219 223 222 221 222 222 224 223 225 225 223 226 222 225 227 228 225 223 226 228 227 226 225 226 223 227 224 222 226 225 225 228 226 223 228 225 221 226 224 226 226 225 225 223 225 224 224 221 222 223 220 223 218 224 220 218 216 215 216 219 225 233 239 247 254 255 255 255 255 255 255 255 255 255 255 255 255 255 255 255 255 255
255 255 255 255 255 255 255 255 255 255 255 255 255 255 255 254 250 241 229 227 216 211 218 218 214 219 222 222 222 223 223 223 228 224 225 224 224 226 221 227 223 228 226 226 225 225 227 227 226 225 226 227 223 225 224 224 227 226 225 225 225 224 229 224 224 226 225 224 225 225 223 223 223 223 225 226 222 223 221 223 220 219 219 217 218 214 215 216 222 230 237 249 254 255 255 255 255 255 255 255 255 255 255 255 255 255 255 255 255
255 255 255 255 255 255 255 255 255 255 255 255 255 255 255 251 241 232 223 213 214 216 218 218 221 218 222 224 220 223 223 223 222 224 225 223 228 224 226 223 225 225 224 224 223 227 224 225 226 224 226 225 225 226 229 224 227 226 223 227 225 224 226 225 226 227 225 227 226 223 224 226 224 224 223 225 225 224 223 223 221 224 220 221 219 218 215 215 216 224 231 237 248 254 255 255 255 255 255 255 255 255 255 255 255 255 255 255 255
255 255 255 255 255 255 255 255 255 255 255 255 255 255 250 242 234 221 217 214 216 220 219 217 218 221 222 223 223 224 226 223 224 224 223 222 227 226 226 225 223 226 227 224 226 225 227 225 227 225 228 228 226 225 226 227 226 227 228 228 225 225 227 226 226 227 227 224 223 228 227 224 225 223 224 226 226 226 221 222 223 222 220 224 217 218 219 214 215 215 226 231 239 249 254 255 255 255 255 255 255 255 255 255 255 255 255 255 255
255 255 255 255 255 255 255 255 255 255 255 255 255 252 242 234 226 216 211 213 218 218 220 220 222 222 225 225 221 224 223 226 225 225 226 224 227 225 224 225 223 228 225 227 226 225 227 226 226 225 225 225 225 226 223 226 228 227 225 224 223 227 227 226 227 226 226 224 224 224 225 225 226 227 224 226 226 224 225 225 223 222 222 222 221 223 218 214 217 214 216 220 231 240 250 254 255 255 255 255 255 255 255 255 255 255 255 255 255
255 255 255 255 255 255 255 255 255 255 255 255 253 244 236 227 215 215 217 217 218 219 221 224 222 223 223 226 227 225 220 223 224 229 223 224 224 224 225 225 225 227 225 226 226 224 225 223 226 225 224 225 228 225 225 226 224 225 229 228 229 224 226 224 229 223 224 226 229 225 225 226 227 227 223 224 228 226 224 224 225 225 222 223 223 222 223 218 220 210 210 215 221 232 241 251 255 255 255 255 255 255 255 255 255 255 255 255 255
255 255 255 255 255 255 255 255 255 255 255 254 247 239 226 219 214 215 218 219 218 222 220 222 220 225 223 221 224 225 224 225 226 225 226 229 230 226 226 224 226 226 227 223 229 227 225 228 226 225 223 226 223 228 226 226 225 225 226 225 225 226 225 222 226 226 225 224 223 225 224 227 226 224 225 222 225 227 226 225 225 224 224 224 222 222 220 221 218 216 216 211 217 227 235 242 252 255 255 255 255 255 255 255 255 255 255 255 255
255 255 255 255 255 255 255 255 255 255 255 249 242 231 225 215 214 218 215 221 218 222 225 222 225 223 225 224 226 226 224 222 226 227 227 224 224 229 225 221 226 226 227 226 223 224 225 223 229 228 224 225 225 226 225 226 225 224 226 227 225 230 223 227 225 228 228 228 227 226 228 226 224 224 225 226 224 226 223 225 224 223 224 225 223 223 221 221 219 219 218 215 213 218 227 237 245 253 255 255 255 255 255 255 255 255 255 255 255
255 255 255 255 255 255 255 255 255 255 252 243 236 225 217 214 217 221 220 221 218 223 225 224 224 222 227 228 224 224 227 224 224 225 225 226 222 228 227 226 223 225 227 226 225 225 226 228 226 228 226 229 227 226 225 224 229 227 225 227 226 226 225 226 227 228 226 226 226 228 226 226 228 224 227 227 226 228 225 223 225 225 223 221 226 223 220 221 221 219 218 215 214 214 217 226 237 247 254 255 255 255 255 255 255 255 255 255 255
255 255 255 255 255 255 255 255 255 254 246 237 224 218 217 220 220 219 221 220 225 222 225 225 225 224 227 226 226 224 227 226 226 225 229 225 224 226 227 228 225 226 224 221 225 225 224 226 226 225 226 226 226 224 225 225 226 225 222 227 227 226 227 223 226 225 226 227 227 224 227 226 222 226 228 225 227 226 226 222 226 224 226 223 224 227 222 221 220 221 218 221 214 212 215 224 229 241 250 255 255 255 255 255 255 255 255 255 255
255 255 255 255 255 255 255 255 253 246 236 230 220 218 217 216 221 220 226 224 223 223 225 222 226 223 225 226 223 225 224 226 221 226 225 224 225 225 225 225 227 225 224 227 226 226 226 225 226 225 226 225 226 224 226 226 227 226 225 224 226 228 225 225 227 229 225 227 228 226 228 227 226 225 225 225 227 226 224 226 228 224 225 227 224 227 223 225 223 222 220 218 217 217 207 217 224 232 243 252 255 255 255 255 255 255 255 255 255
255 255 255 255 255 255 255 254 247 239 229 221 215 217 221 220 221 221 222 225 224 224 224 223 224 227 224 224 228 227 223 227 227 226 224 228 225 227 226 228 224 225 227 228 225 225 226 226 223 223 226 226 224 226 228 226 225 225 227 227 225 225 227 225 227 227 225 225 226 228 224 227 227 223 225 221 226 223 225 225 228 225 226 225 221 225 227 226 223 223 221 219 220 222 214 216 218 228 237 247 254 255 255 255 255 255 255 255 255
255 255 255 255 255 255 255 251 241 229 217 217 213 213 217 221 222 221 224 222 219 222 225 223 223 223 224 225 223 223 226 222 227 228 226 224 223 226 225 227 224 227 225 228 226 226 226 224 225 226 226 229 225 222 226 225 222 224 224 224 226 226 225 224 226 227 225 226 226 228 224 224 223 225 225 227 227 226 227 226 227 228 222 226 223 223 225 221 223 219 219 218 222 220 216 214 214 220 231 241 251 255 255 255 255 255 255 255 255
255 255 255 255 255 255 253 245 234 224 215 213 215 219 216 224 218 220 223 225 224 222 226 226 223 224 224 225 226 229 224 224 226 225 225 226 224 226 227 226 225 226 225 226 225 225 225 225 223 225 225 226 223 227 225 225 226 226 226 226 224 226 223 224 226 224 226 225 226 226 225 227 226 224 223 225 228 227 225 224 226 223 224 221 226 224 224 224 225 222 225 225 220 219 219 217 213 215 227 237 244 254 255 255 255 255 255 255 255
255 255 255 255 255 255 249 241 228 217 217 215 217 218 220 222 222 223 225 224 226 223 224 227 223 225 226 224 225 227 226 224 222 227 226 227 225 224 224 225 227 226 226 225 222 227 227 224 223 225 223 225 223 225 222 227 224 224 229 223 224 222 227 227 226 227 224 224 226 225 226 228 225 227 227 224 226 226 224 226 225 227 226 226 225 223 226 225 225 225 225 223 223 219 219 216 215 212 221 229 239 250 255 255 255 255 255 255 255
255 255 255 255 255 253 245 231 220 212 211 216 221 218 220 222 223 223 220 225 226 225 226 224 224 226 225 228 224 227 227 226 226 227 228 224 226 225 228 226 222 226 226 224 225 225 226 222 226 227 224 223 225 223 222 227 226 225 224 222 226 226 226 228 225 223 227 223 226 224 224 226 224 225 224 225 224 225 224 224 226 223 224 225 224 225 225 226 227 224 222 222 223 221 223 217 217 212 213 219 234 245 254 255 255 255 255 255 255
255 255 255 255 255 250 238 229 218 213 215 216 218 221 223 225 224 223 225 225 225 225 224 226 224 226 225 225 224 227 224 226 227 224 226 226 226 225 223 225 223 226 224 229 226 224 225 226 225 224 224 225 226 222 224 223 225 224 226 227 222 224 225 224 228 226 227 225 224 227 227 224 225 228 228 224 224 225 227 224 225 224 226 227 228 223 225 227 225 225 226 221 222 221 220 220 219 216 213 217 229 238 250 255 255 255 255 255 255
255 255 255 255 254 246 234 223 214 216 216 218 219 221 222 223 219 223 227 223 225 224 223 227 224 226 226 227 227 223 227 223 228 224 225 228 227 227 225 223 224 227 223 228 224 224 223 223 226 223 224 226 223 224 223 224 224 224 222 225 228 226 224 226 224 227 225 226 226 225 228 226 224 226 224 225 225 227 228 226 227 230 225 225 225 226 225 224 224 225 227 225 225 220 222 223 219 219 212 212 224 235 246 254 255 255 255 255 255
255 255 255 255 252 241 227 221 212 211 219 218 221 221 222 222 225 223 226 222 226 224 228 226 227 224 226 225 225 225 227 225 224 224 225 225 226 225 224 225 223 225 226 223 225 223 228 224 223 222 223 223 226 224 224 224 227 226 225 223 226 223 224 225 226 224 224 225 225 226 227 228 224 226 223 227 227 230 222 224 227 229 225 225 227 224 226 228 224 221 226 223 225 221 223 219 219 219 216 210 219 227 240 251 255 255 255 255 255
255 255 255 254 247 235 222 215 213 220 217 220 223 222 222 223 225 222 223 224 228 225 225 227 225 228 224 225 224 224 226 226 225 224 225 224 224 224 228 224 223 224 226 225 226 227 224 224 225 224 226 226 223 222 224 223 225 225 225 223 224 225 222 224 224 225 224 227 227 223 227 224 222 227 224 225 228 224 223 226 224 226 225 227 224 227 225 225 225 224 222 227 221 221 220 221 219 222 217 214 216 225 238 248 255 255 255 255 255
255 255 255 254 244 229 220 215 215 217 218 220 221 221 222 224 227 223 226 224 225 224 229 226 225 222 225 226 227 228 225 222 225 227 226 225 225 226 227 225 224 222 223 226 223 224 222 224 226 227 224 224 222 225 224 224 225 223 225 224 225 224 225 225 226 227 227 224 224 223 227 223 228 224 225 221 225 226 221 226 224 226 225 227 226 226 223 227 223 225 227 225 223 223 223 223 221 218 219 213 213 221 233 243 253 255 255 255 255
255 255 255 250 236 226 217 210 214 217 218 222 223 223 225 222 223 226 226 226 224 225 225 226 225 226 227 228 224 226 225 228 225 224 226 225 224 224 224 223 224 226 224 224 221 226 224 224 226 224 225 223 220 224 225 221 224 221 224 226 225 223 226 224 224 227 227 225 224 224 225 223 224 222 226 224 225 226 227 223 225 226 228 226 228 225 225 224 223 225 224 225 222 219 221 221 218 219 219 220 215 215 226 236 250 255 255 255 255
255 255 254 247 232 222 219 214 218 220 221 221 222 223 224 224 223 225 227 224 225 225 228 228 226 222 223 225 225 228 225 223 229 223 225 226 221 224 224 225 222 225 225 225 225 224 225 223 222 222 222 221 224 223 225 221 222 225 224 223 223 226 224 220 221 224 228 223 224 222 227 224 225 228 227 226 226 224 226 225 224 231 224 226 222 222 224 223 224 225 225 223 225 224 223 225 222 219 220 217 215 216 224 235 247 255 255 255 255
255 255 253 243 230 218 207 217 216 220 222 223 222 224 227 226 224 226 225 227 228 225 225 224 228 226 227 226 225 226 226 226 221 225 227 226 223 226 225 224 221 223 223 222 225 225 224 225 226 224 221 224 222 224 227 223 224 222 225 220 222 228 221 222 225 224 218 227 225 223 225 225 227 226 225 223 227 226 224 224 226 226 224 225 226 226 222 226 225 227 227 222 222 225 221 222 220 222 218 216 217 215 219 232 242 253 255 255 255
255 255 251 241 225 218 214 220 218 221 221 222 222 223 224 227 227 226 224 227 226 227 227 228 224 225 228 225 225 228 223 226 225 227 228 222 221 226 226 223 224 223 228 223 222 223 222 224 221 222 225 225 224 224 224 225 222 220 224 225 227 228 223 225 223 223 224 222 223 225 225 226 223 224 224 225 224 226 223 225 226 226 227 227 228 227 226 227 227 226 225 226 223 225 224 224 223 222 222 216 215 211 217 225 240 249 255 255 255
255 255 248 236 222 220 214 216 218 221 221 223 223 221 224 220 227 227 225 225 224 225 226 227 224 226 226 226 226 225 222 225 224 225 225 225 223 226 224 224 219 221 221 223 222 223 220 223 225 223 224 223 221 223 224 225 221 222 224 221 221 226 222 224 223 224 228 225 223 222 223 227 226 225 222 223 226 227 227 224 224 224 225 226 225 229 227 225 227 228 227 226 224 227 225 223 222 221 218 218 217 211 213 223 235 248 255 255 255
255 254 246 233 221 211 214 219 219 221 222 225 224 225 222 224 226 226 227 226 228 226 226 224 226 228 228 230 226 225 222 227 226 227 225 223 223 224 225 223 225 224 224 226 222 223 223 225 222 220 226 223 221 223 224 223 223 223 224 220 226 220 219 222 222 223 223 224 222 226 226 225 224 226 223 225 225 222 225 229 226 223 226 224 226 223 226 228 223 227 227 225 223 224 225 223 222 223 223 215 216 213 213 222 235 245 254 255 255
255 252 242 230 216 214 218 219 217 222 223 221 223 226 224 224 227 228 225 228 226 227 228 227 225 226 224 224 224 225 227 225 225 226 222 227 225 223 224 222 226 222 224 221 224 225 223 220 224 222 223 223 223 221 222 221 219 222 225 224 225 223 220 224 225 223 222 223 225 227 224 225 224 223 222 225 227 227 226 226 225 227 224 223 223 225 225 225 225 225 225 228 223 225 223 222 220 221 221 217 216 214 213 217 231 240 251 255 255
255 250 239 226 214 210 217 219 219 221 220 222 224 223 224 223 227 223 224 224 225 229 226 223 226 227 225 227 224 228 227 222 224 223 226 224 225 227 224 222 225 224 225 224 222 224 221 222 220 225 221 222 227 223 223 223 222 223 223 226 226 221 224 223 223 218 224 224 225 222 224 225 223 226 224 224 224 227 225 228 227 224 227 225 225 223 230 225 225 226 225 228 227 224 221 222 223 222 220 220 217 217 214 215 228 239 250 255 255
255 248 236 226 212 215 216 218 222 224 222 224 226 225 226 230 222 226 223 225 223 227 228 225 226 226 225 225 226 225 227 223 225 223 225 224 224 223 222 225 224 224 224 225 224 225 223 220 222 220 220 222 220 221 225 221 224 225 222 223 224 223 220 224 220 225 223 222 224 222 224 221 224 223 227 224 226 225 227 222 228 225 227 227 227 224 226 225 224 227 224 227 221 226 224 222 223 221 223 219 223 216 215 214 226 235 248 255 255
255 247 235 224 213 211 216 221 221 221 222 226 223 227 227 223 227 225 223 226 224 222 226 227 227 226 227 227 222 223 225 225 226 223 223 225 223 222 224 222 222 221 223 222 222 225 226 221 221 221 221 225 221 222 219 224 225 221 220 223 222 223 225 221 222 225 223 222 223 227 224 224 223 224 228 223 222 224 226 224 228 224 222 226 227 225 223 225 226 226 227 223 228 226 225 222 222 223 221 222 219 213 216 213 223 236 246 255 255
254 245 233 219 217 216 217 219 224 222 222 221 224 225 221 224 224 224 226 225 225 224 226 228 225 226 226 223 224 227 227 226 225 227 225 223 224 223 223 222 221 223 224 223 222 225 227 222 219 225 221 219 221 222 221 223 221 224 222 222 226 220 226 224 223 222 223 224 224 225 225 223 223 223 227 224 223 224 223 223 227 223 225 225 228 226 226 227 225 224 228 225 227 224 225 225 224 224 220 219 219 216 216 212 221 234 244 254 255
253 242 231 218 212 216 219 219 218 222 221 223 223 224 225 225 225 225 226 226 227 226 224 227 227 226 226 226 224 226 225 224 225 223 222 225 224 223 225 224 223 223 224 225 221 222 223 224 224 224 225 223 220 223 220 222 222 223 221 222 225 222 222 225 223 223 223 226 224 222 224 225 223 224 226 224 224 225 224 225 222 226 224 228 227 225 223 226 225 225 225 223 223 225 224 222 226 222 222 222 219 214 215 213 217 232 243 254 255
253 241 230 217 213 214 221 223 221 223 223 224 226 227 224 222 226 224 227 225 225 226 226 226 225 224 226 225 226 222 226 226 225 224 224 223 222 224 222 222 222 222 223 223 222 222 223 223 221 221 221 223 224 222 220 219 222 221 222 223 224 224 223 222 223 222 226 221 226 224 227 227 226 223 223 226 224 226 226 226 222 223 226 226 226 225 223 226 224 226 226 225 224 225 223 224 225 224 223 223 222 218 213 214 217 231 241 253 255
252 240 227 218 214 216 220 220 223 221 223 227 227 225 225 226 227 225 226 227 226 226 224 224 227 227 225 226 225 226 227 225 223 226 219 226 222 221 224 224 225 219 222 222 222 222 223 226 223 223 221 222 223 222 223 222 223 219 223 221 222 220 223 224 223 222 224 222 222 221 224 224 219 224 223 225 227 226 227 225 225 223 226 228 226 224 226 227 228 226 228 225 224 227 226 226 223 223 225 224 219 222 216 214 216 229 242 252 255
252 240 227 215 212 212 220 222 223 220 223 226 222 226 225 227 228 225 226 226 230 228 225 228 226 225 227 226 227 227 226 225 226 223 223 225 223 225 224 227 225 223 225 221 223 223 222 220 223 223 219 220 222 221 223 224 224 219 220 222 223 222 223 222 226 223 223 225 222 224 224 226 222 227 224 226 223 225 225 226 223 227 224 226 225 225 228 225 225 224 226 223 225 224 229 225 225 221 225 222 221 217 216 215 218 227 241 251 255
250 239 225 217 215 216 218 221 220 225 227 220 224 225 223 226 225 225 225 227 227 224 224 224 227 226 227 225 222 224 225 225 222 226 226 225 225 225 225 223 224 222 221 223 223 223 224 224 219 225 219 224 224 220 220 221 221 223 223 220 223 224 221 221 223 224 223 221 224 223 223 222 225 225 228 225 226 226 224 224 226 226 224 225 225 226 226 224 227 226 228 228 227 226 223 224 225 226 222 224 221 218 213 214 214 225 238 251 255
250 238 224 217 211 217 221 217 223 224 221 224 223 225 221 224 228 224 228 224 225 226 222 225 227 225 222 224 228 226 226 225 224 222 224 223 225 222 223 221 225 223 223 225 222 223 223 222 222 225 220 217 223 221 224 221 221 223 225 221 219 224 224 223 220 223 222 222 223 224 224 224 225 226 225 226 224 223 223 228 226 225 224 226 222 225 224 227 227 226 225 226 226 228 224 224 227 225 222 220 220 218 216 212 219 223 239 250 255
250 239 224 215 216 218 221 218 223 221 220 223 226 226 226 224 227 225 227 229 226 225 225 225 224 229 226 224 222 224 227 226 227 227 222 225 226 222 221 222 224 222 224 224 221 221 222 218 220 222 220 223 222 221 222 220 223 218 223 222 221 220 220 224 221 222 223 222 224 223 222 226 222 223 228 225 223 225 227 224 224 227 226 226 226 226 227 226 223 225 228 225 225 225 227 225 226 223 222 222 221 218 220 212 213 224 238 251 255
251 239 229 217 212 216 221 222 221 222 223 223 225 225 224 225 225 227 226 223 223 227 225 225 223 222 224 227 223 223 224 224 225 223 226 227 224 222 223 224 223 222 219 224 222 223 224 223 221 222 220 221 222 221 221 219 221 222 220 221 221 218 225 223 220 223 223 222 223 221 223 223 221 224 223 225 222 226 225 227 223 223 226 224 226 227 226 225 226 228 225 226 226 226 226 227 224 220 222 224 218 219 220 213 217 225 236 251 255
253 242 229 219 211 213 220 223 222 224 222 224 227 224 226 227 226 227 225 225 226 224 226 223 225 220 226 222 223 227 226 225 224 224 221 223 222 224 221 223 223 222 222 222 224 224 223 226 222 222 220 223 222 221 225 220 223 224 220 221 224 222 223 220 222 222 224 224 220 223 224 222 227 223 226 224 225 225 226 223 227 225 225 226 226 226 227 226 226 225 226 225 228 224 222 225 223 225 222 223 218 218 215 213 215 227 238 251 255
254 244 235 220 216 215 219 223 222 223 227 223 223 224 225 226 225 226 224 226 227 227 226 228 225 225 225 224 226 224 226 224 226 223 227 221 224 223 223 223 224 223 223 222 223 222 221 222 220 221 221 220 220 220 219 221 219 221 222 226 220 221 223 223 223 226 223 221 225 223 222 225 223 224 223 220 227 223 225 227 222 226 225 227 226 226 228 226 226 227 225 227 224 226 222 223 222 224 219 225 220 220 217 214 218 225 240 250 255
254 245 233 220 216 215 219 220 221 223 222 225 224 225 225 225 227 224 225 224 225 225 226 225 223 223 226 225 224 226 224 224 223 225 224 221 227 222 225 223 220 222 224 223 219 224 222 222 219 221 221 223 221 218 222 222 221 225 223 220 221 222 222 221 222 223 223 221 224 223 225 223 224 225 225 224 224 224 224 223 227 228 225 225 226 227 224 227 225 226 227 226 227 221 225 226 223 221 221 222 219 219 216 212 217 225 239 251 255
254 246 234 222 216 215 220 218 224 222 222 222 225 222 223 224 228 227 224 226 224 226 227 229 227 224 224 225 227 227 225 225 223 224 223 226 221 223 224 226 222 221 223 223 225 222 223 224 224 222 223 224 221 220 224 222 222 220 222 224 220 223 221 222 224 220 225 224 223 223 225 223 228 221 222 222 227 226 222 225 225 226 228 225 224 225 226 222 226 225 226 223 227 225 222 225 221 225 222 220 222 218 213 213 221 227 240 252 255
255 248 234 226 214 215 220 219 219 220 225 224 224 225 225 227 228 228 226 230 225 222 225 222 225 227 227 227 226 225 224 223 224 224 227 225 223 223 223 223 222 222 224 223 221 224 224 224 221 221 220 220 223 219 223 223 222 222 223 221 222 220 224 224 223 225 224 222 221 223 222 223 222 223 225 223 223 226 223 224 227 226 227 228 225 226 225 226 226 222 224 225 224 224 226 223 223 223 225 222 221 220 213 211 221 229 243 252 255
255 249 238 226 219 217 217 219 220 224 223 222 226 225 226 225 226 228 227 226 226 226 225 226 227 226 228 225 228 223 225 223 226 225 225 224 226 222 221 226 226 220 224 224 223 219 223 225 222 222 220 226 223 224 221 222 219 220 222 217 225 221 222 225 224 225 222 226 224 224 225 222 225 225 226 222 228 224 223 224 227 226 226 224 227 227 227 225 224 229 225 228 225 224 224 226 224 221 222 223 218 217 215 214 219 228 244 253 255
255 249 238 226 214 214 218 220 221 221 223 223 226 224 223 227 229 225 223 227 226 225 224 225 228 227 226 224 227 226 226 226 225 225 224 226 226 224 224 223 221 225 219 225 223 221 222 223 225 219 225 220 223 223 219 223 224 222 222 224 221 221 225 224 223 225 223 223 222 226 222 222 224 225 226 225 225 226 223 227 224 227 225 224 228 227 224 224 225 225 223 221 226 226 224 226 225 224 222 222 219 217 215 213 219 229 245 254 255
255 251 241 231 223 214 216 217 222 221 224 224 225 221 223 226 225 226 224 226 226 224 226 227 224 226 224 227 227 226 224 226 222 221 223 227 225 224 224 223 223 225 228 224 224 224 221 224 222 225 225 222 224 222 224 223 223 219 224 221 224 223 225 224 223 223 221 223 223 223 224 225 221 224 223 224 225 225 226 225 225 226 224 226 227 226 228 228 222 227 224 226 228 226 223 223 226 221 224 220 221 218 216 214 226 236 247 254 255
255 253 244 231 219 215 216 220 219 223 224 226 227 224 222 226 226 224 225 225 226 226 226 224 226 225 223 223 225 224 227 224 225 221 230 225 223 225 222 225 225 223 221 224 227 219 222 224 222 223 223 223 220 221 224 222 220 224 219 222 223 225 223 224 223 221 225 220 224 223 223 226 226 226 225 225 223 226 227 223 224 228 228 224 226 227 227 228 227 224 226 224 225 225 224 225 225 221 220 223 221 214 218 215 224 236 249 255 255
255 254 245 234 222 217 215 220 219 220 220 219 223 224 224 227 221 226 225 227 224 225 226 224 226 225 226 223 225 226 226 224 225 222 227 224 224 222 223 223 220 223 223 223 223 222 223 223 224 222 224 222 223 222 222 224 224 221 224 222 223 223 224 224 225 224 221 222 225 222 220 224 226 224 226 224 225 225 225 226 225 224 225 226 227 226 226 226 227 226 226 225 224 225 224 221 225 224 221 219 220 216 213 214 227 237 251 255 255
255 255 248 237 224 214 217 214 220 220 220 222 224 222 226 222 226 223 222 226 226 227 228 228 225 225 227 225 227 226 227 227 222 223 226 224 225 223 225 223 225 222 224 224 223 223 222 222 219 218 222 222 219 226 223 222 223 222 224 225 222 219 221 226 225 224 223 224 222 226 223 223 223 225 225 222 226 225 226 224 227 224 224 227 226 225 227 225 226 225 225 225 225 223 229 223 223 223 221 222 219 217 208 217 227 242 251 255 255
255 255 251 239 228 217 214 216 217 220 219 222 222 223 221 224 222 225 225 223 225 227 226 224 226 224 225 224 224 224 225 224 222 220 226 226 224 226 225 224 221 225 227 225 224 222 225 224 222 225 221 225 222 224 225 224 223 221 223 222 221 224 223 221 224 222 224 219 225 224 222 225 224 225 225 226 225 224 228 224 226 227 227 228 225 226 226 224 224 227 228 225 224 222 225 222 222 223 220 219 221 213 213 219 233 244 254 255 255
255 255 252 241 229 221 214 216 216 222 223 223 221 225 223 223 228 224 225 226 226 223 225 226 224 225 224 227 224 224 225 225 226 228 223 225 224 228 224 222 223 223 223 223 221 222 226 223 221 225 222 224 222 224 223 222 223 222 221 221 226 222 224 222 221 225 223 220 226 225 226 224 224 225 226 225 221 228 227 223 225 224 224 225 228 226 226 227 228 225 225 225 225 222 226 223 221 221 220 220 215 213 216 225 236 246 254 255 255
255 255 253 244 233 224 217 217 217 221 220 224 225 222 223 226 227 222 225 227 227 223 226 225 225 228 227 229 227 226 226 226 226 224 226 223 224 225 226 226 223 224 223 224 222 226 224 223 221 221 221 224 225 224 222 224 224 223 225 223 223 224 223 225 222 222 224 220 224 220 222 227 223 225 226 225 223 223 225 228 225 224 226 228 226 223 225 223 225 226 225 225 224 223 226 221 225 222 220 219 217 212 217 224 237 251 255 255 255
255 255 255 249 237 224 216 218 218 221 217 221 220 225 225 225 224 224 226 223 224 224 228 227 225 225 226 227 225 226 226 222 226 226 226 225 222 222 219 225 225 226 226 225 222 223 225 223 222 225 225 222 223 219 224 224 224 220 223 223 225 221 223 221 224 224 224 225 222 225 223 225 225 224 225 227 225 226 225 224 225 224 228 227 227 225 229 224 224 225 225 225 225 225 224 223 221 222 219 216 214 213 219 228 245 252 255 255 255
255 255 255 251 240 229 219 213 217 220 219 221 222 222 225 223 223 225 227 228 223 227 225 225 227 227 228 227 227 225 224 227 224 225 224 223 223 225 227 222 223 223 225 225 221 224 223 226 225 225 222 223 223 224 221 224 221 224 225 221 224 225 221 223 222 226 222 226 225 226 224 224 226 226 226 226 225 225 229 226 226 226 225 225 227 224 224 226 224 226 227 221 224 224 224 224 221 219 220 217 216 215 221 236 246 254 255 255 255
255 255 255 253 244 231 220 211 220 218 220 222 222 224 221 224 223 224 226 225 225 225 224 227 225 225 226 225 225 224 226 224 223 225 225 229 224 225 221 224 228 223 227 224 222 222 223 222 227 225 222 221 224 222 222 223 222 224 230 224 226 225 223 226 223 225 224 226 226 225 223 224 225 228 225 224 222 224 227 229 224 225 225 227 227 223 225 227 225 226 225 226 224 220 220 224 222 219 217 215 212 219 227 237 250 255 255 255 255
255 255 255 255 248 235 224 213 211 215 222 218 221 224 223 223 227 227 225 224 227 224 227 228 228 227 227 226 225 224 223 229 229 225 224 226 226 221 225 226 227 227 223 228 224 226 229 225 225 224 223 222 220 224 223 224 225 223 225 223 221 226 222 224 225 225 226 224 221 223 226 226 226 224 224 225 226 228 227 225 226 227 223 228 226 225 227 224 228 226 223 224 222 223 225 225 221 218 217 216 210 221 230 240 253 255 255 255 255
255 255 255 255 250 242 229 220 213 218 219 220 222 224 224 221 220 223 224 226 226 224 222 227 227 226 223 227 227 227 226 227 224 225 224 225 224 226 224 224 225 224 226 224 224 224 223 223 225 226 223 226 223 223 221 225 227 223 225 226 226 223 226 223 225 227 225 225 223 226 227 225 226 229 227 223 228 226 225 223 224 227 224 225 226 225 225 227 225 227 222 225 223 223 226 224 220 220 217 215 215 220 235 247 254 255 255 255 255
255 255 255 255 254 245 234 225 216 214 217 219 223 220 222 225 227 225 223 225 224 225 224 226 224 225 226 224 224 226 225 225 228 226 226 226 227 226 224 228 223 226 223 225 225 224 224 225 224 227 226 225 225 222 224 224 223 225 224 224 225 225 226 224 226 229 226 222 226 226 223 227 226 222 228 229 224 226 224 228 224 227 225 224 225 226 226 225 226 224 225 225 223 218 219 219 224 217 214 213 218 229 240 251 255 255 255 255 255
255 255 255 255 255 251 237 226 221 218 215 218 222 217 223 221 222 221 227 224 226 227 225 225 227 226 224 226 226 225 227 226 227 225 222 226 225 224 226 224 222 225 223 223 225 227 225 226 223 223 222 224 226 227 221 229 223 226 222 227 222 223 222 226 226 225 223 226 226 227 227 225 226 227 228 224 229 227 223 226 223 226 227 224 228 229 223 224 229 224 224 228 222 221 221 218 219 217 215 214 220 232 245 254 255 255 255 255 255
255 255 255 255 255 252 244 234 223 215 216 215 219 219 222 226 225 221 225 223 226 225 227 224 226 226 227 226 225 226 227 224 227 227 224 224 226 225 226 225 224 229 227 224 229 225 228 227 222 223 222 228 226 223 225 225 223 225 227 223 227 224 226 226 226 225 227 225 228 226 225 226 227 227 224 225 226 224 227 223 228 227 225 229 228 224 229 225 224 226 225 222 224 221 219 216 218 214 212 215 228 240 250 255 255 255 255 255 255
255 255 255 255 255 254 250 236 227 217 213 215 221 216 223 221 222 225 222 224 225 225 226 227 224 226 224 226 226 223 226 229 224 226 225 225 226 226 226 228 224 224 225 225 227 226 223 223 224 224 225 222 224 226 225 224 224 225 227 227 223 225 225 225 225 224 224 228 223 226 227 227 226 228 226 226 222 225 225 222 228 225 223 224 225 224 226 226 225 224 223 222 223 220 221 222 217 212 215 223 233 244 254 255 255 255 255 255 255
255 255 255 255 255 255 252 245 235 220 216 213 216 219 223 222 223 225 223 222 223 227 227 226 224 226 224 226 226 225 225 228 228 226 224 222 226 221 228 224 227 224 225 222 224 227 225 224 226 224 226 225 225 227 224 226 225 225 227 226 225 225 226 227 226 225 229 227 224 224 223 225 223 225 227 226 227 230 226 226 226 226 223 226 224 225 223 224 223 224 224 222 220 222 220 216 214 210 218 229 236 251 255 255 255 255 255 255 255
255 255 255 255 255 255 255 249 237 226 217 214 215 215 219 221 222 224 222 222 224 228 225 225 227 226 227 226 225 225 225 227 225 227 226 225 227 224 226 224 227 228 225 227 227 225 223 225 225 226 222 226 224 221 225 225 223 223 226 226 222 226 225 225 227 225 225 227 225 224 225 227 224 224 226 224 225 226 228 223 227 225 223 227 224 226 224 224 226 223 221 222 220 221 218 217 211 216 222 233 245 253 255 255 255 255 255 255 255
255 255 255 255 255 255 255 254 246 233 221 214 212 216 219 220 219 220 222 223 224 226 225 227 223 223 224 224 227 224 226 225 226 224 226 228 225 224 226 225 224 227 225 227 225 223 226 227 225 226 226 226 224 226 226 226 226 227 226 226 226 224 228 226 226 224 224 226 226 225 224 227 227 227 226 225 226 224 227 224 225 224 225 226 225 222 226 222 225 223 223 221 220 221 218 213 211 218 231 240 250 255 255 255 255 255 255 255 255
255 255 255 255 255 255 255 255 249 239 228 222 216 214 217 220 220 224 223 220 224 224 222 225 225 226 226 220 225 224 228 226 226 226 225 226 226 226 226 228 229 226 228 225 224 227 227 225 226 226 223 225 226 226 228 228 226 226 223 230 228 227 225 226 225 226 225 226 224 225 227 226 227 226 227 226 224 226 226 228 227 227 226 227 224 224 224 226 222 223 223 222 216 217 216 216 218 225 235 245 254 255 255 255 255 255 255 255 255
255 255 255 255 255 255 255 255 254 247 235 224 216 212 217 214 220 222 220 221 224 225 223 223 225 223 224 226 227 226 226 224 227 225 224 227 226 224 224 224 226 225 225 226 225 224 225 226 227 227 227 224 226 227 227 228 224 224 226 228 225 228 226 225 224 225 227 228 226 229 227 225 224 225 221 225 227 224 226 225 226 223 222 223 223 224 224 222 223 222 219 219 220 213 213 212 220 230 243 252 255 255 255 255 255 255 255 255 255
255 255 255 255 255 255 255 255 255 253 243 231 222 215 216 216 217 220 218 220 223 224 225 224 224 224 225 224 225 223 224 227 225 228 226 226 226 227 229 224 226 225 223 222 228 227 223 225 223 224 223 223 227 225 226 226 226 227 224 226 226 224 227 226 228 225 226 227 222 226 228 224 224 224 226 226 226 226 224 224 227 223 221 224 227 222 223 223 222 219 222 223 217 215 211 216 225 240 249 255 255 255 255 255 255 255 255 255 255
255 255 255 255 255 255 255 255 255 255 250 241 229 222 213 215 213 217 220 221 221 218 221 224 222 223 224 227 222 221 227 226 226 224 224 225 226 226 223 225 223 226 226 223 227 223 229 225 225 228 227 226 226 226 225 226 226 229 227 225 225 226 227 225 226 225 227 226 227 225 227 227 224 226 226 223 224 227 227 226 227 225 224 221 224 225 219 217 223 220 220 217 216 216 219 221 235 246 254 255 255 255 255 255 255 255 255 255 255
255 255 255 255 255 255 255 255 255 255 254 247 237 231 216 214 213 218 220 219 220 222 221 223 224 223 224 224 225 228 227 227 225 225 224 223 226 227 226 227 227 224 223 228 225 224 224 228 224 225 227 224 228 224 228 227 224 225 227 225 226 226 225 226 227 227 221 226 224 227 225 228 226 226 225 226 227 223 223 224 227 222 223 222 225 225 222 221 218 218 218 212 213 211 220 234 244 252 255 255 255 255 255 255 255 255 255 255 255
255 255 255 255 255 255 255 255 255 255 255 254 245 235 228 219 212 213 222 220 220 222 220 226 223 224 223 225 223 226 225 226 225 226 226 226 226 225 225 223 224 223 223 220 225 227 223 227 227 224 227 228 225 223 226 226 229 224 227 227 225 222 225 227 224 227 226 225 226 224 228 226 225 225 225 224 223 224 224 222 220 225 224 225 225 216 222 219 217 216 214 215 215 222 230 242 250 255 255 255 255 255 255 255 255 255 255 255 255
255 255 255 255 255 255 255 255 255 255 255 255 252 244 234 225 218 215 211 216 220 222 221 221 223 221 224 225 225 222 222 226 227 221 226 221 226 225 226 227 227 225 229 221 225 228 223 226 226 227 227 225 226 223 225 225 225 227 223 224 226 225 224 225 225 225 226 226 223 226 227 224 225 223 225 226 226 222 224 222 224 223 220 222 219 218 217 218 216 213 212 214 218 229 240 248 254 255 255 255 255 255 255 255 255 255 255 255 255
255 255 255 255 255 255 255 255 255 255 255 255 255 251 244 235 224 219 214 216 217 222 219 223 223 220 226 226 221 225 225 227 221 223 225 226 222 226 224 229 223 225 223 228 225 224 223 224 225 226 222 226 230 227 225 225 226 225 228 225 225 224 227 226 225 226 225 226 225 225 228 225 226 222 226 224 224 224 224 224 221 223 225 222 223 221 222 218 215 213 214 222 228 238 248 254 255 255 255 255 255 255 255 255 255 255 255 255 255
255 255 255 255 255 255 255 255 255 255 255 255 255 255 251 241 235 225 217 215 216 218 218 221 221 224 220 222 222 224 223 224 227 224 222 225 222 224 226 226 227 224 226 227 225 228 224 226 224 224 228 225 225 222 227 226 225 225 228 226 224 225 226 225 227 224 225 221 224 227 227 222 223 224 223 226 222 223 226 222 221 219 221 221 219 219 220 216 213 210 218 225 236 245 253 255 255 255 255 255 255 255 255 255 255 255 255 255 255
255 255 255 255 255 255 255 255 255 255 255 255 255 255 254 251 243 232 225 218 214 214 218 222 221 219 220 223 224 227 224 224 226 223 225 225 225 227 224 224 222 226 224 226 228 227 227 223 222 227 225 228 225 228 226 225 227 224 226 226 226 227 224 225 224 222 227 225 223 224 227 224 224 225 224 226 223 223 222 223 224 222 218 221 219 220 214 215 211 215 227 236 244 253 255 255 255 255 255 255 255 255 255 255 255 255 255 255 255
255 255 255 255 255 255 255 255 255 255 255 255 255 255 255 255 249 242 234 225 216 212 217 221 218 222 222 223 224 223 224 224 224 228 223 222 226 228 223 224 226 225 224 223 226 224 225 227 227 226 227 224 226 226 226 226 223 226 227 225 225 227 225 223 227 223 224 227 227 226 221 226 222 226 223 224 226 220 226 222 219 220 219 218 221 217 214 214 218 228 236 244 252 255 255 255 255 255 255 255 255 255 255 255 255 255 255 255 255
255 255 255 255 255 255 255 255 255 255 255 255 255 255 255 255 255 251 242 234 226 218 215 216 215 219 221 220 223 220 221 223 224 223 225 225 224 224 225 221 227 226 225 224 223 225 226 223 225 224 224 223 223 226 224 223 227 228 226 225 223 223 225 224 226 227 224 225 225 224 222 226 224 223 222 223 222 223 224 222 222 219 221 214 213 210 214 221 227 239 245 252 255 255 255 255 255 255 255 255 255 255 255 255 255 255 255 255 255
255 255 255 255 255 255 255 255 255 255 255 255 255 255 255 255 255 255 252 244 237 228 223 216 216 215 217 215 218 222 224 220 223 222 222 223 221 223 223 229 224 226 224 224 224 223 223 227 226 228 226 225 224 225 224 224 227 225 227 227 227 227 226 226 224 223 222 223 225 224 225 224 225 222 224 222 219 223 221 222 218 217 221 215 212 216 223 231 236 245 253 255 255 255 255 255 255 255 255 255 255 255 255 255 255 255 255 255 255
255 255 255 255 255 255 255 255 255 255 255 255 255 255 255 255 255 255 255 252 247 239 232 224 217 219 216 215 221 220 222 221 223 221 223 225 221 224 225 224 225 227 223 220 224 224 226 226 225 223 226 224 224 226 223 225 222 225 225 222 225 224 225 224 226 224 223 224 226 224 222 220 222 223 223 220 217 221 220 219 220 216 211 207 216 224 232 238 247 253 255 255 255 255 255 255 255 255 255 255 255 255 255 255 255 255 255 255 255
255 255 255 255 255 255 255 255 255 255 255 255 255 255 255 255 255 255 255 255 253 248 240 232 226 221 212 215 219 220 219 223 222 222 220 219 222 222 223 224 223 221 223 224 221 225 226 225 222 224 224 221 222 224 224 221 226 222 227 225 224 228 226 224 225 222 223 222 224 222 220 225 222 221 220 220 218 215 217 218 213 209 216 219 225 233 242 249 254 255 255 255 255 255 255 255 255 255 255 255 255 255 255 255 255 255 255 255 255
255 255 255 255 255 255 255 255 255 255 255 255 255 255 255 255 255 255 255 255 255 254 249 244 236 230 220 220 215 217 215 218 219 223 223 219 221 222 220 223 221 221 223 223 225 224 222 224 226 221 225 224 225 223 223 223 225 223 223 222 224 225 222 222 224 223 222 223 225 225 222 221 223 220 219 218 215 216 213 209 215 217 223 226 235 243 250 255 255 255 255 255 255 255 255 255 255 255 255 255 255 255 255 255 255 255 255 255 255
255 255 255 255 255 255 255 255 255 255 255 255 255 255 255 255 255 255 255 255 255 255 255 251 245 239 231 227 219 216 215 213 216 218 218 218 222 221 222 221 223 222 222 225 220 223 222 221 223 221 222 224 223 225 225 222 222 221 221 227 222 224 223 220 222 222 222 224 221 217 218 222 220 217 219 212 214 208 211 214 220 224 233 240 245 252 255 255 255 255 255 255 255 255 255 255 255 255 255 255 255 255 255 255 255 255 255 255 255
255 255 255 255 255 255 255 255 255 255 255 255 255 255 255 255 255 255 255 255 255 255 255 255 253 249 241 234 229 224 217 216 216 215 213 214 218 217 219 220 218 222 222 221 218 223 222 222 222 222 221 224 220 220 222 224 218 223 221 222 223 221 221 220 223 221 224 219 220 218 221 217 217 215 214 213 211 213 218 221 232 235 241 249 253 255 255 255 255 255 255 255 255 255 255 255 255 255 255 255 255 255 255 255 255 255 255 255 255
255 255 255 255 255 255 255 255 255 255 255 255 255 255 255 255 255 255 255 255 255 255 255 255 255 254 250 243 239 233 227 223 218 219 213 212 218 215 216 218 221 221 222 219 223 221 223 223 221 221 219 220 223 221 223 220 225 221 220 220 223 222 224 219 218 219 216 221 220 220 216 219 212 214 208 215 217 224 224 231 239 246 252 255 255 255 255 255 255 255 255 255 255 255 255 255 255 255 255 255 255 255 255 255 255 255 255 255 255
255 255 255 255 255 255 255 255 255 255 255 255 255 255 255 255 255 255 255 255 255 255 255 255 255 255 255 253 248 243 237 231 227 224 214 214 217 214 214 213 216 216 218 219 218 221 220 217 220 222 220 225 219 219 221 220 223 218 222 220 219 220 221 218 212 216 214 215 219 217 215 216 210 214 221 222 228 232 240 245 250 254 255 255 255 255 255 255 255 255 255 255 255 255 255 255 255 255 255 255 255 255 255 255 255 255 255 255 255
255 255 255 255 255 255 255 255 255 255 255 255 255 255 255 255 255 255 255 255 255 255 255 255 255 255 255 255 255 253 248 243 239 234 228 226 217 214 215 211 218 217 215 217 216 218 215 219 217 218 219 222 218 219 217 217 217 218 216 219 218 215 218 218 215 214 215 213 211 213 215 215 221 223 227 233 239 244 250 254 255 255 255 255 255 255 255 255 255 255 255 255 255 255 255 255 255 255 255 255 255 255 255 255 255 255 255 255 255
255 255 255 255 255 255 255 255 255 255 255 255 255 255 255 255 255 255 255 255 255 255 255 255 255 255 255 255 255 255 254 253 249 245 239 234 232 225 223 220 216 214 214 212 210 217 218 215 212 216 217 217 219 217 216 218 216 214 216 217 220 215 213 214 215 214 211 216 219 220 222 229 229 235 240 244 251 254 255 255 255 255 255 255 255 255 255 255 255 255 255 255 255 255 255 255 255 255 255 255 255 255 255 255 255 255 255 255 255
255 255 255 255 255 255 255 255 255 255 255 255 255 255 255 255 255 255 255 255 255 255 255 255 255 255 255 255 255 255 255 255 255 253 251 248 241 237 235 232 229 223 218 218 213 215 215 216 213 214 212 214 212 213 209 215 213 214 212 212 215 217 217 223 217 222 225 224 230 230 235 240 243 247 251 254 255 255 255 255 255 255 255 255 255 255 255 255 255 255 255 255 255 255 255 255 255 255 255 255 255 255 255 255 255 255 255 255 255
255 255 255 255 255 255 255 255 255 255 255 255 255 255 255 255 255 255 255 255 255 255 255 255 255 255 255 255 255 255 255 255 255 255 255 255 252 249 247 241 239 238 233 231 228 224 221 222 220 220 218 216 218 217 217 216 223 220 221 224 224 226 230 230 229 233 232 237 240 244 245 249 253 254 255 255 255 255 255 255 255 255 255 255 255 255 255 255 255 255 255 255 255 255 255 255 255 255 255 255 255 255 255 255 255 255 255 255 255
255 255 255 255 255 255 255 255 255 255 255 255 255 255 255 255 255 255 255 255 255 255 255 255 255 255 255 255 255 255 255 255 255 255 255 255 255 255 254 253 249 247 245 242 239 239 235 233 232 232 230 232 230 229 228 229 232 230 232 235 235 236 241 243 243 244 247 249 251 253 254 255 255 255 255 255 255 255 255 255 255 255 255 255 255 255 255 255 255 255 255 255 255 255 255 255 255 255 255 255 255 255 255 255 255 255 255 255 255
255 255 255 255 255 255 255 255 255 255 255 255 255 255 255 255 255 255 255 255 255 255 255 255 255 255 255 255 255 255 255 255 255 255 255 255 255 255 255 255 255 255 254 252 250 249 248 246 245 243 243 242 244 241 241 244 242 244 245 247 249 250 252 252 253 254 254 255 255 255 255 255 255 255 255 255 255 255 255 255 255 255 255 255 255 255 255 255 255 255 255 255 255 255 255 255 255 255 255 255 255 255 255 255 255 255 255 255 255
255 255 255 255 255 255 255 255 255 255 255 255 255 255 255 255 255 255 255 255 255 255 255 255 255 255 255 255 255 255 255 255 255 255 255 255 255 255 255 255 255 255 255 255 255 255 255 254 254 253 253 252 253 252 252 253 253 253 254 254 255 255 255 255 255 255 255 255 255 255 255 255 255 255 255 255 255 255 255 255 255 255 255 255 255 255 255 255 255 255 255 255 255 255 255 255 255 255 255 255 255 255 255 255 255 255 255 255 255
255 255 255 255 255 255 255 255 255 255 255 255 255 255 255 255 255 255 255 255 255 255 255 255 255 255 255 255 255 255 255 255 255 255 255 255 255 255 255 255 255 255 255 255 255 255 255 255 255 255 255 255 255 255 255 255 255 255 255 255 255 255 255 255 255 255 255 255 255 255 255 255 255 255 255 255 255 255 255 255 255 255 255 255 255 255 255 255 255 255 255 255 255 255 255 255 255 255 255 255 255 255 255 255 255 255 255 255 255
