P2
92 92
255
255 255 255 255 255 255 255 255 255 255 255 255 255 255 255 255 255 255 255 255 255 255 255 255 255 255 255 255 255 255 255 255 255 255 255 255 255 255 255 255 255 255 255 255 255 255 255 255 255 255 255 255 255 255 255 255 255 255 255 255 255 255 255 255 255 255 255 255 255 255 255 255 255 255 255 255 255 255 255 255 255 255 255 255 255 255 255 255 255 255 255 255
255 255 255 255 255 255 255 255 255 255 255 255 255 255 255 255 255 255 255 255 255 255 255 255 255 255 255 255 255 255 255 255 255 255 255 255 255 255 255 255 255 255 255 255 255 255 255 255 255 255 255 255 255 255 255 255 255 255 255 255 255 255 255 255 255 255 255 255 255 255 255 255 255 255 255 255 255 255 255 255 255 255 255 255 255 255 255 255 255 255 255 255
255 255 255 255 255 255 255 255 255 255 255 255 255 255 255 255 255 255 255 255 255 255 255 255 255 255 255 255 255 255 255 255 255 255 255 255 255 255 255 255 255 255 255 255 255 255 255 255 255 255 255 255 255 255 255 255 255 255 255 255 255 255 255 255 255 255 255 255 255 255 255 255 255 255 255 255 255 255 255 255 255 255 255 255 255 255 255 255 255 255 255 255
255 255 255 255 255 255 255 255 255 255 255 255 255 255 255 255 255 255 255 255 255 255 255 255 255 255 255 255 255 255 255 255 255 255 255 255 255 255 255 255 255 255 255 255 255 255 255 255 255 255 255 255 255 255 255 255 255 255 255 255 255 255 255 255 255 255 255 255 255 255 255 255 255 255 255 255 255 255 255 255 255 255 255 255 255 255 255 255 255 255 255 255
255 255 255 255 255 255 255 255 255 255 255 255 255 255 255 255 255 255 255 255 255 255 255 255 255 255 255 255 255 255 255 255 255 255 255 255 255 255 255 255 255 255 255 255 255 255 255 255 255 255 255 255 255 255 255 255 255 255 255 255 255 255 255 255 255 255 255 255 255 255 255 255 255 255 255 255 255 255 255 255 255 255 255 255 255 255 255 255 255 255 255 255
255 255 255 255 255 255 255 255 255 255 255 255 255 255 255 255 255 255 255 255 255 255 255 255 255 255 255 255 255 255 255 255 255 255 255 255 255 255 255 255 255 255 255 255 255 255 255 255 255 255 255 255 255 255 255 255 255 255 255 255 255 255 255 255 255 255 255 255 255 255 255 255 255 255 255 255 255 255 255 255 255 255 255 255 255 255 255 255 255 255 255 255
255 255 255 255 255 255 255 255 255 255 255 255 255 255 255 255 255 255 255 255 255 255 255 255 255 255 255 255 255 255 255 255 255 255 255 255 255 255 255 255 255 255 255 255 255 255 255 255 255 255 255 255 255 255 255 255 255 255 255 255 255 255 255 255 255 255 255 255 255 255 255 255 255 255 255 255 255 255 255 255 255 255 255 255 255 255 255 255 255 255 255 255
255 255 255 255 255 255 255 255 255 255 255 255 255 255 255 255 255 255 255 255 255 255 255 255 255 255 255 255 255 255 255 255 255 255 255 255 255 255 255 255 255 255 255 255 255 255 255 255 255 255 255 255 255 255 255 255 255 255 255 255 255 255 255 255 255 255 255 255 255 255 255 255 255 255 255 255 255 255 255 255 255 255 255 255 255 255 255 255 255 255 255 255
255 255 255 255 255 255 255 255 255 255 255 255 255 255 255 255 255 255 255 255 255 255 255 255 255 255 255 255 255 255 255 255 255 255 255 255 255 255 255 255 255 255 255 255 255 255 255 255 255 255 255 255 255 255 255 255 255 255 255 255 255 255 255 255 255 255 255 255 255 255 255 255 255 255 255 255 255 255 255 255 255 255 255 255 255 255 255 255 255 255 255 255
255 255 255 255 255 255 255 255 255 255 255 255 255 255 255 255 255 255 255 255 255 255 255 255 255 255 255 255 255 255 255 255 255 255 255 255 255 255 255 255 255 255 255 255 255 255 255 255 255 255 255 255 255 255 255 255 255 255 255 255 255 255 255 255 255 255 255 255 255 255 255 255 255 255 255 255 255 255 255 255 255 255 255 255 255 255 255 255 255 255 255 255
255 255 255 255 255 255 255 255 255 255 255 255 255 255 255 255 255 255 255 255 255 255 255 255 255 255 255 255 255 255 255 255 255 255 255 255 255 255 255 255 255 255 255 255 255 255 255 255 255 255 255 255 255 255 255 255 255 255 255 255 255 255 255 255 255 255 255 255 255 255 255 255 255 255 255 255 255 255 255 255 255 255 255 255 255 255 255 255 255 255 255 255
255 255 255 255 255 255 255 255 255 255 255 255 255 255 255 255 255 255 255 255 255 255 255 255 255 255 255 255 255 255 255 255 255 255 255 255 255 255 255 255 255 255 255 255 255 255 255 255 255 255 255 255 255 255 255 255 255 255 255 255 255 255 255 255 255 255 255 255 255 255 255 255 255 255 255 255 255 255 255 255 255 255 255 255 255 255 255 255 255 255 255 255
255 255 255 255 255 255 255 255 255 255 255 255 255 255 255 255 255 255 255 255 255 255 255 255 255 255 255 255 255 255 255 255 255 255 255 255 255 255 255 255 255 255 255 255 255 255 255 255 255 255 255 255 255 255 255 255 255 255 255 255 255 255 255 255 255 255 255 255 255 255 255 255 255 255 255 255 255 255 255 255 255 255 255 255 255 255 255 255 255 255 255 255
255 255 255 255 255 255 255 255 255 255 255 255 255 255 255 255 255 255 255 255 255 255 255 255 255 255 255 255 255 255 255 255 255 255 255 255 255 255 255 255 255 255 255 255 255 255 255 255 255 255 255 255 255 255 255 255 255 255 255 255 255 255 255 255 255 255 255 255 255 255 255 255 255 255 255 255 255 255 255 255 255 255 255 255 255 255 255 255 255 255 255 255
255 255 255 255 255 255 255 255 255 255 255 255 255 255 255 255 255 255 255 255 255 255 255 255 255 255 255 255 255 255 255 255 255 255 255 255 255 255 255 255 255 255 255 255 255 255 255 255 255 255 255 255 255 255 255 255 255 255 255 255 255 255 255 255 255 255 255 255 255 255 255 255 255 255 255 255 255 255 255 255 255 255 255 255 255 255 255 255 255 255 255 255
255 255 255 255 255 255 255 255 255 255 255 255 255 255 255 255 255 255 255 255 255 255 255 255 255 255 254 250 244 238 237 235 233 235 238 242 244 250 251 255 255 255 255 255 255 255 255 255 255 255 255 255 255 255 255 255 255 255 255 255 255 255 255 255 255 255 255 255 255 255 255 255 255 255 255 255 255 255 255 255 255 255 255 255 255 255 255 255 255 255 255 255
255 255 255 255 255 255 255 255 255 255 255 255 255 255 255 255 255 255 255 255 255 255 255 255 255 244 226 214 204 201 199 194 196 197 200 208 213 218 221 232 238 248 252 255 255 255 255 255 255 255 255 255 255 255 255 255 255 255 255 255 255 255 255 255 255 255 255 255 255 255 255 255 255 255 255 255 255 255 255 255 255 255 255 255 255 255 255 255 255 255 255 255
255 255 255 255 255 255 255 255 255 255 255 255 255 255 255 255 255 255 255 255 255 255 255 254 229 199 184 170 163 161 164 163 163 166 171 172 179 183 186 198 209 213 224 233 246 252 255 255 255 255 255 255 255 255 255 255 255 255 255 255 255 255 255 255 255 255 255 255 255 255 255 255 255 255 255 255 255 255 255 255 255 255 255 255 255 255 255 255 255 255 255 255
255 255 255 255 255 255 255 255 255 255 255 255 255 255 255 255 255 255 255 255 255 255 254 221 178 157 136 126 121 130 127 135 136 136 143 148 146 153 158 165 174 182 187 201 211 224 235 248 254 255 255 255 255 255 255 255 255 255 255 255 255 255 255 255 255 255 255 255 255 255 255 255 255 255 255 255 255 255 255 255 255 255 255 255 255 255 255 255 255 255 255 255
255 255 255 255 255 255 255 255 255 255 255 255 255 255 255 255 255 255 255 255 255 255 231 178 143 121 100 92 94 103 112 115 127 126 127 129 134 140 134 144 143 153 165 167 179 189 199 216 228 246 253 255 255 255 255 255 255 255 255 255 255 255 255 255 255 255 255 255 255 255 255 255 255 255 255 255 255 255 255 255 255 255 255 255 255 255 255 255 255 255 255 255
255 255 255 255 255 255 255 255 255 255 255 255 255 255 255 255 255 255 255 255 255 248 190 149 112 94 72 71 84 110 124 134 132 137 136 136 135 132 132 129 131 132 142 141 153 162 169 183 200 212 229 246 253 255 255 255 255 255 255 255 255 255 255 255 255 255 255 255 255 255 255 255 255 255 255 255 255 255 255 255 255 255 255 255 255 255 255 255 255 255 255 255
255 255 255 255 255 255 255 255 255 255 255 255 255 255 255 255 255 255 255 255 255 225 167 124 94 69 64 71 116 140 143 151 152 156 155 157 155 152 144 140 134 129 133 133 131 141 147 157 163 184 197 212 232 248 255 255 255 255 255 255 255 255 255 255 255 255 255 255 255 255 255 255 255 255 255 255 255 255 255 255 255 255 255 255 255 255 255 255 255 255 255 255
255 255 255 255 255 255 255 255 255 255 255 255 255 255 255 255 255 255 255 255 248 200 150 116 85 69 71 118 147 153 159 161 164 168 172 166 167 163 160 160 157 150 144 140 127 125 130 136 142 150 167 181 200 220 240 252 255 255 255 255 255 255 255 255 255 255 255 255 255 255 255 255 255 255 255 255 255 255 255 255 255 255 255 255 255 255 255 255 255 255 255 255
255 255 255 255 255 255 255 255 255 255 255 255 255 255 255 255 255 255 255 255 232 180 139 106 91 81 103 147 159 166 169 172 168 179 175 176 171 173 171 171 168 167 162 154 148 139 131 126 126 134 140 155 171 190 207 230 248 255 255 255 255 255 255 255 255 255 255 255 255 255 255 255 255 255 255 255 255 255 255 255 255 255 255 255 255 255 255 255 255 255 255 255
255 255 255 255 255 255 255 255 255 255 255 255 255 255 255 255 255 255 255 253 213 170 133 111 95 95 139 162 166 175 170 174 178 180 177 180 175 180 175 178 173 175 170 166 163 157 154 139 124 122 127 133 149 162 180 200 220 241 254 255 255 255 255 255 255 255 255 255 255 255 255 255 255 255 255 255 255 255 255 255 255 255 255 255 255 255 255 255 255 255 255 255
255 255 255 255 255 255 255 255 255 255 255 255 255 255 255 255 255 255 255 247 201 157 130 108 95 118 154 167 169 176 181 184 179 184 183 187 183 184 180 179 177 177 178 176 173 168 165 160 153 136 130 122 129 140 149 166 190 209 236 253 255 255 255 255 255 255 255 255 255 255 255 255 255 255 255 255 255 255 255 255 255 255 255 255 255 255 255 255 255 255 255 255
255 255 255 255 255 255 255 255 255 255 255 255 255 255 255 255 255 255 255 233 192 150 127 108 107 138 162 173 176 180 179 182 185 186 186 183 184 183 184 184 184 182 182 178 177 170 172 165 160 156 147 136 123 119 128 141 163 182 207 229 251 255 255 255 255 255 255 255 255 255 255 255 255 255 255 255 255 255 255 255 255 255 255 255 255 255 255 255 255 255 255 255
255 255 255 255 255 255 255 255 255 255 255 255 255 255 255 255 255 255 255 222 180 151 127 111 116 152 165 172 178 185 184 185 188 186 185 186 190 189 186 189 185 184 182 186 184 179 176 176 171 168 160 147 143 126 127 125 139 158 178 202 230 251 255 255 255 255 255 255 255 255 255 255 255 255 255 255 255 255 255 255 255 255 255 255 255 255 255 255 255 255 255 255
255 255 255 255 255 255 255 255 255 255 255 255 255 255 255 255 255 255 251 215 178 151 130 120 130 164 170 176 184 186 187 190 184 188 189 189 190 189 186 190 188 187 185 182 185 186 183 178 174 171 165 164 155 145 130 115 125 137 157 174 206 231 252 255 255 255 255 255 255 255 255 255 255 255 255 255 255 255 255 255 255 255 255 255 255 255 255 255 255 255 255 255
255 255 255 255 255 255 255 255 255 255 255 255 255 255 255 255 255 255 247 207 173 145 132 122 146 169 175 179 185 186 187 189 190 189 191 191 191 192 194 188 185 187 188 185 183 188 180 181 182 181 175 170 162 154 153 126 115 123 133 153 174 201 231 252 255 255 255 255 255 255 255 255 255 255 255 255 255 255 255 255 255 255 255 255 255 255 255 255 255 255 255 255
255 255 255 255 255 255 255 255 255 255 255 255 255 255 255 255 255 255 243 201 172 144 130 127 152 170 182 181 188 186 193 188 193 194 192 190 189 190 192 191 191 190 190 193 190 188 185 188 185 185 176 175 170 167 162 152 138 118 118 133 153 176 204 233 253 255 255 255 255 255 255 255 255 255 255 255 255 255 255 255 255 255 255 255 255 255 255 255 255 255 255 255
255 255 255 255 255 255 255 255 255 255 255 255 255 255 255 255 255 255 236 197 174 145 130 135 163 176 181 187 188 188 189 193 193 191 198 198 190 193 195 190 194 192 187 188 190 192 186 186 186 182 183 178 172 173 171 161 149 139 120 115 134 154 178 208 239 255 255 255 255 255 255 255 255 255 255 255 255 255 255 255 255 255 255 255 255 255 255 255 255 255 255 255
255 255 255 255 255 255 255 255 255 255 255 255 255 255 255 255 255 255 235 200 170 146 136 142 164 178 183 185 189 190 192 192 194 192 197 197 193 196 192 194 196 196 194 189 192 191 190 187 188 188 186 182 173 178 174 166 163 155 132 117 125 135 157 187 216 247 255 255 255 255 255 255 255 255 255 255 255 255 255 255 255 255 255 255 255 255 255 255 255 255 255 255
255 255 255 255 255 255 255 255 255 255 255 255 255 255 255 255 255 255 229 197 167 152 139 142 167 179 183 188 190 189 192 196 196 193 196 195 195 195 196 199 198 191 195 196 190 193 191 187 187 188 188 185 183 177 176 176 169 162 155 136 121 124 141 166 190 225 250 255 255 255 255 255 255 255 255 255 255 255 255 255 255 255 255 255 255 255 255 255 255 255 255 255
255 255 255 255 255 255 255 255 255 255 255 255 255 255 255 255 255 255 228 197 169 149 139 146 169 176 184 187 191 190 196 193 193 196 194 195 198 199 193 197 195 196 194 196 193 194 192 192 192 191 190 187 185 181 180 179 172 165 154 144 136 119 127 148 172 204 234 255 255 255 255 255 255 255 255 255 255 255 255 255 255 255 255 255 255 255 255 255 255 255 255 255
255 255 255 255 255 255 255 255 255 255 255 255 255 255 255 255 255 254 227 197 167 158 143 157 173 180 188 188 194 195 197 197 195 195 196 195 201 196 197 196 195 198 197 195 191 193 190 192 190 189 189 186 186 186 181 179 176 170 164 158 145 120 120 133 157 182 213 244 255 255 255 255 255 255 255 255 255 255 255 255 255 255 255 255 255 255 255 255 255 255 255 255
255 255 255 255 255 255 255 255 255 255 255 255 255 255 255 255 255 254 228 197 173 157 144 156 171 177 186 189 194 193 196 201 194 196 202 202 200 198 196 199 198 198 195 196 195 196 194 198 194 188 190 189 189 187 186 179 181 175 170 163 157 140 112 126 139 165 192 228 253 255 255 255 255 255 255 255 255 255 255 255 255 255 255 255 255 255 255 255 255 255 255 255
255 255 255 255 255 255 255 255 255 255 255 255 255 255 255 255 255 254 230 199 173 159 146 153 178 184 187 190 196 193 197 196 198 199 196 198 200 197 200 199 199 198 199 197 196 193 199 197 195 192 192 192 190 190 186 182 180 179 172 171 163 150 133 116 126 151 175 209 242 255 255 255 255 255 255 255 255 255 255 255 255 255 255 255 255 255 255 255 255 255 255 255
255 255 255 255 255 255 255 255 255 255 255 255 255 255 255 255 255 254 231 200 177 155 148 154 176 183 186 189 195 196 193 200 200 200 200 199 197 200 199 198 194 198 195 198 195 197 196 194 194 195 193 193 191 191 184 187 183 176 176 177 167 157 147 122 119 138 161 192 227 253 255 255 255 255 255 255 255 255 255 255 255 255 255 255 255 255 255 255 255 255 255 255
255 255 255 255 255 255 255 255 255 255 255 255 255 255 255 255 255 255 231 203 179 164 150 161 174 183 186 191 194 194 198 198 200 199 198 199 200 201 198 199 199 198 198 199 199 200 193 199 195 193 190 193 192 188 188 188 184 181 177 175 169 165 157 135 120 128 143 175 209 244 255 255 255 255 255 255 255 255 255 255 255 255 255 255 255 255 255 255 255 255 255 255
255 255 255 255 255 255 255 255 255 255 255 255 255 255 255 255 255 255 234 208 184 162 151 157 174 183 188 191 194 194 200 200 198 198 198 201 200 202 200 201 201 201 203 197 197 199 199 198 200 191 190 193 190 193 193 189 181 186 182 175 174 167 162 147 128 118 141 164 192 228 254 255 255 255 255 255 255 255 255 255 255 255 255 255 255 255 255 255 255 255 255 255
255 255 255 255 255 255 255 255 255 255 255 255 255 255 255 255 255 255 239 213 189 168 155 157 173 184 189 192 192 196 195 198 195 200 201 199 201 201 200 201 200 200 201 200 199 195 199 199 197 198 197 195 193 195 191 192 188 181 184 179 174 170 165 154 137 118 131 150 180 214 247 255 255 255 255 255 255 255 255 255 255 255 255 255 255 255 255 255 255 255 255 255
255 255 255 255 255 255 255 255 255 255 255 255 255 255 255 255 255 255 243 216 188 172 160 159 175 181 190 192 193 197 199 197 198 200 201 202 201 201 202 202 202 200 199 198 200 197 196 193 197 197 195 194 193 195 194 193 189 183 187 184 176 177 163 164 146 125 124 142 166 202 236 255 255 255 255 255 255 255 255 255 255 255 255 255 255 255 255 255 255 255 255 255
255 255 255 255 255 255 255 255 255 255 255 255 255 255 255 255 255 255 248 221 196 180 161 159 173 180 187 191 193 197 196 201 198 199 203 198 201 198 200 200 201 201 199 198 197 199 200 198 201 195 193 196 196 194 195 191 191 186 186 183 183 176 174 166 153 133 119 130 157 186 223 253 255 255 255 255 255 255 255 255 255 255 255 255 255 255 255 255 255 255 255 255
255 255 255 255 255 255 255 255 255 255 255 255 255 255 255 255 255 255 251 226 202 181 166 157 168 180 187 189 193 195 196 197 198 197 200 202 199 199 202 203 199 200 198 198 201 199 200 197 201 199 199 196 195 196 191 194 189 191 187 183 181 180 174 168 159 144 124 128 149 179 212 247 255 255 255 255 255 255 255 255 255 255 255 255 255 255 255 255 255 255 255 255
255 255 255 255 255 255 255 255 255 255 255 255 255 255 255 255 255 255 253 232 207 184 169 162 165 180 186 192 191 195 195 199 197 199 199 200 202 198 204 199 201 201 197 199 205 200 203 200 201 199 197 196 197 196 192 194 191 189 192 188 187 181 175 170 168 152 127 127 138 168 200 237 255 255 255 255 255 255 255 255 255 255 255 255 255 255 255 255 255 255 255 255
255 255 255 255 255 255 255 255 255 255 255 255 255 255 255 255 255 255 255 237 212 191 173 162 166 179 186 189 195 194 197 197 200 200 200 202 199 202 200 201 199 200 202 202 202 197 196 201 201 198 196 195 200 194 195 197 194 192 189 190 183 184 181 171 169 157 140 122 137 157 195 226 254 255 255 255 255 255 255 255 255 255 255 255 255 255 255 255 255 255 255 255
255 255 255 255 255 255 255 255 255 255 255 255 255 255 255 255 255 255 255 243 219 197 179 166 165 175 180 189 193 195 197 198 198 198 200 201 199 199 202 202 199 204 198 200 199 200 204 202 201 198 198 197 201 195 195 194 193 191 191 187 187 182 181 174 168 161 147 126 129 152 184 218 250 255 255 255 255 255 255 255 255 255 255 255 255 255 255 255 255 255 255 255
255 255 255 255 255 255 255 255 255 255 255 255 255 255 255 255 255 255 255 250 229 204 185 166 159 173 180 188 187 193 194 196 197 196 200 200 201 201 201 200 200 202 200 199 202 199 200 200 200 197 198 198 195 194 194 195 193 190 193 187 185 182 178 177 173 165 149 131 128 150 176 209 246 255 255 255 255 255 255 255 255 255 255 255 255 255 255 255 255 255 255 255
255 255 255 255 255 255 255 255 255 255 255 255 255 255 255 255 255 255 255 254 237 212 188 175 165 166 177 185 187 190 194 197 197 198 199 200 201 200 200 201 203 203 197 202 199 201 199 203 199 203 198 199 196 195 195 195 192 193 192 186 185 185 186 181 176 167 156 133 128 141 169 202 238 255 255 255 255 255 255 255 255 255 255 255 255 255 255 255 255 255 255 255
255 255 255 255 255 255 255 255 255 255 255 255 255 255 255 255 255 255 255 255 244 220 199 180 168 160 173 184 193 193 194 194 198 203 202 199 201 199 201 202 199 202 204 200 200 202 201 200 202 199 200 199 200 198 198 193 195 194 190 191 189 183 184 183 178 171 164 137 127 140 168 198 233 255 255 255 255 255 255 255 255 255 255 255 255 255 255 255 255 255 255 255
255 255 255 255 255 255 255 255 255 255 255 255 255 255 255 255 255 255 255 255 250 230 207 192 173 164 171 182 189 190 196 193 198 197 199 201 199 201 200 200 199 205 203 200 201 202 201 198 204 201 199 196 198 200 198 193 193 193 188 192 188 188 181 179 173 171 164 144 125 133 160 193 228 254 255 255 255 255 255 255 255 255 255 255 255 255 255 255 255 255 255 255
255 255 255 255 255 255 255 255 255 255 255 255 255 255 255 255 255 255 255 255 254 237 216 198 181 169 167 175 186 189 192 192 195 197 196 199 199 200 201 199 201 201 200 206 202 199 201 198 200 199 201 199 196 200 195 195 193 196 190 193 190 186 186 181 175 172 166 147 130 133 157 189 223 252 255 255 255 255 255 255 255 255 255 255 255 255 255 255 255 255 255 255
255 255 255 255 255 255 255 255 255 255 255 255 255 255 255 255 255 255 255 255 255 247 225 207 191 177 165 173 182 187 186 191 198 199 199 198 202 201 199 202 199 203 201 199 202 202 203 199 200 203 197 199 196 196 199 195 196 195 189 189 191 187 185 184 181 173 165 157 129 133 151 184 216 250 255 255 255 255 255 255 255 255 255 255 255 255 255 255 255 255 255 255
255 255 255 255 255 255 255 255 255 255 255 255 255 255 255 255 255 255 255 255 255 253 235 218 197 179 169 167 173 182 189 190 194 194 198 200 197 200 203 201 199 201 201 200 201 203 200 198 200 201 199 201 201 196 198 194 198 196 193 190 191 186 185 183 181 175 166 150 130 129 152 182 215 248 255 255 255 255 255 255 255 255 255 255 255 255 255 255 255 255 255 255
255 255 255 255 255 255 255 255 255 255 255 255 255 255 255 255 255 255 255 255 255 255 247 227 208 189 176 169 168 179 186 188 191 193 198 194 197 197 199 200 196 198 204 199 201 199 200 200 198 198 198 198 197 200 199 198 193 197 194 191 193 190 184 182 184 173 165 153 137 131 149 176 211 247 255 255 255 255 255 255 255 255 255 255 255 255 255 255 255 255 255 255
255 255 255 255 255 255 255 255 255 255 255 255 255 255 255 255 255 255 255 255 255 255 254 238 217 204 183 170 169 176 181 189 188 193 196 197 197 200 202 203 199 200 202 200 202 203 199 197 200 199 195 199 195 196 196 199 196 195 195 188 192 184 186 182 178 173 165 158 133 129 146 176 214 244 255 255 255 255 255 255 255 255 255 255 255 255 255 255 255 255 255 255
255 255 255 255 255 255 255 255 255 255 255 255 255 255 255 255 255 255 255 255 255 255 255 248 231 210 194 181 170 167 182 181 188 193 191 196 194 197 197 200 201 199 197 201 201 200 199 199 204 202 198 199 200 199 199 196 197 194 195 195 193 191 186 186 180 175 164 158 132 134 151 175 207 246 255 255 255 255 255 255 255 255 255 255 255 255 255 255 255 255 255 255
255 255 255 255 255 255 255 255 255 255 255 255 255 255 255 255 255 255 255 255 255 255 255 254 241 220 205 188 175 169 173 177 184 188 191 194 198 196 196 198 198 198 200 200 199 202 199 199 199 199 200 196 198 198 199 195 198 197 193 190 186 187 182 183 178 176 168 156 132 136 153 177 209 244 255 255 255 255 255 255 255 255 255 255 255 255 255 255 255 255 255 255
255 255 255 255 255 255 255 255 255 255 255 255 255 255 255 255 255 255 255 255 255 255 255 255 251 234 214 205 181 172 167 170 180 189 190 192 192 196 197 195 197 196 197 203 200 200 201 198 199 196 196 199 198 197 195 197 195 193 193 191 192 185 187 183 180 174 168 157 135 133 148 178 212 246 255 255 255 255 255 255 255 255 255 255 255 255 255 255 255 255 255 255
255 255 255 255 255 255 255 255 255 255 255 255 255 255 255 255 255 255 255 255 255 255 255 255 255 247 230 210 197 179 169 168 176 181 184 188 191 193 194 196 198 196 198 200 197 198 199 199 197 198 202 199 195 195 197 197 196 194 193 192 187 184 186 181 179 171 164 154 140 132 146 178 214 246 255 255 255 255 255 255 255 255 255 255 255 255 255 255 255 255 255 255
255 255 255 255 255 255 255 255 255 255 255 255 255 255 255 255 255 255 255 255 255 255 255 255 255 255 243 227 206 190 182 170 166 174 183 186 189 191 194 197 194 195 199 195 196 198 198 200 198 196 199 197 196 195 194 194 197 194 189 187 192 188 186 182 178 169 163 155 133 133 150 180 213 248 255 255 255 255 255 255 255 255 255 255 255 255 255 255 255 255 255 255
255 255 255 255 255 255 255 255 255 255 255 255 255 255 255 255 255 255 255 255 255 255 255 255 255 255 253 240 219 207 195 178 173 167 172 182 184 189 189 192 197 196 194 198 197 201 198 199 194 195 196 196 198 196 194 195 196 191 190 189 190 184 184 178 175 171 168 155 131 130 156 181 219 249 255 255 255 255 255 255 255 255 255 255 255 255 255 255 255 255 255 255
255 255 255 255 255 255 255 255 255 255 255 255 255 255 255 255 255 255 255 255 255 255 255 255 255 255 255 251 238 220 205 190 178 169 166 172 177 184 189 191 190 190 193 193 193 194 199 195 198 196 197 194 197 193 194 195 193 191 191 185 188 184 182 182 178 171 164 148 125 133 157 185 221 252 255 255 255 255 255 255 255 255 255 255 255 255 255 255 255 255 255 255
255 255 255 255 255 255 255 255 255 255 255 255 255 255 255 255 255 255 255 255 255 255 255 255 255 255 255 255 250 235 219 204 190 176 171 169 168 177 178 184 190 188 190 192 191 192 196 194 194 194 194 194 195 194 193 191 190 190 187 189 185 186 177 178 175 170 155 143 132 140 160 192 227 253 255 255 255 255 255 255 255 255 255 255 255 255 255 255 255 255 255 255
255 255 255 255 255 255 255 255 255 255 255 255 255 255 255 255 255 255 255 255 255 255 255 255 255 255 255 255 255 250 234 217 202 191 173 168 163 165 170 176 182 188 189 186 188 192 192 196 192 195 197 192 194 195 191 191 188 190 189 187 187 185 183 176 169 165 159 138 128 138 168 195 233 255 255 255 255 255 255 255 255 255 255 255 255 255 255 255 255 255 255 255
255 255 255 255 255 255 255 255 255 255 255 255 255 255 255 255 255 255 255 255 255 255 255 255 255 255 255 255 255 255 249 236 218 207 192 181 166 162 163 172 174 181 186 185 185 190 190 189 190 192 187 188 189 189 191 189 189 187 187 189 184 180 177 176 171 166 151 129 123 147 170 203 239 255 255 255 255 255 255 255 255 255 255 255 255 255 255 255 255 255 255 255
255 255 255 255 255 255 255 255 255 255 255 255 255 255 255 255 255 255 255 255 255 255 255 255 255 255 255 255 255 255 255 251 237 221 208 193 183 173 165 159 163 170 175 180 185 184 184 188 187 183 190 188 187 192 189 187 187 186 184 179 180 178 176 172 164 157 141 120 124 144 176 210 246 255 255 255 255 255 255 255 255 255 255 255 255 255 255 255 255 255 255 255
255 255 255 255 255 255 255 255 255 255 255 255 255 255 255 255 255 255 255 255 255 255 255 255 255 255 255 255 255 255 255 255 252 239 225 210 194 185 177 167 162 157 157 169 176 183 183 184 185 183 186 185 187 183 184 184 184 181 182 181 176 169 172 165 158 143 129 117 127 152 185 221 251 255 255 255 255 255 255 255 255 255 255 255 255 255 255 255 255 255 255 255
255 255 255 255 255 255 255 255 255 255 255 255 255 255 255 255 255 255 255 255 255 255 255 255 255 255 255 255 255 255 255 255 255 253 242 230 212 203 189 175 167 162 155 157 160 160 168 176 177 176 183 178 180 181 179 181 181 180 177 174 175 168 166 156 149 133 107 110 131 163 194 231 255 255 255 255 255 255 255 255 255 255 255 255 255 255 255 255 255 255 255 255
255 255 255 255 255 255 255 255 255 255 255 255 255 255 255 255 255 255 255 255 255 255 255 255 255 255 255 255 255 255 255 255 255 255 255 247 235 222 209 194 185 177 165 153 152 148 154 152 160 167 169 172 177 174 171 176 174 168 168 166 162 161 151 140 123 98 87 110 134 170 207 245 255 255 255 255 255 255 255 255 255 255 255 255 255 255 255 255 255 255 255 255
255 255 255 255 255 255 255 255 255 255 255 255 255 255 255 255 255 255 255 255 255 255 255 255 255 255 255 255 255 255 255 255 255 255 255 255 252 242 229 217 202 191 183 175 161 161 154 146 144 143 150 151 150 156 160 160 162 157 156 151 145 135 119 93 70 70 80 115 149 184 224 252 255 255 255 255 255 255 255 255 255 255 255 255 255 255 255 255 255 255 255 255
255 255 255 255 255 255 255 255 255 255 255 255 255 255 255 255 255 255 255 255 255 255 255 255 255 255 255 255 255 255 255 255 255 255 255 255 255 255 249 239 227 215 203 189 179 168 164 160 152 149 141 140 138 128 130 128 123 123 113 111 96 88 77 62 60 71 98 130 167 205 242 255 255 255 255 255 255 255 255 255 255 255 255 255 255 255 255 255 255 255 255 255
255 255 255 255 255 255 255 255 255 255 255 255 255 255 255 255 255 255 255 255 255 255 255 255 255 255 255 255 255 255 255 255 255 255 255 255 255 255 255 254 249 237 226 213 202 190 181 173 164 157 157 145 140 133 131 123 121 115 112 110 94 89 80 77 79 95 121 152 191 232 254 255 255 255 255 255 255 255 255 255 255 255 255 255 255 255 255 255 255 255 255 255
255 255 255 255 255 255 255 255 255 255 255 255 255 255 255 255 255 255 255 255 255 255 255 255 255 255 255 255 255 255 255 255 255 255 255 255 255 255 255 255 255 254 249 239 228 217 204 201 188 180 169 164 158 144 145 140 136 128 122 122 118 112 109 103 111 131 149 186 225 251 255 255 255 255 255 255 255 255 255 255 255 255 255 255 255 255 255 255 255 255 255 255
255 255 255 255 255 255 255 255 255 255 255 255 255 255 255 255 255 255 255 255 255 255 255 255 255 255 255 255 255 255 255 255 255 255 255 255 255 255 255 255 255 255 255 255 252 247 238 226 215 208 201 191 184 178 172 163 160 154 152 147 141 137 134 143 149 167 193 227 252 255 255 255 255 255 255 255 255 255 255 255 255 255 255 255 255 255 255 255 255 255 255 255
255 255 255 255 255 255 255 255 255 255 255 255 255 255 255 255 255 255 255 255 255 255 255 255 255 255 255 255 255 255 255 255 255 255 255 255 255 255 255 255 255 255 255 255 255 255 255 253 247 240 232 223 218 208 204 199 194 191 183 183 184 183 184 194 205 228 247 255 255 255 255 255 255 255 255 255 255 255 255 255 255 255 255 255 255 255 255 255 255 255 255 255
255 255 255 255 255 255 255 255 255 255 255 255 255 255 255 255 255 255 255 255 255 255 255 255 255 255 255 255 255 255 255 255 255 255 255 255 255 255 255 255 255 255 255 255 255 255 255 255 255 255 255 254 251 246 242 239 236 233 233 234 234 237 244 249 255 255 255 255 255 255 255 255 255 255 255 255 255 255 255 255 255 255 255 255 255 255 255 255 255 255 255 255
255 255 255 255 255 255 255 255 255 255 255 255 255 255 255 255 255 255 255 255 255 255 255 255 255 255 255 255 255 255 255 255 255 255 255 255 255 255 255 255 255 255 255 255 255 255 255 255 255 255 255 255 255 255 255 255 255 255 255 255 255 255 255 255 255 255 255 255 255 255 255 255 255 255 255 255 255 255 255 255 255 255 255 255 255 255 255 255 255 255 255 255
255 255 255 255 255 255 255 255 255 255 255 255 255 255 255 255 255 255 255 255 255 255 255 255 255 255 255 255 255 255 255 255 255 255 255 255 255 255 255 255 255 255 255 255 255 255 255 255 255 255 255 255 255 255 255 255 255 255 255 255 255 255 255 255 255 255 255 255 255 255 255 255 255 255 255 255 255 255 255 255 255 255 255 255 255 255 255 255 255 255 255 255
255 255 255 255 255 255 255 255 255 255 255 255 255 255 255 255 255 255 255 255 255 255 255 255 255 255 255 255 255 255 255 255 255 255 255 255 255 255 255 255 255 255 255 255 255 255 255 255 255 255 255 255 255 255 255 255 255 255 255 255 255 255 255 255 255 255 255 255 255 255 255 255 255 255 255 255 255 255 255 255 255 255 255 255 255 255 255 255 255 255 255 255
255 255 255 255 255 255 255 255 255 255 255 255 255 255 255 255 255 255 255 255 255 255 255 255 255 255 255 255 255 255 255 255 255 255 255 255 255 255 255 255 255 255 255 255 255 255 255 255 255 255 255 255 255 255 255 255 255 255 255 255 255 255 255 255 255 255 255 255 255 255 255 255 255 255 255 255 255 255 255 255 255 255 255 255 255 255 255 255 255 255 255 255
255 255 255 255 255 255 255 255 255 255 255 255 255 255 255 255 255 255 255 255 255 255 255 255 255 255 255 255 255 255 255 255 255 255 255 255 255 255 255 255 255 255 255 255 255 255 255 255 255 255 255 255 255 255 255 255 255 255 255 255 255 255 255 255 255 255 255 255 255 255 255 255 255 255 255 255 255 255 255 255 255 255 255 255 255 255 255 255 255 255 255 255
255 255 255 255 255 255 255 255 255 255 255 255 255 255 255 255 255 255 255 255 255 255 255 255 255 255 255 255 255 255 255 255 255 255 255 255 255 255 255 255 255 255 255 255 255 255 255 255 255 255 255 255 255 255 255 255 255 255 255 255 255 255 255 255 255 255 255 255 255 255 255 255 255 255 255 255 255 255 255 255 255 255 255 255 255 255 255 255 255 255 255 255
255 255 255 255 255 255 255 255 255 255 255 255 255 255 255 255 255 255 255 255 255 255 255 255 255 255 255 255 255 255 255 255 255 255 255 255 255 255 255 255 255 255 255 255 255 255 255 255 255 255 255 255 255 255 255 255 255 255 255 255 255 255 255 255 255 255 255 255 255 255 255 255 255 255 255 255 255 255 255 255 255 255 255 255 255 255 255 255 255 255 255 255
255 255 255 255 255 255 255 255 255 255 255 255 255 255 255 255 255 255 255 255 255 255 255 255 255 255 255 255 255 255 255 255 255 255 255 255 255 255 255 255 255 255 255 255 255 255 255 255 255 255 255 255 255 255 255 255 255 255 255 255 255 255 255 255 255 255 255 255 255 255 255 255 255 255 255 255 255 255 255 255 255 255 255 255 255 255 255 255 255 255 255 255
255 255 255 255 255 255 255 255 255 255 255 255 255 255 255 255 255 255 255 255 255 255 255 255 255 255 255 255 255 255 255 255 255 255 255 255 255 255 255 255 255 255 255 255 255 255 255 255 255 255 255 255 255 255 255 255 255 255 255 255 255 255 255 255 255 255 255 255 255 255 255 255 255 255 255 255 255 255 255 255 255 255 255 255 255 255 255 255 255 255 255 255
255 255 255 255 255 255 255 255 255 255 255 255 255 255 255 255 255 255 255 255 255 255 255 255 255 255 255 255 255 255 255 255 255 255 255 255 255 255 255 255 255 255 255 255 255 255 255 255 255 255 255 255 255 255 255 255 255 255 255 255 255 255 255 255 255 255 255 255 255 255 255 255 255 255 255 255 255 255 255 255 255 255 255 255 255 255 255 255 255 255 255 255
255 255 255 255 255 255 255 255 255 255 255 255 255 255 255 255 255 255 255 255 255 255 255 255 255 255 255 255 255 255 255 255 255 255 255 255 255 255 255 255 255 255 255 255 255 255 255 255 255 255 255 255 255 255 255 255 255 255 255 255 255 255 255 255 255 255 255 255 255 255 255 255 255 255 255 255 255 255 255 255 255 255 255 255 255 255 255 255 255 255 255 255
255 255 255 255 255 255 255 255 255 255 255 255 255 255 255 255 255 255 255 255 255 255 255 255 255 255 255 255 255 255 255 255 255 255 255 255 255 255 255 255 255 255 255 255 255 255 255 255 255 255 255 255 255 255 255 255 255 255 255 255 255 255 255 255 255 255 255 255 255 255 255 255 255 255 255 255 255 255 255 255 255 255 255 255 255 255 255 255 255 255 255 255
255 255 255 255 255 255 255 255 255 255 255 255 255 255 255 255 255 255 255 255 255 255 255 255 255 255 255 255 255 255 255 255 255 255 255 255 255 255 255 255 255 255 255 255 255 255 255 255 255 255 255 255 255 255 255 255 255 255 255 255 255 255 255 255 255 255 255 255 255 255 255 255 255 255 255 255 255 255 255 255 255 255 255 255 255 255 255 255 255 255 255 255
255 255 255 255 255 255 255 255 255 255 255 255 255 255 255 255 255 255 255 255 255 255 255 255 255 255 255 255 255 255 255 255 255 255 255 255 255 255 255 255 255 255 255 255 255 255 255 255 255 255 255 255 255 255 255 255 255 255 255 255 255 255 255 255 255 255 255 255 255 255 255 255 255 255 255 255 255 255 255 255 255 255 255 255 255 255 255 255 255 255 255 255
