P2
92 92
255
255 255 255 255 255 255 255 255 255 255 255 255 255 255 255 255 255 255 255 255 255 255 255 255 255 255 255 255 255 255 255 255 255 255 255 255 255 255 255 255 255 255 255 255 255 255 255 255 255 255 255 255 255 255 255 255 255 255 255 255 255 255 255 255 255 255 255 255 255 255 255 255 255 255 255 255 255 255 255 255 255 255 255 255 255 255 255 255 255 255 255 255
255 255 255 255 255 255 255 255 255 255 255 255 255 255 255 255 255 255 255 255 255 255 255 255 255 255 255 255 255 255 255 255 255 255 255 255 255 255 255 253 253 251 250 249 247 247 247 247 246 247 249 250 252 253 254 255 255 255 255 255 255 255 255 255 255 255 255 255 255 255 255 255 255 255 255 255 255 255 255 255 255 255 255 255 255 255 255 255 255 255 255 255
255 255 255 255 255 255 255 255 255 255 255 255 255 255 255 255 255 255 255 255 255 255 255 255 255 255 255 255 255 255 255 255 255 255 255 253 250 247 242 239 237 233 231 231 230 226 227 228 229 230 230 231 235 236 240 242 247 250 253 254 255 255 255 255 255 255 255 255 255 255 255 255 255 255 255 255 255 255 255 255 255 255 255 255 255 255 255 255 255 255 255 255
255 255 255 255 255 255 255 255 255 255 255 255 255 255 255 255 255 255 255 255 255 255 255 255 255 255 255 255 255 255 255 254 252 247 244 238 232 229 223 220 219 213 212 211 210 208 206 207 205 210 211 213 215 218 218 225 227 232 237 243 247 252 255 255 255 255 255 255 255 255 255 255 255 255 255 255 255 255 255 255 255 255 255 255 255 255 255 255 255 255 255 255
255 255 255 255 255 255 255 255 255 255 255 255 255 255 255 255 255 255 255 255 255 255 255 255 255 255 255 255 255 253 249 242 237 229 223 220 214 206 205 200 195 197 194 190 192 189 190 189 191 191 191 190 193 198 199 205 208 213 217 222 229 237 242 247 253 255 255 255 255 255 255 255 255 255 255 255 255 255 255 255 255 255 255 255 255 255 255 255 255 255 255 255
255 255 255 255 255 255 255 255 255 255 255 255 255 255 255 255 255 255 255 255 255 255 255 255 255 255 255 251 245 237 230 221 216 211 204 198 199 192 182 182 183 180 176 181 175 174 178 175 174 173 178 177 177 183 182 188 190 196 199 205 210 216 224 232 237 245 252 255 255 255 255 255 255 255 255 255 255 255 255 255 255 255 255 255 255 255 255 255 255 255 255 255
255 255 255 255 255 255 255 255 255 255 255 255 255 255 255 255 255 255 255 255 255 255 255 255 255 252 245 237 228 219 210 207 200 189 186 184 180 176 172 173 168 167 173 167 165 170 171 172 167 166 171 168 169 170 174 174 175 174 183 186 193 198 206 214 219 228 237 245 252 255 255 255 255 255 255 255 255 255 255 255 255 255 255 255 255 255 255 255 255 255 255 255
255 255 255 255 255 255 255 255 255 255 255 255 255 255 255 255 255 255 255 255 255 255 255 253 246 237 228 219 209 199 194 189 183 178 174 172 171 168 169 168 174 171 172 173 177 178 177 174 180 178 178 174 172 170 170 167 171 170 172 174 176 181 188 191 202 208 218 228 237 246 253 255 255 255 255 255 255 255 255 255 255 255 255 255 255 255 255 255 255 255 255 255
255 255 255 255 255 255 255 255 255 255 255 255 255 255 255 255 255 255 255 255 255 254 249 239 231 217 210 202 192 185 179 173 172 168 170 174 174 173 178 181 181 181 186 183 183 185 185 184 185 184 182 184 181 182 182 176 177 177 172 166 171 169 176 180 186 191 202 208 218 228 239 249 254 255 255 255 255 255 255 255 255 255 255 255 255 255 255 255 255 255 255 255
255 255 255 255 255 255 255 255 255 255 255 255 255 255 255 255 255 255 255 255 253 245 235 221 210 200 193 184 178 173 167 169 169 175 176 181 183 183 182 187 187 190 183 188 186 187 190 188 187 187 189 190 185 186 184 185 181 179 177 177 170 175 161 171 173 173 188 193 206 211 224 233 243 253 255 255 255 255 255 255 255 255 255 255 255 255 255 255 255 255 255 255
255 255 255 255 255 255 255 255 255 255 255 255 255 255 255 255 255 255 255 249 240 228 217 208 196 188 180 173 170 170 174 175 178 180 186 183 187 186 188 193 190 193 191 191 191 190 194 192 190 192 189 190 189 191 188 191 184 184 189 183 182 181 175 172 170 175 170 179 187 194 204 215 229 239 251 255 255 255 255 255 255 255 255 255 255 255 255 255 255 255 255 255
255 255 255 255 255 255 255 255 255 255 255 255 255 255 255 255 255 254 248 237 222 211 199 188 187 175 172 167 174 178 179 182 184 188 186 191 189 191 190 191 189 192 195 196 193 194 193 193 191 194 196 195 193 190 192 188 188 190 187 187 186 185 182 179 175 173 168 167 173 182 188 198 211 224 234 248 255 255 255 255 255 255 255 255 255 255 255 255 255 255 255 255
255 255 255 255 255 255 255 255 255 255 255 255 255 255 255 255 254 244 233 218 208 195 184 179 172 169 175 174 179 187 185 185 190 188 193 190 191 193 194 195 193 192 194 193 194 195 195 192 194 194 196 193 189 192 196 193 191 195 191 190 191 188 185 187 179 181 171 172 164 173 179 183 196 208 221 232 246 254 255 255 255 255 255 255 255 255 255 255 255 255 255 255
255 255 255 255 255 255 255 255 255 255 255 255 255 255 255 253 243 230 218 205 194 185 173 173 170 175 177 183 185 191 187 191 194 191 190 193 194 193 193 196 198 193 194 199 197 197 195 199 197 198 198 195 194 195 193 194 192 196 193 192 194 191 192 188 185 186 184 180 171 173 169 175 181 193 204 217 230 243 253 255 255 255 255 255 255 255 255 255 255 255 255 255
255 255 255 255 255 255 255 255 255 255 255 255 255 255 252 244 228 215 204 190 183 171 173 173 179 181 183 188 189 191 194 192 194 195 194 193 195 194 197 194 193 199 197 195 198 196 196 196 197 196 198 193 196 197 195 193 196 195 192 193 193 196 188 192 188 192 187 186 179 179 172 170 176 180 193 202 217 231 242 253 255 255 255 255 255 255 255 255 255 255 255 255
255 255 255 255 255 255 255 255 255 255 255 255 255 253 243 229 214 201 188 177 174 172 172 176 181 187 187 191 193 193 190 194 196 193 195 198 196 194 193 195 197 199 197 196 198 197 196 197 197 196 198 199 199 197 195 196 200 198 194 194 193 192 192 194 194 191 190 189 188 183 179 175 171 171 178 188 200 214 230 242 253 255 255 255 255 255 255 255 255 255 255 255
255 255 255 255 255 255 255 255 255 255 255 255 254 243 230 216 200 188 176 175 168 171 183 182 186 188 191 191 194 195 192 195 199 194 197 195 198 195 192 196 196 198 199 196 199 198 200 199 199 200 199 199 194 199 193 198 199 198 196 198 198 198 195 196 190 194 193 191 192 185 186 183 176 170 170 179 188 200 212 230 244 254 255 255 255 255 255 255 255 255 255 255
255 255 255 255 255 255 255 255 255 255 255 254 244 230 216 201 192 179 169 165 174 179 182 189 192 191 192 191 192 193 194 197 199 197 198 196 195 198 197 200 199 200 197 199 198 196 196 197 198 202 198 197 197 199 195 198 196 195 200 198 196 197 198 194 193 196 193 196 194 190 189 186 184 174 168 168 176 185 201 217 231 244 255 255 255 255 255 255 255 255 255 255
255 255 255 255 255 255 255 255 255 255 255 248 231 215 200 189 178 166 172 176 184 188 187 187 195 193 196 195 196 196 195 196 198 199 197 198 196 197 197 198 199 197 200 196 199 202 197 197 196 196 198 198 200 198 195 198 198 200 193 196 201 196 196 195 194 195 197 196 193 195 191 188 188 183 171 171 170 177 188 201 217 230 247 255 255 255 255 255 255 255 255 255
255 255 255 255 255 255 255 255 255 255 250 235 220 204 191 179 175 167 178 181 187 189 188 193 196 191 193 198 194 195 195 196 195 199 196 199 196 197 198 200 198 197 198 199 199 199 201 196 201 202 196 197 196 198 195 199 200 198 199 198 198 195 199 199 196 197 196 195 196 193 191 189 191 184 180 175 172 174 182 190 204 219 237 250 255 255 255 255 255 255 255 255
255 255 255 255 255 255 255 255 255 253 239 225 208 191 183 170 166 178 182 185 190 189 189 193 194 197 195 197 195 199 198 200 199 199 198 200 199 199 195 196 199 200 195 200 198 198 197 198 198 197 198 199 199 198 200 196 198 195 194 194 197 199 199 197 197 195 199 196 198 193 194 192 191 191 189 182 174 170 168 181 193 207 225 240 252 255 255 255 255 255 255 255
255 255 255 255 255 255 255 255 254 244 226 210 196 186 171 168 176 182 190 186 193 192 193 194 196 196 198 195 194 198 200 198 198 199 198 199 197 197 198 200 199 195 200 196 198 199 201 198 199 196 197 199 197 198 198 198 198 199 196 198 195 198 197 199 197 197 198 196 196 193 192 195 196 193 187 185 182 174 165 174 185 196 213 228 243 254 255 255 255 255 255 255
255 255 255 255 255 255 255 255 249 233 215 198 184 175 165 175 183 185 189 191 193 191 195 194 197 196 200 201 198 198 202 199 199 196 200 200 196 197 194 197 198 199 198 199 199 198 198 200 198 197 199 196 199 197 200 199 198 199 197 199 196 200 197 197 198 199 197 197 199 197 195 196 196 193 189 187 184 177 169 171 175 182 201 218 233 249 255 255 255 255 255 255
255 255 255 255 255 255 255 253 240 221 205 192 176 170 170 181 186 185 189 192 195 193 197 196 194 196 197 202 199 198 197 196 198 201 199 198 195 201 199 197 200 197 199 196 197 199 197 197 197 198 199 197 199 193 197 197 200 200 199 201 200 197 196 197 198 199 198 197 198 198 196 196 194 196 192 190 186 185 178 172 168 179 191 205 223 240 252 255 255 255 255 255
255 255 255 255 255 255 255 246 231 213 194 183 172 166 174 184 186 187 194 195 196 195 193 199 198 198 197 199 200 201 197 195 199 198 200 195 199 197 198 198 199 198 197 199 195 197 198 200 199 199 195 200 194 198 195 199 196 199 196 199 199 201 196 197 199 199 200 198 196 195 199 193 193 196 193 195 192 184 182 176 173 173 181 194 213 230 245 255 255 255 255 255
255 255 255 255 255 255 252 237 220 203 189 177 173 175 182 185 187 190 191 195 195 194 199 198 198 199 195 198 198 198 196 197 198 201 199 198 198 197 199 197 197 197 198 200 197 199 196 197 199 197 201 194 198 200 197 195 199 198 198 197 201 202 195 201 198 201 199 200 197 200 197 196 196 195 194 192 190 187 185 181 173 168 171 185 200 221 237 252 255 255 255 255
255 255 255 255 255 255 244 228 208 192 182 173 174 177 187 189 193 191 194 195 195 196 194 196 196 196 195 200 199 198 199 197 198 198 197 197 200 199 200 198 197 193 198 195 197 198 197 197 199 196 198 198 196 198 197 200 198 196 196 195 197 198 199 199 198 199 198 196 197 201 197 198 197 196 197 194 193 185 188 185 181 169 171 178 192 212 226 244 255 255 255 255
255 255 255 255 255 252 238 214 200 186 174 169 175 182 185 190 191 192 194 197 194 196 197 195 197 197 198 198 197 201 200 198 200 196 201 198 195 198 199 196 196 200 199 196 198 196 197 195 194 195 199 199 194 195 198 196 200 199 200 198 198 198 196 198 199 199 198 201 198 200 194 197 200 200 196 194 196 193 190 184 181 177 170 174 188 201 218 237 251 255 255 255
255 255 255 255 255 245 226 209 189 182 167 172 181 187 189 190 195 196 196 197 198 196 195 197 197 199 196 198 197 201 198 199 200 197 196 196 197 197 194 198 194 197 197 196 198 196 193 197 196 195 198 194 194 198 196 200 198 196 196 197 197 200 196 200 198 198 199 199 199 194 199 197 199 197 193 193 194 193 193 188 185 183 171 166 179 189 210 230 245 255 255 255
255 255 255 255 254 236 220 201 187 172 168 176 183 186 189 189 191 196 198 198 197 199 200 198 198 194 198 200 196 199 197 199 199 198 198 197 195 199 197 199 197 197 196 196 197 197 195 195 195 196 195 195 195 197 197 193 199 200 197 193 197 198 197 198 199 195 197 201 198 197 196 197 197 200 198 196 194 191 191 189 185 184 175 169 178 183 200 220 238 253 255 255
255 255 255 255 248 230 214 194 178 170 175 179 185 188 192 194 194 196 196 196 198 196 199 193 200 197 199 198 195 197 199 198 199 198 196 196 197 196 194 192 196 195 197 193 196 196 193 198 196 197 195 196 197 198 197 195 196 197 194 197 200 196 201 198 194 200 200 198 197 198 197 199 196 195 194 195 198 196 195 193 189 188 182 169 169 179 191 210 231 248 255 255
255 255 255 255 243 227 206 191 180 166 176 189 191 191 193 192 195 195 197 197 199 198 198 198 196 196 196 198 196 198 198 198 198 195 198 198 196 197 197 197 196 196 197 195 196 195 193 194 195 193 197 193 196 196 193 195 193 198 196 198 200 198 194 196 200 198 199 198 199 199 198 197 198 195 192 197 194 194 196 193 190 188 179 178 167 174 189 205 223 241 255 255
255 255 255 252 237 215 199 182 174 173 180 182 190 191 194 194 195 196 194 198 199 199 197 196 199 199 199 198 197 194 202 195 195 193 197 194 195 196 192 195 195 194 192 198 194 193 197 194 194 193 194 194 196 194 195 195 196 194 198 195 194 196 197 196 197 199 198 200 197 199 197 198 195 199 197 199 197 194 195 193 196 186 185 180 173 171 178 197 215 234 252 255
255 255 255 248 229 213 192 180 171 175 183 186 188 189 194 195 197 198 197 196 198 199 199 197 200 195 200 199 195 198 194 194 197 196 198 195 193 195 194 195 193 197 195 197 197 194 193 192 195 197 193 193 194 194 193 194 199 194 194 198 197 198 197 197 199 195 196 199 197 200 197 196 200 196 199 196 195 198 196 195 192 188 188 182 176 170 177 195 209 231 248 255
255 255 255 243 224 204 187 177 171 176 186 186 191 190 194 197 196 196 197 197 199 197 197 199 196 200 201 197 199 200 196 196 196 197 197 196 195 194 192 193 194 194 195 196 190 192 193 194 194 194 192 191 193 194 196 193 192 196 196 195 195 197 196 198 195 200 197 197 200 201 201 202 200 196 196 197 197 193 196 198 192 193 188 187 177 171 173 188 204 225 243 255
255 255 253 237 215 201 183 171 173 184 184 190 190 194 197 193 196 201 199 199 197 196 197 198 196 198 200 199 201 198 194 195 195 194 196 196 194 194 191 194 192 193 193 195 190 196 192 192 194 192 195 191 193 195 197 194 194 199 194 193 196 199 198 196 196 195 198 198 198 199 199 198 197 201 199 197 195 195 197 193 189 190 192 186 179 168 173 182 203 220 237 253
255 255 250 232 212 195 180 169 173 181 185 192 194 191 194 195 197 199 198 200 198 201 197 197 199 198 199 197 195 194 196 200 196 196 198 196 190 195 193 193 197 196 194 192 191 194 198 193 195 191 196 193 192 194 197 193 195 192 196 197 196 197 199 196 196 196 195 195 197 198 194 198 198 196 197 200 198 194 199 196 195 192 193 185 183 169 175 180 190 212 235 251
255 255 247 229 206 190 175 168 179 185 187 193 195 192 198 194 195 194 196 196 194 195 197 198 199 197 197 196 196 195 197 195 196 195 196 193 193 192 192 192 191 196 193 191 195 196 191 193 193 190 193 192 193 193 196 195 194 194 197 195 197 194 195 196 198 198 198 198 200 196 198 199 200 198 201 196 195 196 195 193 192 193 190 189 185 176 170 178 191 209 227 248
255 255 244 225 204 185 171 168 176 186 186 192 196 195 197 194 193 198 200 196 201 199 198 198 200 195 197 196 199 197 196 197 195 197 193 196 195 192 193 192 193 190 191 195 192 194 192 190 192 195 190 191 192 194 194 192 194 195 194 194 193 196 196 197 197 196 197 197 200 199 198 197 198 199 198 196 196 197 196 194 192 193 193 190 188 176 170 173 185 205 225 242
255 254 240 221 199 188 171 170 175 187 187 192 195 194 197 197 195 199 196 199 199 199 200 199 200 199 199 197 194 195 195 193 196 195 195 195 192 192 195 191 192 193 194 192 192 193 193 191 191 196 192 193 192 195 195 193 192 194 192 196 198 197 195 197 200 196 195 200 198 196 198 201 198 195 198 197 198 198 198 197 196 191 194 191 184 180 170 170 184 202 219 241
255 253 237 217 199 181 168 170 179 187 189 190 194 194 200 196 200 197 198 197 198 198 198 199 197 195 196 197 197 198 196 194 196 195 196 194 196 193 196 193 193 192 193 191 193 194 191 190 189 191 191 191 192 193 192 193 190 194 195 193 192 195 196 195 197 197 196 198 196 198 196 202 200 200 197 200 195 197 200 196 196 195 195 191 185 184 173 172 183 196 218 237
255 251 234 213 195 177 168 175 184 188 189 189 193 194 194 196 199 197 199 196 202 199 198 199 196 196 196 198 199 196 194 193 196 194 195 191 192 194 192 192 192 192 194 191 188 190 188 193 193 190 193 188 193 192 190 193 197 193 195 193 192 195 192 195 195 197 198 193 197 197 199 200 196 199 198 199 199 197 194 197 191 192 195 191 186 181 174 172 182 196 214 236
255 250 233 212 191 181 171 177 181 189 188 193 195 196 201 196 196 196 196 197 197 199 199 199 198 197 196 198 194 196 192 195 196 194 193 191 194 193 193 193 191 192 193 190 195 189 190 188 192 191 192 190 189 194 196 194 191 195 196 194 194 194 194 196 198 197 200 196 196 196 197 202 199 197 201 199 198 196 199 198 196 192 190 189 184 183 173 170 177 195 213 232
255 248 229 208 193 178 174 173 184 188 192 194 193 196 199 198 196 196 199 199 199 197 199 199 194 197 197 197 192 195 194 195 196 192 192 193 195 193 192 190 190 191 192 193 194 191 190 193 191 188 190 191 193 196 192 190 190 192 195 193 197 196 198 197 194 192 194 197 198 199 199 200 199 199 199 196 198 198 193 197 196 196 191 191 188 181 175 171 177 191 209 230
255 248 229 209 188 179 169 173 185 186 189 195 193 196 195 200 198 196 196 199 199 197 199 197 196 199 196 198 197 194 193 199 196 194 190 194 191 194 191 187 193 194 192 189 190 192 194 194 194 191 191 194 192 194 193 191 188 191 192 194 191 195 193 196 195 195 197 197 201 198 196 197 201 198 195 197 200 199 196 195 196 192 193 192 190 183 179 169 176 193 208 230
255 247 227 207 191 174 171 175 185 189 192 191 193 196 195 201 201 196 196 199 197 197 200 198 197 198 197 194 196 194 196 196 197 196 194 191 192 188 193 191 194 192 191 193 189 188 195 190 192 190 190 189 190 190 192 194 193 193 191 193 198 196 194 196 198 198 198 196 196 198 199 199 201 198 199 197 198 197 197 199 196 194 194 192 188 185 176 164 175 191 209 227
255 248 228 210 187 173 171 177 184 188 195 194 193 197 197 196 198 198 199 199 201 198 197 197 200 196 196 196 195 196 195 196 197 196 194 192 195 191 191 190 194 191 189 189 193 191 188 187 191 192 194 191 192 193 190 191 193 195 196 195 192 194 198 192 198 196 195 199 198 202 195 194 199 195 200 198 200 197 199 197 198 195 193 188 186 187 179 168 176 187 210 227
255 248 226 206 190 175 168 178 186 188 192 196 191 192 199 197 196 199 197 195 195 195 197 197 196 196 195 198 194 194 198 194 195 194 194 195 191 195 191 191 192 189 191 191 189 193 193 192 192 193 192 194 193 192 192 193 192 191 196 192 196 192 193 194 196 194 196 196 198 198 199 194 196 200 198 202 199 200 196 195 194 192 195 191 188 185 180 170 178 188 209 229
255 247 227 208 190 177 169 173 183 185 190 193 192 195 194 194 197 199 200 198 195 198 203 201 197 197 201 197 198 194 194 195 197 193 195 196 192 191 193 190 194 193 189 197 190 188 191 192 192 194 188 189 190 192 190 194 191 194 190 193 194 197 196 196 197 195 195 198 196 197 198 198 198 200 200 198 199 197 200 198 198 195 195 192 186 182 176 167 176 189 207 228
255 247 230 209 188 178 172 180 184 188 192 192 195 193 196 197 199 197 201 198 199 201 198 195 199 198 199 196 194 193 197 195 196 197 196 193 190 193 192 190 193 192 193 191 189 192 193 193 191 190 191 190 193 192 194 192 193 193 195 193 194 195 192 195 196 193 198 196 194 197 197 198 198 198 199 199 202 196 196 195 198 191 193 190 189 185 178 170 177 190 209 229
255 249 231 212 187 174 170 177 183 189 191 194 196 195 201 198 197 199 196 200 197 200 197 195 196 196 199 196 196 198 196 195 195 196 196 194 195 193 189 194 193 191 190 192 193 190 191 192 188 188 191 191 191 192 193 193 195 195 190 193 195 194 197 199 198 193 196 197 195 198 198 195 197 197 199 199 198 199 197 199 194 194 195 192 190 185 176 166 178 192 210 230
255 250 231 213 192 177 170 176 184 186 192 193 192 198 197 197 199 197 197 196 202 198 197 199 197 196 197 195 195 195 194 193 190 193 194 194 195 195 193 193 194 191 190 194 190 194 189 190 192 193 192 196 191 192 191 192 195 194 192 196 195 196 197 197 195 193 200 195 199 198 200 197 201 197 197 199 198 197 195 197 195 196 192 190 189 184 176 171 178 191 212 231
255 251 234 213 193 181 168 174 183 184 190 193 197 194 194 198 196 200 201 197 198 196 199 197 198 195 196 196 199 197 194 196 193 194 194 196 194 193 193 193 194 189 195 188 190 193 194 193 191 194 190 194 194 193 193 191 192 195 196 194 195 195 197 196 198 196 199 200 199 199 199 198 199 198 197 198 196 199 197 199 198 197 194 191 190 182 175 169 180 197 213 234
255 253 236 219 195 182 170 172 181 185 191 190 194 196 196 196 198 197 193 198 201 199 199 198 199 197 193 196 196 196 197 194 195 193 192 192 191 195 194 189 193 192 193 193 191 192 193 194 192 192 191 193 189 192 193 190 192 192 193 193 196 196 197 196 198 196 194 199 194 199 200 200 198 199 194 201 198 197 199 195 197 194 193 190 187 183 171 170 178 195 215 236
255 254 239 221 200 187 173 173 179 187 189 195 194 193 195 195 197 199 198 202 198 202 201 195 199 198 199 194 193 197 198 195 201 195 194 194 194 196 195 194 193 194 192 193 191 188 186 194 192 194 192 193 190 192 195 192 193 193 191 194 195 194 194 195 197 196 197 196 196 200 198 198 200 195 201 194 197 197 196 195 195 195 189 191 186 181 167 174 184 200 218 239
255 255 243 223 204 187 174 169 176 185 190 191 195 194 196 194 200 198 199 196 198 196 199 198 198 196 197 198 194 199 196 196 195 195 195 193 195 194 191 193 196 190 190 193 192 195 190 199 189 193 191 192 193 191 193 190 196 193 195 196 195 194 195 195 197 201 196 200 198 198 196 198 200 197 195 199 198 198 194 192 195 192 192 186 186 175 170 175 188 205 224 243
255 255 247 229 209 193 179 165 177 184 185 191 198 195 196 196 197 195 196 195 203 201 196 196 198 198 200 198 195 196 198 195 193 196 196 195 193 188 194 195 196 195 195 191 192 194 191 190 192 191 187 194 193 193 196 196 195 196 192 195 195 196 198 198 198 199 196 195 196 200 201 198 196 203 198 196 198 199 194 195 192 192 190 191 185 173 170 175 190 208 228 247
255 255 250 231 212 197 181 168 173 183 189 191 193 193 197 196 197 199 198 198 196 199 200 197 202 201 199 198 198 196 197 197 195 195 194 196 198 196 196 191 193 194 193 194 195 194 195 190 194 193 193 194 194 193 193 192 197 196 195 194 194 197 198 196 193 196 198 198 199 197 197 199 196 200 198 198 198 196 197 193 190 192 188 188 184 173 168 180 195 214 234 250
255 255 254 236 217 199 182 170 173 179 182 187 195 191 193 197 195 199 196 198 198 199 202 197 199 199 199 198 196 195 196 195 196 196 197 193 196 192 193 191 194 194 193 190 196 192 194 194 189 194 191 194 193 194 191 196 193 196 194 193 196 195 198 196 196 198 198 199 197 197 196 196 200 197 200 196 196 197 194 196 193 189 189 190 184 171 171 181 196 219 238 253
255 255 255 243 223 206 187 177 169 176 182 188 191 195 193 198 198 198 199 195 199 193 197 198 197 199 201 198 195 197 198 198 195 198 195 193 197 192 194 193 194 194 192 196 197 195 193 193 194 192 195 196 194 194 197 194 195 194 198 198 196 192 196 197 196 199 198 197 199 196 200 201 195 197 195 197 195 196 195 191 196 192 191 181 177 167 174 190 203 223 243 255
255 255 255 247 228 211 189 177 171 174 182 186 187 195 197 196 196 199 197 199 199 197 202 199 198 197 196 198 199 198 197 198 198 196 194 196 196 194 193 193 196 191 192 196 194 191 192 192 196 192 196 197 192 194 198 197 195 199 195 196 199 193 196 193 196 199 198 201 196 198 200 196 199 198 195 199 200 196 196 193 192 189 191 183 171 167 178 194 210 229 247 255
255 255 255 253 235 216 199 179 173 171 181 187 187 192 193 195 196 198 197 197 197 197 197 199 198 195 197 197 199 197 193 196 195 196 197 197 193 196 199 197 192 194 193 195 192 192 193 197 194 194 191 197 194 195 192 197 196 196 195 200 197 200 199 196 201 198 198 198 197 200 196 196 197 198 197 197 194 194 195 190 191 191 184 176 170 170 184 203 217 235 252 255
255 255 255 254 242 225 208 185 174 169 175 183 185 191 191 196 195 195 195 195 196 199 200 199 203 198 199 197 200 197 194 196 194 197 197 196 195 194 197 195 196 199 195 194 193 194 197 198 197 192 193 195 196 191 197 196 192 197 196 201 197 195 198 198 198 199 201 198 197 195 197 198 198 196 197 197 195 197 192 190 192 184 183 174 168 176 186 209 224 242 254 255
255 255 255 255 248 231 210 193 180 171 170 179 189 189 192 193 197 198 198 193 200 197 198 198 198 198 199 199 199 197 196 195 199 200 197 196 196 194 197 197 194 194 197 195 196 196 197 197 195 197 198 194 196 195 195 196 196 195 196 196 194 196 197 200 197 198 197 198 198 199 197 198 197 197 199 199 197 194 194 190 188 184 182 168 172 177 196 213 231 249 255 255
255 255 255 255 252 238 221 203 187 174 167 177 185 186 188 195 195 193 198 197 197 200 197 196 199 200 197 197 198 199 198 198 196 198 196 197 196 197 196 195 196 194 192 196 197 195 199 195 196 195 194 198 194 196 195 197 197 198 197 198 196 198 198 200 196 197 198 197 198 198 197 200 196 196 195 196 196 191 192 189 187 183 177 170 176 185 200 220 238 253 255 255
255 255 255 255 255 246 229 210 193 176 169 177 182 185 187 191 194 192 197 196 197 198 198 197 198 196 197 196 197 201 198 202 198 198 198 196 195 196 196 195 194 197 197 197 198 195 194 199 195 198 195 198 196 194 200 198 197 198 198 196 200 197 201 197 199 198 196 198 201 199 200 199 198 196 195 194 193 191 193 189 183 181 175 171 177 192 210 229 245 255 255 255
255 255 255 255 255 252 237 221 201 186 172 171 178 183 187 190 190 193 195 195 197 197 196 199 199 199 197 195 197 199 198 198 198 201 197 201 197 200 197 199 198 197 197 196 196 194 194 197 196 200 196 196 197 198 196 196 198 195 202 195 199 194 198 198 199 200 198 197 198 199 199 196 201 195 200 194 193 193 189 186 180 174 167 173 186 201 220 237 251 255 255 255
255 255 255 255 255 255 245 226 213 196 181 173 171 180 186 185 192 194 194 196 194 195 197 197 199 196 202 198 199 198 197 198 199 199 196 195 200 192 197 197 196 196 197 197 198 198 196 195 195 198 197 199 198 196 194 196 198 198 198 196 199 197 197 196 201 196 201 198 197 198 198 198 200 194 198 194 192 192 189 184 179 175 172 179 195 210 229 246 255 255 255 255
255 255 255 255 255 255 252 238 222 204 187 174 168 175 178 185 191 188 196 195 195 196 195 194 196 197 197 196 199 199 197 199 198 197 198 199 198 198 199 202 197 199 197 198 196 197 195 198 198 198 197 197 200 200 197 198 197 200 197 199 202 199 200 199 197 199 194 201 197 198 197 195 198 191 196 192 189 192 189 178 176 167 174 187 204 218 236 252 255 255 255 255
255 255 255 255 255 255 255 246 232 212 191 182 171 171 174 185 185 189 191 190 200 197 195 194 197 200 202 196 197 198 197 198 194 200 199 197 199 196 196 196 200 198 197 197 196 196 196 201 193 198 196 198 198 196 198 196 198 199 197 199 195 198 197 197 199 196 200 201 201 198 196 193 194 196 192 192 192 186 185 179 171 175 181 196 210 230 247 255 255 255 255 255
255 255 255 255 255 255 255 253 240 221 206 191 176 172 171 179 186 190 189 193 194 194 196 197 197 194 196 196 198 198 195 197 200 197 195 195 200 200 199 199 200 200 198 196 194 198 197 201 199 200 197 198 196 198 197 194 197 199 197 200 197 203 199 198 198 198 198 200 196 199 196 196 194 195 193 192 186 183 178 173 168 179 190 207 222 239 253 255 255 255 255 255
255 255 255 255 255 255 255 255 249 233 213 200 188 177 169 175 179 181 187 192 192 193 193 198 198 199 195 195 197 199 200 196 194 199 197 200 201 197 200 199 197 201 199 198 200 199 198 196 199 194 196 197 200 197 198 197 202 200 196 197 197 196 196 198 199 199 194 198 196 198 195 194 192 193 190 190 184 180 172 170 178 187 197 214 234 248 255 255 255 255 255 255
255 255 255 255 255 255 255 255 254 244 229 211 195 183 176 173 176 183 185 187 191 195 195 190 195 197 194 196 196 194 195 198 200 198 198 199 199 199 198 198 198 196 198 199 199 201 197 197 197 199 200 196 199 198 201 198 196 197 198 198 199 199 199 199 197 198 198 198 196 196 193 192 194 191 189 185 183 172 169 170 182 193 210 232 244 254 255 255 255 255 255 255
255 255 255 255 255 255 255 255 255 252 240 222 209 191 179 169 170 177 182 186 194 192 191 196 195 196 197 195 196 198 196 198 197 199 199 198 200 198 197 201 200 200 199 200 198 198 200 199 199 197 199 198 203 199 197 199 199 199 203 197 197 199 197 196 196 197 193 197 196 193 194 194 191 187 185 180 171 165 171 179 190 204 222 240 253 255 255 255 255 255 255 255
255 255 255 255 255 255 255 255 255 255 250 234 220 206 191 178 170 168 177 180 186 187 189 190 194 194 197 198 196 198 195 196 199 195 196 197 198 197 201 196 199 196 201 199 199 198 202 196 199 201 196 198 199 198 199 196 196 199 198 195 197 199 194 198 197 197 197 195 194 194 192 191 189 186 180 172 168 171 182 192 205 219 235 250 255 255 255 255 255 255 255 255
255 255 255 255 255 255 255 255 255 255 255 247 233 219 204 190 178 172 168 175 184 185 189 190 193 192 195 196 196 197 197 199 197 194 199 197 198 197 198 197 200 196 197 199 199 197 196 199 200 198 199 201 196 200 201 201 197 194 196 198 193 198 199 196 197 194 193 198 194 193 192 187 185 181 176 170 170 180 189 204 214 231 248 255 255 255 255 255 255 255 255 255
255 255 255 255 255 255 255 255 255 255 255 255 245 228 213 201 187 176 168 165 174 178 185 189 193 193 191 192 194 193 197 197 196 196 200 196 197 196 196 198 199 195 201 198 198 199 198 197 195 198 198 197 198 201 198 199 202 198 198 197 195 191 197 199 196 194 190 192 193 191 188 183 182 175 170 171 178 188 201 214 231 244 254 255 255 255 255 255 255 255 255 255
255 255 255 255 255 255 255 255 255 255 255 255 254 243 229 216 197 187 176 168 170 177 185 183 182 193 192 192 191 191 197 194 195 193 196 193 196 195 195 195 198 197 196 197 195 197 199 196 197 199 197 193 198 200 199 195 195 196 196 198 197 196 197 193 196 193 190 191 186 185 185 181 175 166 169 175 186 201 211 227 242 254 255 255 255 255 255 255 255 255 255 255
255 255 255 255 255 255 255 255 255 255 255 255 255 254 242 231 214 202 187 180 173 171 175 179 182 185 185 189 188 192 193 192 194 195 193 193 195 194 198 197 196 195 197 197 195 200 198 198 193 198 198 193 197 198 195 198 196 199 194 194 191 193 190 191 194 190 191 189 188 181 180 176 166 166 177 188 199 215 229 243 253 255 255 255 255 255 255 255 255 255 255 255
255 255 255 255 255 255 255 255 255 255 255 255 255 255 253 243 228 216 203 190 181 172 171 168 176 183 185 186 186 187 190 191 194 193 195 192 192 197 194 195 195 196 194 196 197 197 197 195 196 197 199 198 196 195 192 197 199 195 196 194 191 196 194 193 191 188 185 184 183 176 174 170 173 182 191 201 216 228 243 253 255 255 255 255 255 255 255 255 255 255 255 255
255 255 255 255 255 255 255 255 255 255 255 255 255 255 255 253 243 229 219 207 194 182 175 168 168 173 180 186 184 190 187 188 191 195 195 190 197 193 197 196 190 195 197 193 194 194 197 197 199 196 193 198 193 196 195 194 197 194 197 192 192 190 187 188 184 185 183 180 177 171 166 176 184 194 204 215 231 242 253 255 255 255 255 255 255 255 255 255 255 255 255 255
255 255 255 255 255 255 255 255 255 255 255 255 255 255 255 255 253 246 230 219 211 194 183 173 172 168 172 175 182 183 186 186 188 187 190 194 191 195 194 191 193 196 194 193 193 196 193 193 194 195 193 192 192 197 196 194 192 191 193 188 187 186 185 187 183 182 175 173 168 172 179 186 193 207 221 232 244 254 255 255 255 255 255 255 255 255 255 255 255 255 255 255
255 255 255 255 255 255 255 255 255 255 255 255 255 255 255 255 255 254 247 235 222 211 200 187 186 175 169 168 171 175 181 186 185 184 188 188 190 188 192 192 192 193 195 194 195 195 190 194 193 195 192 195 190 193 190 190 192 189 185 187 188 187 180 179 177 173 165 172 172 176 192 198 211 224 236 246 254 255 255 255 255 255 255 255 255 255 255 255 255 255 255 255
255 255 255 255 255 255 255 255 255 255 255 255 255 255 255 255 255 255 255 250 240 230 215 205 195 184 181 171 166 166 169 178 180 184 185 185 185 191 189 189 191 192 190 189 194 189 192 191 191 188 193 191 191 190 188 188 191 184 186 185 183 179 175 174 166 169 177 179 186 196 209 216 227 241 250 255 255 255 255 255 255 255 255 255 255 255 255 255 255 255 255 255
255 255 255 255 255 255 255 255 255 255 255 255 255 255 255 255 255 255 255 255 253 245 233 221 212 201 193 186 179 174 168 169 169 174 174 180 184 183 185 185 189 184 187 187 189 185 187 188 189 187 185 191 185 189 185 183 180 181 176 174 176 169 172 172 174 177 187 194 203 212 221 233 245 252 255 255 255 255 255 255 255 255 255 255 255 255 255 255 255 255 255 255
255 255 255 255 255 255 255 255 255 255 255 255 255 255 255 255 255 255 255 255 255 254 250 239 230 219 211 199 192 189 182 176 168 169 170 169 172 178 180 180 183 182 182 182 182 183 185 185 186 182 184 181 188 181 179 178 177 172 170 168 170 173 173 181 189 191 201 213 220 227 240 249 254 255 255 255 255 255 255 255 255 255 255 255 255 255 255 255 255 255 255 255
255 255 255 255 255 255 255 255 255 255 255 255 255 255 255 255 255 255 255 255 255 255 255 253 246 237 228 218 211 200 193 189 177 179 176 170 167 172 167 174 176 174 179 176 181 174 173 174 174 175 179 176 172 167 171 171 170 171 170 176 178 185 186 194 204 208 221 227 237 246 253 255 255 255 255 255 255 255 255 255 255 255 255 255 255 255 255 255 255 255 255 255
255 255 255 255 255 255 255 255 255 255 255 255 255 255 255 255 255 255 255 255 255 255 255 255 255 251 245 235 228 220 211 206 201 191 184 183 180 176 174 172 172 168 171 169 173 168 170 170 173 170 170 164 172 171 170 171 179 179 184 188 195 200 205 209 220 229 237 244 252 255 255 255 255 255 255 255 255 255 255 255 255 255 255 255 255 255 255 255 255 255 255 255
255 255 255 255 255 255 255 255 255 255 255 255 255 255 255 255 255 255 255 255 255 255 255 255 255 255 255 252 247 238 230 223 216 212 204 201 196 193 187 185 184 179 178 178 174 175 175 174 175 176 176 179 181 184 186 185 188 196 200 204 209 216 225 232 238 246 251 255 255 255 255 255 255 255 255 255 255 255 255 255 255 255 255 255 255 255 255 255 255 255 255 255
255 255 255 255 255 255 255 255 255 255 255 255 255 255 255 255 255 255 255 255 255 255 255 255 255 255 255 255 255 253 247 241 234 228 223 217 214 209 203 201 196 195 193 194 192 189 191 191 188 191 195 191 197 197 201 205 208 213 217 222 228 236 242 248 253 255 255 255 255 255 255 255 255 255 255 255 255 255 255 255 255 255 255 255 255 255 255 255 255 255 255 255
255 255 255 255 255 255 255 255 255 255 255 255 255 255 255 255 255 255 255 255 255 255 255 255 255 255 255 255 255 255 255 254 251 247 243 236 232 225 224 220 219 217 211 209 207 209 208 211 205 208 209 213 214 217 220 224 226 233 238 243 248 251 255 255 255 255 255 255 255 255 255 255 255 255 255 255 255 255 255 255 255 255 255 255 255 255 255 255 255 255 255 255
255 255 255 255 255 255 255 255 255 255 255 255 255 255 255 255 255 255 255 255 255 255 255 255 255 255 255 255 255 255 255 255 255 255 255 253 250 246 244 240 239 235 234 230 229 229 228 227 228 229 229 232 236 235 239 244 246 250 253 255 255 255 255 255 255 255 255 255 255 255 255 255 255 255 255 255 255 255 255 255 255 255 255 255 255 255 255 255 255 255 255 255
