P2
92 92
255
255 255 255 255 255 255 255 255 255 255 255 255 255 255 255 255 255 255 255 255 255 255 255 255 255 255 255 255 255 255 255 255 255 255 255 255 255 255 255 255 255 255 255 255 255 255 255 255 255 255 255 255 255 255 255 255 255 255 255 255 255 255 255 255 255 255 255 255 255 255 255 255 255 255 255 255 255 255 255 255 255 255 255 255 255 255 255 255 255 255 255 255
255 255 255 255 255 255 255 255 255 255 255 255 255 255 255 255 255 255 255 255 255 255 255 255 255 255 255 255 255 255 255 255 255 255 255 255 255 255 255 255 255 255 255 255 255 255 255 255 255 255 255 255 255 255 255 255 255 255 255 255 255 255 255 255 255 255 255 255 255 255 255 255 255 255 255 255 255 255 255 255 255 255 255 255 255 255 255 255 255 255 255 255
255 255 255 255 255 255 255 255 255 255 255 255 255 255 255 255 255 255 255 255 255 255 255 255 255 255 255 255 255 255 255 255 255 255 255 255 255 255 255 255 255 255 255 255 255 255 255 255 255 255 255 255 255 255 255 255 255 255 255 255 255 255 255 255 255 255 255 255 255 255 255 255 255 255 255 255 255 255 255 255 255 255 255 255 255 255 255 255 255 255 255 255
255 255 255 255 255 255 255 255 255 255 255 255 255 255 255 255 255 255 255 255 255 255 255 255 255 255 255 255 255 255 255 255 255 255 255 255 255 255 255 255 255 255 255 255 255 255 255 255 255 255 255 255 255 255 255 255 255 255 255 255 255 255 255 255 255 255 255 255 255 255 255 255 255 255 255 255 255 255 255 255 255 255 255 255 255 255 255 255 255 255 255 255
255 255 255 255 255 255 255 255 255 255 255 255 255 255 255 255 255 255 255 255 255 255 255 255 255 255 255 255 255 255 255 255 255 255 255 255 255 255 255 255 255 255 255 255 255 255 255 255 255 255 255 255 255 255 255 255 255 255 255 255 255 255 255 255 255 255 255 255 255 255 255 255 255 255 255 255 255 255 255 255 255 255 255 255 255 255 255 255 255 255 255 255
255 255 255 255 255 255 255 255 255 255 255 255 255 255 255 255 255 255 255 255 255 255 255 255 255 255 255 255 255 255 255 255 255 255 255 255 255 255 255 255 255 255 255 255 255 255 255 255 255 255 255 255 255 255 255 255 255 255 255 255 255 255 255 255 255 255 255 255 255 255 255 255 255 255 255 255 255 255 255 255 255 255 255 255 255 255 255 255 255 255 255 255
255 255 255 255 255 255 255 255 255 255 255 255 255 255 255 255 255 255 255 255 255 255 255 255 255 255 255 255 255 255 255 253 252 250 249 247 246 245 245 246 246 247 249 251 251 254 255 255 255 255 255 255 255 255 255 255 255 255 255 255 255 255 255 255 255 255 255 255 255 255 255 255 255 255 255 255 255 255 255 255 255 255 255 255 255 255 255 255 255 255 255 255
255 255 255 255 255 255 255 255 255 255 255 255 255 255 255 255 255 255 255 255 255 255 255 255 255 255 255 254 251 248 242 239 236 233 231 227 228 225 227 227 227 227 229 234 238 240 241 246 250 253 255 255 255 255 255 255 255 255 255 255 255 255 255 255 255 255 255 255 255 255 255 255 255 255 255 255 255 255 255 255 255 255 255 255 255 255 255 255 255 255 255 255
255 255 255 255 255 255 255 255 255 255 255 255 255 255 255 255 255 255 255 255 255 255 255 255 255 251 245 241 235 228 225 218 215 213 211 209 206 206 205 206 205 210 210 213 216 219 225 229 232 238 244 249 253 255 255 255 255 255 255 255 255 255 255 255 255 255 255 255 255 255 255 255 255 255 255 255 255 255 255 255 255 255 255 255 255 255 255 255 255 255 255 255
255 255 255 255 255 255 255 255 255 255 255 255 255 255 255 255 255 255 255 255 255 255 255 251 243 234 228 222 215 208 201 198 199 194 191 189 189 190 185 188 191 189 192 194 196 203 204 208 213 219 225 228 238 244 251 254 255 255 255 255 255 255 255 255 255 255 255 255 255 255 255 255 255 255 255 255 255 255 255 255 255 255 255 255 255 255 255 255 255 255 255 255
255 255 255 255 255 255 255 255 255 255 255 255 255 255 255 255 255 255 255 255 255 253 244 234 222 215 208 198 194 188 184 183 180 175 176 174 173 173 172 173 174 176 173 178 179 181 188 191 192 200 206 209 218 225 234 242 249 254 255 255 255 255 255 255 255 255 255 255 255 255 255 255 255 255 255 255 255 255 255 255 255 255 255 255 255 255 255 255 255 255 255 255
255 255 255 255 255 255 255 255 255 255 255 255 255 255 255 255 255 255 255 254 248 236 224 216 201 194 186 182 175 172 171 171 167 168 169 173 169 174 173 171 173 172 173 173 170 171 173 175 177 183 186 195 198 204 214 223 232 242 248 254 255 255 255 255 255 255 255 255 255 255 255 255 255 255 255 255 255 255 255 255 255 255 255 255 255 255 255 255 255 255 255 255
255 255 255 255 255 255 255 255 255 255 255 255 255 255 255 255 255 255 254 242 230 215 202 191 185 178 173 167 163 166 164 170 171 174 178 178 174 178 179 176 178 176 178 179 181 172 169 171 169 167 172 174 181 190 195 206 212 223 231 243 251 255 255 255 255 255 255 255 255 255 255 255 255 255 255 255 255 255 255 255 255 255 255 255 255 255 255 255 255 255 255 255
255 255 255 255 255 255 255 255 255 255 255 255 255 255 255 255 255 252 239 224 208 195 186 177 168 166 161 162 165 173 177 176 175 179 183 178 184 183 182 179 185 181 178 180 179 178 179 178 174 173 167 167 167 176 181 188 197 203 213 224 233 244 253 255 255 255 255 255 255 255 255 255 255 255 255 255 255 255 255 255 255 255 255 255 255 255 255 255 255 255 255 255
255 255 255 255 255 255 255 255 255 255 255 255 255 255 255 255 253 236 220 204 190 173 164 164 155 161 167 168 177 178 181 180 185 183 187 182 183 180 186 188 185 187 185 183 183 181 184 178 178 178 174 172 173 167 167 171 177 188 196 206 212 227 240 250 255 255 255 255 255 255 255 255 255 255 255 255 255 255 255 255 255 255 255 255 255 255 255 255 255 255 255 255
255 255 255 255 255 255 255 255 255 255 255 255 255 255 255 253 240 217 199 184 172 159 159 156 160 167 175 176 182 188 184 188 184 188 187 187 190 186 189 190 190 188 188 189 190 183 186 184 181 182 177 178 177 171 172 170 169 169 179 190 198 209 222 234 246 254 255 255 255 255 255 255 255 255 255 255 255 255 255 255 255 255 255 255 255 255 255 255 255 255 255 255
255 255 255 255 255 255 255 255 255 255 255 255 255 255 255 241 218 198 179 161 158 155 157 163 172 179 175 180 187 186 183 189 187 188 189 191 190 192 190 190 191 188 190 186 186 187 187 188 184 182 187 183 180 181 174 172 167 169 169 170 183 192 201 216 228 240 252 255 255 255 255 255 255 255 255 255 255 255 255 255 255 255 255 255 255 255 255 255 255 255 255 255
255 255 255 255 255 255 255 255 255 255 255 255 255 255 246 221 195 181 159 148 148 145 160 173 173 179 178 186 186 189 191 192 187 189 189 192 190 189 188 193 190 191 190 191 190 187 187 188 188 187 186 185 180 183 181 177 178 171 170 166 169 177 184 201 214 225 239 250 255 255 255 255 255 255 255 255 255 255 255 255 255 255 255 255 255 255 255 255 255 255 255 255
255 255 255 255 255 255 255 255 255 255 255 255 255 252 227 202 181 164 150 141 145 155 171 178 183 185 182 188 186 190 189 189 193 193 188 193 195 190 194 194 189 191 192 191 192 189 190 187 187 187 186 185 184 184 183 183 175 174 173 168 165 163 174 183 196 208 225 236 250 255 255 255 255 255 255 255 255 255 255 255 255 255 255 255 255 255 255 255 255 255 255 255
255 255 255 255 255 255 255 255 255 255 255 255 255 240 209 187 166 151 140 137 153 171 176 180 183 187 186 188 190 191 188 190 190 192 191 190 192 198 194 189 195 193 193 192 192 188 191 190 189 190 189 186 191 187 188 178 180 180 179 176 170 170 164 170 178 190 204 222 236 248 255 255 255 255 255 255 255 255 255 255 255 255 255 255 255 255 255 255 255 255 255 255
255 255 255 255 255 255 255 255 255 255 255 255 249 222 194 171 153 143 136 147 166 172 182 182 184 188 191 192 192 193 192 192 189 193 191 195 194 193 191 193 193 194 191 193 189 192 190 193 188 191 191 187 185 186 183 186 185 180 182 177 174 172 166 166 172 175 189 205 218 234 248 255 255 255 255 255 255 255 255 255 255 255 255 255 255 255 255 255 255 255 255 255
255 255 255 255 255 255 255 255 255 255 255 255 236 206 179 157 147 134 137 165 173 179 181 185 186 186 191 193 194 193 191 191 195 193 195 193 189 193 194 193 194 193 192 193 195 192 191 191 191 190 191 190 186 190 185 185 180 182 184 181 178 175 174 168 163 161 177 190 201 218 235 249 255 255 255 255 255 255 255 255 255 255 255 255 255 255 255 255 255 255 255 255
255 255 255 255 255 255 255 255 255 255 255 250 218 192 161 149 131 131 152 169 179 179 182 190 189 190 189 193 190 193 195 196 197 194 194 193 196 192 195 195 192 190 195 196 193 193 193 191 189 191 190 190 192 189 188 186 187 185 183 180 182 178 176 172 172 165 162 175 186 203 219 236 250 255 255 255 255 255 255 255 255 255 255 255 255 255 255 255 255 255 255 255
255 255 255 255 255 255 255 255 255 255 255 239 204 177 154 136 130 137 167 174 179 185 187 187 192 194 191 188 190 194 193 195 193 193 196 193 197 192 196 196 194 196 195 193 193 192 196 193 189 191 195 189 189 190 189 186 191 185 185 187 184 182 179 177 173 169 168 164 178 190 204 221 239 252 255 255 255 255 255 255 255 255 255 255 255 255 255 255 255 255 255 255
255 255 255 255 255 255 255 255 255 255 254 223 192 164 144 132 126 147 169 177 184 186 187 191 190 190 191 193 194 195 193 195 197 197 195 197 197 197 194 196 196 196 196 196 194 193 193 191 191 192 190 188 188 193 192 190 188 186 188 186 183 180 184 180 179 176 168 165 168 179 193 206 225 240 253 255 255 255 255 255 255 255 255 255 255 255 255 255 255 255 255 255
255 255 255 255 255 255 255 255 255 255 247 208 174 152 133 123 126 163 172 182 184 185 188 189 190 192 191 192 190 194 198 191 195 196 192 196 193 193 196 197 196 192 200 194 195 192 194 193 191 191 192 192 190 190 191 191 191 190 187 185 186 186 183 183 180 177 171 168 165 166 176 192 212 227 245 255 255 255 255 255 255 255 255 255 255 255 255 255 255 255 255 255
255 255 255 255 255 255 255 255 255 255 234 194 167 142 124 122 137 167 175 177 187 191 189 189 192 193 194 191 195 198 196 195 193 193 193 197 195 197 194 196 196 195 197 193 193 193 191 196 193 194 191 192 194 193 190 190 187 189 189 186 187 187 185 187 181 180 176 171 171 163 165 181 195 214 234 248 255 255 255 255 255 255 255 255 255 255 255 255 255 255 255 255
255 255 255 255 255 255 255 255 255 255 220 181 148 136 124 120 152 172 176 184 186 188 190 192 196 195 196 196 195 193 196 198 196 197 195 192 195 197 194 192 193 192 197 193 191 193 194 195 191 193 193 192 192 190 189 189 189 194 193 189 187 189 184 185 182 179 178 174 171 169 165 170 186 198 217 236 252 255 255 255 255 255 255 255 255 255 255 255 255 255 255 255
255 255 255 255 255 255 255 255 255 252 211 171 150 124 118 120 162 175 179 183 186 193 191 192 193 191 196 195 193 194 198 196 194 197 195 195 195 197 195 194 193 193 196 192 194 193 191 192 192 193 196 193 191 194 196 195 189 191 192 189 187 187 190 184 186 183 178 179 175 172 165 160 172 187 205 224 243 254 255 255 255 255 255 255 255 255 255 255 255 255 255 255
255 255 255 255 255 255 255 255 255 245 200 165 141 120 114 126 168 177 181 185 187 188 191 192 193 194 195 194 196 194 197 195 194 196 198 195 198 195 197 196 194 197 194 192 194 194 189 193 191 192 190 192 193 189 185 190 190 189 190 189 189 188 190 189 183 185 183 182 180 173 170 166 169 176 192 212 231 248 255 255 255 255 255 255 255 255 255 255 255 255 255 255
255 255 255 255 255 255 255 255 255 233 191 158 133 115 116 134 168 176 182 183 187 194 193 193 196 195 196 196 195 196 197 196 201 194 193 197 193 197 193 195 193 195 192 192 191 196 193 192 195 194 191 190 191 194 190 194 192 188 189 190 189 187 185 190 184 187 189 179 179 175 172 169 165 170 180 197 218 238 253 255 255 255 255 255 255 255 255 255 255 255 255 255
255 255 255 255 255 255 255 255 255 225 179 152 129 110 115 149 172 177 182 185 188 189 193 194 198 196 194 197 196 195 193 196 197 194 197 200 196 193 198 194 194 198 195 192 191 193 192 188 196 188 192 194 194 193 191 191 194 192 192 191 189 189 190 188 186 187 183 187 178 184 178 169 168 161 174 189 204 227 245 255 255 255 255 255 255 255 255 255 255 255 255 255
255 255 255 255 255 255 255 255 255 219 177 146 123 112 115 154 174 180 185 188 188 193 189 194 195 194 194 196 196 196 198 195 196 196 195 195 198 197 194 191 194 196 195 195 195 192 193 194 195 194 195 192 195 191 190 194 191 187 194 191 192 189 189 193 184 187 187 186 186 181 179 175 173 163 164 180 198 215 235 252 255 255 255 255 255 255 255 255 255 255 255 255
255 255 255 255 255 255 255 255 252 211 175 142 121 111 124 160 173 179 184 187 192 189 191 192 191 196 194 198 199 193 194 196 195 196 193 197 194 193 195 192 191 195 195 192 195 193 194 192 189 193 189 191 192 192 190 191 191 191 188 191 191 193 191 188 188 189 188 187 185 180 182 176 174 171 161 172 188 206 223 245 255 255 255 255 255 255 255 255 255 255 255 255
255 255 255 255 255 255 255 255 251 205 168 138 119 111 120 163 176 182 186 190 188 190 194 193 195 194 193 194 194 196 195 194 194 192 197 195 195 194 196 193 193 194 193 192 189 194 191 194 192 195 189 192 196 191 192 191 188 193 194 191 194 192 190 194 191 187 184 185 185 181 181 175 177 171 165 168 180 198 215 236 251 255 255 255 255 255 255 255 255 255 255 255
255 255 255 255 255 255 255 255 247 200 165 137 120 109 129 167 177 182 186 190 188 190 191 196 193 193 198 195 196 196 195 196 195 196 192 196 193 196 194 193 194 192 192 193 190 194 190 189 193 194 193 194 190 190 191 190 190 191 192 192 193 192 190 187 189 187 188 189 181 184 185 184 181 178 170 160 175 187 206 225 245 255 255 255 255 255 255 255 255 255 255 255
255 255 255 255 255 255 255 255 245 197 161 135 119 109 126 167 179 183 186 190 188 190 191 191 198 195 199 197 197 189 192 196 195 198 194 193 196 195 191 193 192 194 196 193 191 191 192 194 191 193 193 197 193 194 196 192 189 189 189 190 191 190 194 187 188 189 190 188 185 187 181 179 178 176 172 161 168 180 199 217 239 253 255 255 255 255 255 255 255 255 255 255
255 255 255 255 255 255 255 255 244 198 159 133 111 110 134 169 177 182 187 185 190 194 193 195 192 198 194 196 195 197 193 193 191 198 196 195 191 190 196 193 193 191 191 190 195 194 190 195 191 191 194 193 191 191 194 192 190 190 195 190 189 192 192 188 190 188 193 190 186 188 188 186 179 179 174 168 167 174 187 213 227 247 255 255 255 255 255 255 255 255 255 255
255 255 255 255 255 255 255 255 243 196 162 133 118 109 130 164 178 183 186 187 189 192 197 189 193 192 194 196 195 192 193 192 192 194 196 193 192 194 194 195 194 191 193 195 190 194 193 193 193 196 192 190 194 193 192 191 192 192 192 192 190 190 189 193 190 191 193 188 188 190 187 184 180 178 174 173 163 169 182 201 223 240 255 255 255 255 255 255 255 255 255 255
255 255 255 255 255 255 255 255 243 193 157 131 109 115 129 168 176 185 186 186 190 190 195 192 193 198 195 192 195 196 196 193 194 194 191 196 195 197 194 193 190 190 192 191 194 191 188 193 192 191 192 188 194 195 190 193 191 194 192 191 193 190 193 190 191 191 193 190 185 185 188 187 182 180 179 170 168 163 176 192 214 236 252 255 255 255 255 255 255 255 255 255
255 255 255 255 255 255 255 255 245 199 159 131 116 111 126 167 179 178 185 189 191 193 191 192 190 198 195 194 194 195 195 194 194 194 192 193 189 195 194 192 192 194 193 193 191 191 193 195 193 190 190 191 190 187 194 193 189 191 192 189 189 196 191 190 192 192 187 187 187 188 190 186 185 182 182 175 167 162 171 188 206 229 248 255 255 255 255 255 255 255 255 255
255 255 255 255 255 255 255 255 247 193 160 131 115 108 126 167 176 182 186 188 192 190 194 192 194 194 189 194 193 195 197 191 194 193 197 196 194 192 192 196 194 192 196 194 193 192 194 193 191 190 194 189 189 192 190 188 188 192 188 190 192 190 190 191 191 195 190 193 193 189 187 188 185 184 180 177 176 170 171 180 203 223 241 255 255 255 255 255 255 255 255 255
255 255 255 255 255 255 255 255 248 201 161 133 112 107 123 165 175 183 185 192 191 189 190 193 193 193 192 194 191 196 195 193 199 195 194 195 195 191 189 193 193 189 195 193 189 194 194 190 193 187 187 190 192 190 191 193 193 193 189 193 191 191 191 191 189 190 192 188 190 187 189 188 186 183 183 180 174 168 168 177 194 215 238 253 255 255 255 255 255 255 255 255
255 255 255 255 255 255 255 255 250 204 168 138 118 101 118 162 176 181 186 188 191 191 191 193 191 191 194 194 195 197 193 194 194 193 193 192 193 194 195 191 189 192 191 191 191 190 191 190 189 192 191 190 192 190 191 192 194 192 187 193 188 191 195 192 192 193 188 194 190 189 188 189 187 184 184 182 177 173 166 172 190 210 231 250 255 255 255 255 255 255 255 255
255 255 255 255 255 255 255 255 253 212 166 135 116 107 115 154 175 182 184 187 189 191 190 191 195 196 195 194 193 197 192 194 193 194 197 189 191 195 196 191 192 193 193 193 194 194 195 193 194 191 191 192 191 190 189 191 193 191 194 191 189 191 192 191 189 195 189 194 191 188 192 185 188 185 180 180 180 173 167 171 186 206 226 247 255 255 255 255 255 255 255 255
255 255 255 255 255 255 255 255 254 217 170 139 117 109 111 149 176 182 185 186 186 187 193 194 189 191 190 192 195 194 196 195 192 193 198 192 193 191 191 192 189 195 192 192 189 190 190 191 189 193 192 192 189 190 191 191 191 188 191 196 194 191 190 192 192 196 194 192 190 188 187 188 186 188 184 185 177 171 171 166 182 201 222 243 255 255 255 255 255 255 255 255
255 255 255 255 255 255 255 255 255 225 178 142 121 106 108 140 170 181 182 185 189 188 191 195 196 191 195 193 194 191 195 197 193 194 192 196 192 196 193 194 192 190 191 191 193 192 191 193 192 191 192 192 193 193 188 194 192 192 194 196 190 191 194 193 193 191 190 190 191 192 188 190 186 189 185 183 183 178 171 165 182 199 219 236 254 255 255 255 255 255 255 255
255 255 255 255 255 255 255 255 255 235 184 144 124 108 102 133 171 176 182 186 188 195 193 192 189 191 191 197 192 198 193 191 196 195 196 193 195 192 190 193 191 195 195 191 193 190 190 196 191 192 192 192 192 195 188 196 194 194 193 194 192 194 190 193 192 193 191 191 192 188 187 187 193 189 183 184 183 175 172 166 174 197 215 236 252 255 255 255 255 255 255 255
255 255 255 255 255 255 255 255 255 245 195 155 125 114 109 121 160 178 181 189 187 190 190 189 193 193 197 194 191 191 192 195 190 192 195 193 191 193 194 192 193 191 191 188 191 193 192 193 191 194 194 192 191 189 189 191 190 194 194 190 193 192 193 190 191 193 190 194 190 190 188 189 188 189 186 185 181 178 171 171 175 191 212 233 251 255 255 255 255 255 255 255
255 255 255 255 255 255 255 255 255 249 205 163 130 115 102 113 153 174 181 185 188 187 185 191 189 196 191 193 193 193 191 194 193 194 194 193 195 193 191 197 193 191 188 188 191 191 191 195 193 192 191 197 190 191 190 192 192 191 193 194 189 192 193 193 194 191 191 195 193 193 189 186 188 188 186 185 182 180 172 169 171 191 213 230 249 255 255 255 255 255 255 255
255 255 255 255 255 255 255 255 255 254 217 169 139 122 104 106 144 171 176 183 186 191 189 191 191 194 192 193 191 197 196 195 193 193 193 192 188 190 195 194 193 194 192 193 192 189 194 189 191 192 193 191 191 196 191 194 196 192 191 194 189 191 194 193 194 192 192 193 189 191 189 191 188 186 188 185 184 177 178 169 172 184 209 227 247 255 255 255 255 255 255 255
255 255 255 255 255 255 255 255 255 255 230 180 145 127 105 101 129 166 177 182 185 187 187 194 191 192 190 194 193 192 191 190 194 192 195 191 191 192 193 194 190 193 193 192 194 193 191 193 192 191 191 190 193 190 196 194 192 191 193 194 192 196 191 190 195 193 193 193 192 192 190 192 189 184 190 184 180 178 177 171 171 180 205 227 247 255 255 255 255 255 255 255
255 255 255 255 255 255 255 255 255 255 244 193 152 122 109 97 118 159 175 176 186 186 188 187 190 194 195 193 195 195 197 191 193 194 197 195 192 192 193 196 191 191 190 194 193 193 193 188 194 190 193 194 192 194 193 191 193 192 192 192 190 192 194 194 194 193 192 191 193 192 192 190 187 187 188 186 183 182 176 174 168 183 202 226 245 255 255 255 255 255 255 255
255 255 255 255 255 255 255 255 255 255 252 206 168 142 109 99 112 141 169 178 183 183 189 188 190 193 190 191 191 192 194 195 193 193 190 190 190 194 192 195 191 192 190 198 192 193 190 191 191 193 191 190 190 192 193 195 193 190 190 192 195 192 196 196 193 192 193 195 194 194 192 194 191 190 189 188 185 179 178 171 168 185 205 226 244 255 255 255 255 255 255 255
255 255 255 255 255 255 255 255 255 255 255 225 176 141 115 107 97 125 164 176 182 185 187 189 188 188 192 188 193 194 194 188 195 194 194 191 192 194 194 194 193 193 190 194 193 192 194 194 191 196 191 192 192 191 195 192 191 196 196 193 196 193 191 190 195 195 194 193 194 190 191 189 191 190 190 188 186 180 175 168 172 183 201 226 246 255 255 255 255 255 255 255
255 255 255 255 255 255 255 255 255 255 255 242 190 156 122 111 98 114 153 176 180 185 186 187 188 188 191 193 190 192 192 192 196 194 191 197 196 194 194 191 192 192 192 193 191 193 194 198 192 192 193 194 194 193 193 193 193 194 193 193 196 196 195 192 192 196 194 191 194 192 196 193 195 188 190 185 183 179 177 172 172 185 204 223 244 255 255 255 255 255 255 255
255 255 255 255 255 255 255 255 255 255 255 252 212 167 136 117 100 104 136 170 177 182 183 184 190 189 189 193 190 191 193 194 193 192 188 191 194 192 194 194 194 195 192 191 197 195 191 193 193 194 192 193 190 195 191 195 192 193 194 194 193 193 193 194 199 195 194 194 192 192 193 192 193 187 188 186 185 180 178 170 170 185 206 224 244 255 255 255 255 255 255 255
255 255 255 255 255 255 255 255 255 255 255 255 235 183 148 123 106 98 112 155 173 180 181 186 190 190 189 193 190 194 191 194 192 193 192 193 192 195 191 192 193 189 191 191 196 195 196 196 194 193 193 192 192 193 192 191 191 194 197 194 192 195 192 193 196 194 192 192 192 193 193 193 190 191 190 189 186 182 181 172 175 187 208 226 246 255 255 255 255 255 255 255
255 255 255 255 255 255 255 255 255 255 255 255 250 204 165 132 114 95 96 130 164 177 180 181 191 189 186 189 190 189 191 192 194 194 194 195 192 193 189 192 193 192 193 192 190 193 194 194 197 192 195 193 193 196 192 193 199 194 191 197 195 195 191 194 194 195 195 193 193 190 193 191 190 190 192 187 188 179 179 169 176 186 211 229 247 255 255 255 255 255 255 255
255 255 255 255 255 255 255 255 255 255 255 255 255 226 181 144 118 108 101 108 152 170 180 182 186 186 186 190 191 192 191 189 195 191 195 191 195 192 192 195 192 193 194 194 196 194 196 194 194 193 195 191 193 193 198 195 195 199 194 195 198 194 194 194 194 194 196 195 194 195 192 190 192 191 186 189 184 178 178 170 176 192 210 230 250 255 255 255 255 255 255 255
255 255 255 255 255 255 255 255 255 255 255 255 255 248 200 161 131 114 99 99 126 165 175 179 183 182 187 190 192 192 191 193 193 193 190 195 193 194 195 193 194 197 194 193 192 193 193 193 193 194 192 191 194 197 197 197 192 195 195 200 196 196 194 197 198 196 190 195 194 195 196 190 191 190 192 187 185 182 177 169 175 191 213 233 251 255 255 255 255 255 255 255
255 255 255 255 255 255 255 255 255 255 255 255 255 255 229 180 145 120 106 98 108 145 167 178 181 185 183 185 187 190 191 192 196 191 193 197 190 194 196 197 195 192 195 194 194 189 194 194 195 197 194 195 194 195 196 195 194 195 195 195 195 192 197 193 194 192 198 194 193 194 191 188 190 191 188 185 184 178 172 172 180 197 214 238 252 255 255 255 255 255 255 255
255 255 255 255 255 255 255 255 255 255 255 255 255 255 249 206 162 134 113 103 102 118 158 174 180 185 188 187 187 191 188 192 190 193 190 190 192 196 191 195 192 195 197 194 192 194 193 196 194 193 196 193 196 194 198 192 197 196 195 191 192 191 197 194 196 195 198 191 193 193 196 193 191 194 190 184 182 178 173 168 185 199 221 241 254 255 255 255 255 255 255 255
255 255 255 255 255 255 255 255 255 255 255 255 255 255 255 232 185 150 124 108 96 104 128 164 176 179 179 185 186 188 192 192 191 192 191 193 193 195 196 193 193 194 193 194 194 195 193 194 194 196 191 197 196 195 196 196 191 198 194 198 196 196 194 197 196 193 195 193 191 193 192 191 189 186 190 184 178 178 172 175 187 207 225 245 255 255 255 255 255 255 255 255
255 255 255 255 255 255 255 255 255 255 255 255 255 255 255 252 216 170 140 126 105 97 106 134 172 178 180 181 185 186 186 188 191 190 194 195 195 192 194 190 193 194 190 193 195 194 195 193 195 194 197 191 199 194 194 193 193 193 196 196 197 195 193 195 194 194 195 195 194 193 192 188 190 189 186 185 183 178 170 176 192 210 229 247 255 255 255 255 255 255 255 255
255 255 255 255 255 255 255 255 255 255 255 255 255 255 255 255 242 198 160 133 111 102 95 109 148 169 176 178 183 187 187 187 189 191 189 193 192 196 191 193 197 194 192 197 195 192 193 195 195 194 196 197 196 194 195 194 195 194 196 195 196 195 191 196 195 194 194 196 192 193 191 188 188 190 184 185 183 176 170 179 199 216 235 251 255 255 255 255 255 255 255 255
255 255 255 255 255 255 255 255 255 255 255 255 255 255 255 255 255 230 187 150 124 105 104 96 115 154 171 178 181 179 185 187 193 188 190 191 192 195 193 193 190 194 189 196 193 195 193 197 193 199 192 195 194 195 196 195 194 197 192 193 197 194 192 195 196 191 192 193 189 193 195 193 186 187 185 181 176 174 173 184 200 221 239 254 255 255 255 255 255 255 255 255
255 255 255 255 255 255 255 255 255 255 255 255 255 255 255 255 255 252 214 177 149 126 107 102 99 118 156 171 179 180 185 188 186 184 188 190 187 193 191 190 195 196 194 192 197 194 192 195 195 194 198 196 197 193 196 196 195 194 193 194 195 196 196 192 195 194 194 196 192 192 192 191 189 187 185 181 176 170 175 188 209 225 245 255 255 255 255 255 255 255 255 255
255 255 255 255 255 255 255 255 255 255 255 255 255 255 255 255 255 255 246 207 172 138 121 112 100 101 129 155 172 178 181 182 181 184 187 189 192 191 189 190 197 191 190 194 194 194 192 193 194 196 191 195 193 194 196 195 196 198 197 194 196 193 196 195 194 195 194 191 192 194 191 187 188 187 182 176 173 171 183 197 217 236 250 255 255 255 255 255 255 255 255 255
255 255 255 255 255 255 255 255 255 255 255 255 255 255 255 255 255 255 255 242 198 164 137 116 102 96 106 125 158 173 178 178 181 184 186 190 190 192 191 189 191 191 193 192 191 194 193 192 197 193 194 193 195 195 190 196 196 196 194 195 194 197 196 195 195 193 193 192 192 189 193 186 184 181 179 175 168 174 189 201 223 242 254 255 255 255 255 255 255 255 255 255
255 255 255 255 255 255 255 255 255 255 255 255 255 255 255 255 255 255 255 255 233 195 158 138 114 101 102 104 125 155 170 176 178 180 185 189 187 186 187 192 193 189 192 190 193 196 193 192 195 193 194 193 193 195 198 196 196 198 195 194 197 195 192 195 198 193 193 192 196 192 188 185 182 177 178 174 169 180 193 212 231 247 255 255 255 255 255 255 255 255 255 255
255 255 255 255 255 255 255 255 255 255 255 255 255 255 255 255 255 255 255 255 254 232 191 156 134 118 105 102 99 119 151 167 175 179 181 181 183 186 187 190 192 189 191 190 189 191 192 195 194 193 193 192 197 192 196 194 193 194 191 194 192 196 194 194 195 192 191 191 186 186 185 183 180 181 169 166 174 182 204 221 236 253 255 255 255 255 255 255 255 255 255 255
255 255 255 255 255 255 255 255 255 255 255 255 255 255 255 255 255 255 255 255 255 254 228 189 161 134 118 110 96 100 112 141 163 171 177 180 186 181 186 192 188 192 190 191 192 194 194 191 192 192 195 195 193 193 191 190 192 193 193 193 190 193 192 191 192 188 189 190 189 187 188 184 179 177 166 168 177 194 212 231 248 255 255 255 255 255 255 255 255 255 255 255
255 255 255 255 255 255 255 255 255 255 255 255 255 255 255 255 255 255 255 255 255 255 253 224 189 163 139 118 108 105 99 108 132 160 169 173 181 182 184 187 185 191 190 184 189 188 190 192 191 192 191 193 195 192 192 194 194 193 193 196 193 193 191 191 189 192 188 184 184 183 179 180 176 165 166 170 188 200 222 239 253 255 255 255 255 255 255 255 255 255 255 255
255 255 255 255 255 255 255 255 255 255 255 255 255 255 255 255 255 255 255 255 255 255 255 254 229 194 163 140 122 111 104 98 105 119 147 165 173 176 182 183 183 185 182 187 189 191 188 187 187 190 191 191 191 193 194 193 195 196 189 189 192 188 190 188 189 185 187 183 185 180 179 173 168 167 167 179 197 215 233 249 255 255 255 255 255 255 255 255 255 255 255 255
255 255 255 255 255 255 255 255 255 255 255 255 255 255 255 255 255 255 255 255 255 255 255 255 254 233 201 176 146 125 115 107 106 102 110 135 155 170 173 176 180 184 182 184 186 185 184 188 190 189 192 193 190 189 192 190 190 189 188 191 189 187 188 189 184 189 183 183 181 180 173 161 160 168 177 190 210 228 242 254 255 255 255 255 255 255 255 255 255 255 255 255
255 255 255 255 255 255 255 255 255 255 255 255 255 255 255 255 255 255 255 255 255 255 255 255 255 255 241 209 178 152 132 120 112 107 101 105 120 134 158 170 173 179 182 180 185 184 182 184 187 188 190 190 183 188 190 190 191 190 187 188 189 184 182 183 181 179 178 176 177 173 164 161 163 174 186 206 223 239 253 255 255 255 255 255 255 255 255 255 255 255 255 255
255 255 255 255 255 255 255 255 255 255 255 255 255 255 255 255 255 255 255 255 255 255 255 255 255 255 255 247 220 185 167 145 126 119 112 105 103 112 116 138 156 171 174 178 177 180 181 181 186 185 183 184 184 183 188 184 186 185 181 185 185 183 184 177 178 176 174 174 167 161 152 157 170 183 202 221 235 249 255 255 255 255 255 255 255 255 255 255 255 255 255 255
255 255 255 255 255 255 255 255 255 255 255 255 255 255 255 255 255 255 255 255 255 255 255 255 255 255 255 255 252 230 198 171 149 138 127 113 111 100 100 106 116 133 149 163 167 173 177 176 180 177 183 180 181 181 181 182 182 182 182 182 180 181 178 178 169 170 165 158 152 148 160 170 183 199 217 232 248 255 255 255 255 255 255 255 255 255 255 255 255 255 255 255
255 255 255 255 255 255 255 255 255 255 255 255 255 255 255 255 255 255 255 255 255 255 255 255 255 255 255 255 255 255 243 213 188 164 147 135 130 118 112 109 101 108 111 122 136 150 158 167 171 175 176 173 177 174 179 174 176 179 176 176 175 172 168 165 164 156 148 144 149 163 169 182 197 214 232 246 255 255 255 255 255 255 255 255 255 255 255 255 255 255 255 255
255 255 255 255 255 255 255 255 255 255 255 255 255 255 255 255 255 255 255 255 255 255 255 255 255 255 255 255 255 255 255 252 231 208 183 162 152 133 122 116 112 108 105 105 113 114 122 128 137 150 157 161 166 169 167 168 170 168 165 168 160 154 150 145 140 142 142 147 157 172 184 201 217 232 246 255 255 255 255 255 255 255 255 255 255 255 255 255 255 255 255 255
255 255 255 255 255 255 255 255 255 255 255 255 255 255 255 255 255 255 255 255 255 255 255 255 255 255 255 255 255 255 255 255 255 247 226 199 183 168 147 142 130 125 120 112 104 106 108 107 113 112 120 124 124 128 127 135 131 132 133 134 133 129 133 132 144 147 154 164 176 189 200 218 230 248 255 255 255 255 255 255 255 255 255 255 255 255 255 255 255 255 255 255
255 255 255 255 255 255 255 255 255 255 255 255 255 255 255 255 255 255 255 255 255 255 255 255 255 255 255 255 255 255 255 255 255 255 255 245 227 204 185 169 160 147 141 133 133 123 121 119 117 113 112 110 114 114 113 119 118 123 123 125 127 136 142 147 153 158 170 183 196 212 224 238 252 255 255 255 255 255 255 255 255 255 255 255 255 255 255 255 255 255 255 255
255 255 255 255 255 255 255 255 255 255 255 255 255 255 255 255 255 255 255 255 255 255 255 255 255 255 255 255 255 255 255 255 255 255 255 255 255 247 231 209 192 178 166 161 152 145 136 136 126 128 127 122 119 121 125 124 123 128 134 137 141 150 155 161 171 181 191 201 215 231 245 254 255 255 255 255 255 255 255 255 255 255 255 255 255 255 255 255 255 255 255 255
255 255 255 255 255 255 255 255 255 255 255 255 255 255 255 255 255 255 255 255 255 255 255 255 255 255 255 255 255 255 255 255 255 255 255 255 255 255 255 251 242 222 206 195 179 177 164 162 149 147 146 141 146 143 138 142 150 150 156 161 165 170 180 186 197 206 217 228 241 252 255 255 255 255 255 255 255 255 255 255 255 255 255 255 255 255 255 255 255 255 255 255
255 255 255 255 255 255 255 255 255 255 255 255 255 255 255 255 255 255 255 255 255 255 255 255 255 255 255 255 255 255 255 255 255 255 255 255 255 255 255 255 255 255 250 240 229 215 205 190 187 180 176 174 167 172 171 173 171 177 184 185 193 202 208 216 226 235 245 252 255 255 255 255 255 255 255 255 255 255 255 255 255 255 255 255 255 255 255 255 255 255 255 255
255 255 255 255 255 255 255 255 255 255 255 255 255 255 255 255 255 255 255 255 255 255 255 255 255 255 255 255 255 255 255 255 255 255 255 255 255 255 255 255 255 255 255 255 255 253 248 241 233 226 219 212 209 206 207 206 204 211 214 222 226 233 240 247 252 255 255 255 255 255 255 255 255 255 255 255 255 255 255 255 255 255 255 255 255 255 255 255 255 255 255 255
255 255 255 255 255 255 255 255 255 255 255 255 255 255 255 255 255 255 255 255 255 255 255 255 255 255 255 255 255 255 255 255 255 255 255 255 255 255 255 255 255 255 255 255 255 255 255 255 255 255 255 253 252 249 248 248 249 250 251 254 254 255 255 255 255 255 255 255 255 255 255 255 255 255 255 255 255 255 255 255 255 255 255 255 255 255 255 255 255 255 255 255
255 255 255 255 255 255 255 255 255 255 255 255 255 255 255 255 255 255 255 255 255 255 255 255 255 255 255 255 255 255 255 255 255 255 255 255 255 255 255 255 255 255 255 255 255 255 255 255 255 255 255 255 255 255 255 255 255 255 255 255 255 255 255 255 255 255 255 255 255 255 255 255 255 255 255 255 255 255 255 255 255 255 255 255 255 255 255 255 255 255 255 255
255 255 255 255 255 255 255 255 255 255 255 255 255 255 255 255 255 255 255 255 255 255 255 255 255 255 255 255 255 255 255 255 255 255 255 255 255 255 255 255 255 255 255 255 255 255 255 255 255 255 255 255 255 255 255 255 255 255 255 255 255 255 255 255 255 255 255 255 255 255 255 255 255 255 255 255 255 255 255 255 255 255 255 255 255 255 255 255 255 255 255 255
255 255 255 255 255 255 255 255 255 255 255 255 255 255 255 255 255 255 255 255 255 255 255 255 255 255 255 255 255 255 255 255 255 255 255 255 255 255 255 255 255 255 255 255 255 255 255 255 255 255 255 255 255 255 255 255 255 255 255 255 255 255 255 255 255 255 255 255 255 255 255 255 255 255 255 255 255 255 255 255 255 255 255 255 255 255 255 255 255 255 255 255
255 255 255 255 255 255 255 255 255 255 255 255 255 255 255 255 255 255 255 255 255 255 255 255 255 255 255 255 255 255 255 255 255 255 255 255 255 255 255 255 255 255 255 255 255 255 255 255 255 255 255 255 255 255 255 255 255 255 255 255 255 255 255 255 255 255 255 255 255 255 255 255 255 255 255 255 255 255 255 255 255 255 255 255 255 255 255 255 255 255 255 255
